<?xml version="1.0" encoding="UTF-8"?>
<map version="1.10" tiledversion="1.12.1" orientation="orthogonal" renderorder="left-up" width="20" height="15" tilewidth="32" tileheight="32" infinite="0" nextlayerid="5" nextobjectid="1">
 <tileset firstgid="1" source="../TILESET/Fall1.tsx"/>
 <tileset firstgid="321" source="../TILESET/dinocenter.tsx"/>
 <layer id="1" name="Tile Layer 1" width="20" height="15">
  <data encoding="csv">
4,4,4,4,4,4,4,4,4,4,4,4,4,4,4,4,4,4,4,4,
4,4,4,4,4,4,4,4,4,4,4,4,4,4,4,4,4,4,4,4,
4,4,4,4,4,4,4,4,4,4,4,4,4,4,4,4,4,4,4,4,
4,4,4,4,4,4,4,4,4,4,4,4,4,4,4,4,4,4,4,4,
4,4,4,4,4,4,4,4,4,4,4,4,4,4,4,4,4,4,4,4,
4,4,4,4,4,4,4,4,4,4,4,4,4,4,4,4,4,4,4,4,
4,4,4,4,4,4,4,4,4,4,4,4,4,4,4,4,4,4,4,4,
4,4,4,4,4,4,4,4,4,4,4,4,4,4,4,4,4,4,4,4,
4,4,4,4,4,4,4,4,4,4,4,4,4,4,4,4,4,4,4,4,
4,4,4,4,4,4,4,4,4,4,4,4,4,4,4,4,4,4,4,4,
4,4,4,4,4,4,4,4,4,4,4,4,4,4,4,4,4,4,4,4,
4,4,4,4,4,4,4,4,4,4,4,4,4,4,4,4,4,4,4,4,
4,4,4,4,4,4,4,4,4,4,4,4,4,4,4,4,4,4,4,4,
4,4,4,4,4,4,4,4,4,4,4,4,4,4,4,4,4,4,4,4,
4,4,4,4,4,4,4,4,4,4,4,4,4,4,4,4,4,4,4,4
</data>
 </layer>
 <layer id="2" name="Tile Layer 2" width="20" height="15">
  <data encoding="csv">
0,0,0,0,0,0,0,0,0,0,0,0,0,0,0,0,0,0,0,0,
0,0,0,0,0,0,0,0,0,0,0,0,0,0,0,0,0,0,0,0,
0,0,0,0,0,0,0,0,137,138,138,138,139,0,0,0,0,0,0,0,
0,0,0,0,0,0,0,0,145,146,146,146,147,0,0,0,0,0,0,0,
0,0,0,0,0,0,0,0,153,154,154,154,155,0,0,0,0,0,0,0,
0,0,0,0,0,0,0,0,0,0,0,0,0,0,0,0,0,0,0,0,
0,0,0,0,0,0,0,0,0,0,0,0,0,0,0,0,0,0,0,0,
0,0,0,0,0,0,0,0,0,0,0,0,0,0,0,0,0,0,0,0,
0,0,0,0,0,0,0,0,0,0,0,0,0,0,0,0,0,0,0,0,
0,0,0,0,0,0,0,0,0,0,0,0,0,0,0,0,0,0,0,0,
0,0,0,0,0,0,0,0,0,0,0,0,0,0,0,0,0,0,0,0,
0,0,0,0,0,0,0,0,0,0,0,0,0,0,0,0,0,0,0,0,
0,0,0,0,0,0,0,0,0,0,0,0,0,0,0,0,0,0,0,0,
0,0,0,0,0,0,0,0,0,0,0,0,0,0,0,0,0,0,0,0,
0,0,0,0,0,0,0,0,0,433,434,435,0,0,0,0,0,0,0,0
</data>
 </layer>
 <layer id="3" name="Tile Layer 3" width="20" height="15">
  <data encoding="csv">
0,0,0,0,0,0,0,0,0,0,0,0,0,0,0,0,0,0,0,0,
158,158,158,158,158,158,158,158,158,158,158,158,158,158,158,158,158,158,158,158,
158,0,0,0,0,0,0,158,0,0,0,0,0,158,0,0,0,0,0,158,
158,0,0,158,158,158,0,158,0,0,0,0,0,158,0,0,158,0,0,158,
158,0,0,158,0,0,0,158,0,0,0,0,0,158,0,0,158,0,0,158,
158,0,0,158,0,158,158,158,0,158,158,158,158,0,0,0,158,0,0,158,
158,0,0,158,0,0,0,0,0,158,0,0,158,158,158,158,158,0,0,158,
158,0,0,158,158,158,158,158,158,158,0,0,0,0,0,0,0,0,0,158,
158,158,0,0,0,0,0,0,0,158,158,158,158,0,0,0,158,0,0,158,
158,0,158,158,158,158,158,158,0,0,0,0,158,0,0,0,158,0,0,158,
158,0,158,0,0,0,0,158,158,158,0,0,158,158,158,158,158,0,0,158,
158,0,158,0,0,0,0,0,0,158,158,0,0,0,0,0,0,0,0,158,
158,0,0,0,0,0,0,0,0,0,0,0,0,0,0,0,0,0,0,158,
158,0,0,0,0,0,0,0,0,0,0,0,0,0,0,0,0,0,0,158,
158,158,158,158,158,158,158,158,0,0,0,0,158,158,158,158,158,158,158,158
</data>
 </layer>
 <layer id="4" name="Tile Layer 4" width="20" height="15">
  <data encoding="csv">
150,150,150,150,150,150,150,150,150,150,150,150,150,150,150,150,150,150,150,150,
150,0,0,0,0,0,0,142,0,0,0,0,0,142,0,0,0,0,0,150,
150,0,0,142,142,142,0,142,0,0,0,0,0,142,0,0,142,0,0,150,
150,0,0,142,0,0,0,142,0,0,0,0,0,142,0,0,142,0,0,150,
150,0,0,142,0,142,142,142,0,142,142,142,142,0,0,0,142,0,0,150,
150,0,0,142,0,0,0,0,0,142,0,0,142,142,142,142,142,0,0,150,
150,0,0,142,142,142,142,142,142,142,0,0,0,0,0,0,0,0,0,150,
150,142,0,0,0,0,0,0,0,142,142,142,142,0,0,0,142,0,0,150,
150,0,142,142,142,142,142,142,0,0,0,0,142,0,0,0,142,0,0,150,
150,0,142,0,0,0,0,142,142,142,0,0,142,142,142,142,142,0,0,150,
150,0,142,0,0,0,0,0,0,142,142,0,0,0,0,0,0,0,0,150,
150,0,0,0,0,0,0,0,0,0,0,0,0,0,0,0,0,0,0,150,
150,0,0,0,0,0,0,0,0,0,0,0,0,0,0,0,0,0,0,150,
150,142,142,142,142,142,142,142,0,0,0,0,142,142,142,142,142,142,142,150,
0,0,0,0,0,0,0,0,0,0,0,0,0,0,0,0,0,0,0,0
</data>
 </layer>
</map>
