<?xml version="1.0" encoding="UTF-8"?>
<map version="1.10" tiledversion="1.12.1" orientation="orthogonal" renderorder="left-up" width="20" height="15" tilewidth="32" tileheight="32" infinite="0" nextlayerid="5" nextobjectid="1">
 <tileset firstgid="1" source="../TILESET/Base1.tsx"/>
 <tileset firstgid="273" source="../TILESET/biome2.tsx"/>
 <tileset firstgid="6379" source="../TILESET/dinocenter.tsx"/>
 <layer id="1" name="Tile Layer 1" width="20" height="15">
  <data encoding="csv">
63,63,63,63,63,63,63,63,63,63,63,63,63,63,63,63,63,63,63,63,
63,63,63,63,63,63,63,63,63,63,63,63,63,63,63,63,63,63,63,63,
63,63,63,63,63,63,63,63,49,50,50,51,63,63,63,63,63,63,63,63,
63,63,63,63,63,63,63,63,57,39,39,59,63,63,63,63,63,63,63,63,
63,63,63,63,63,63,63,63,57,39,39,68,50,50,50,50,51,63,63,63,
63,63,63,63,49,50,50,50,69,60,66,66,66,66,66,61,59,63,63,63,
63,63,63,63,57,60,66,66,66,67,63,63,63,63,63,57,59,63,63,63,
63,63,63,63,57,59,63,63,63,63,63,63,63,63,63,57,59,63,63,63,
63,63,63,63,57,68,50,50,50,50,50,50,50,50,50,69,59,63,63,63,
63,63,63,63,65,66,66,66,66,61,60,66,66,61,39,39,59,63,63,63,
63,63,63,63,63,63,63,63,63,57,59,63,63,65,66,66,67,63,63,63,
63,63,63,49,50,51,63,63,63,57,59,63,63,63,63,63,63,63,63,63,
63,63,63,57,39,59,63,63,49,69,68,51,63,63,63,63,63,63,63,63,
63,63,63,65,66,67,63,49,69,39,39,68,51,63,63,63,63,63,63,63,
63,63,63,63,63,63,63,57,39,39,39,39,59,63,63,63,63,63,63,63
</data>
 </layer>
 <layer id="2" name="Tile Layer 2" width="20" height="15">
  <data encoding="csv">
0,0,0,0,0,0,0,0,0,0,0,0,0,0,0,0,0,0,0,0,
0,0,0,0,0,0,0,0,0,0,0,0,0,0,0,0,0,0,0,0,
0,0,0,0,0,0,0,0,0,0,0,0,0,0,0,0,0,0,0,0,
0,0,0,0,0,0,0,0,0,0,0,0,0,0,0,0,0,0,0,0,
0,0,0,0,0,0,0,0,0,0,0,0,0,0,0,0,0,0,0,0,
0,0,0,0,0,0,0,0,0,0,0,0,0,0,0,0,0,0,0,0,
0,0,0,0,0,0,0,0,0,0,0,0,0,0,0,0,0,0,0,0,
0,0,0,0,0,0,0,0,0,0,0,0,0,0,0,0,0,0,0,0,
0,0,0,0,0,0,0,0,0,0,0,0,0,0,0,0,0,0,0,0,
0,0,0,0,0,0,0,0,0,0,0,0,0,0,0,0,0,0,0,0,
0,0,0,0,0,0,0,0,0,0,0,0,0,0,0,0,0,0,0,0,
0,0,0,0,0,0,0,0,0,0,0,0,0,0,0,0,0,0,0,0,
0,0,0,0,0,0,0,0,0,0,0,0,0,0,0,0,0,0,0,0,
0,0,0,0,0,0,0,0,0,0,0,0,0,0,0,0,0,0,0,0,
0,0,0,0,0,0,0,0,6491,6492,6492,6493,0,0,0,0,0,0,0,0
</data>
 </layer>
 <layer id="3" name="Tile Layer 3" width="20" height="15">
  <data encoding="csv">
3472,3472,3472,3472,3472,3472,3472,3472,3472,3472,3472,3472,3472,3472,3472,3472,3472,3472,3472,3472,
3559,3560,0,0,0,0,0,0,0,0,0,0,0,0,0,0,0,0,3559,3560,
3645,3646,0,0,0,0,0,0,3828,0,0,3828,0,0,0,0,0,0,3645,3646,
3559,3560,0,0,0,0,0,0,0,0,0,0,0,0,0,0,0,0,3559,3560,
3645,3646,0,0,0,0,0,0,0,0,0,0,0,0,0,0,0,0,3645,3646,
3559,3560,0,0,0,0,0,0,0,0,0,0,0,0,0,0,0,0,3559,3560,
3645,3646,0,0,0,0,0,0,0,0,0,0,0,0,0,0,0,0,3645,3646,
3559,3560,0,0,0,0,0,0,0,0,0,0,0,0,0,0,0,0,3559,3560,
3645,3646,0,0,0,0,0,0,0,0,0,0,0,0,0,0,0,0,3645,3646,
3559,3560,0,0,0,0,0,0,0,0,0,0,0,468,469,470,471,0,3559,3560,
3645,3646,0,0,0,0,0,0,0,0,0,0,0,554,555,556,557,0,3645,3646,
3559,3560,468,469,470,471,0,0,0,0,0,0,0,0,0,0,0,0,3559,3560,
3645,3646,554,555,556,557,0,0,0,0,0,0,0,0,0,0,0,0,3645,3646,
3559,3560,0,0,0,3827,0,0,3828,0,0,3828,0,0,0,0,0,0,3559,3560,
3645,3646,3472,3472,3472,3472,3472,0,0,0,0,0,0,3472,3472,3472,3472,3472,3645,3646
</data>
 </layer>
 <layer id="4" name="Tile Layer 4" width="20" height="15">
  <data encoding="csv">
0,0,0,0,0,0,0,0,0,0,0,0,0,0,0,0,0,0,0,0,
0,0,0,0,0,0,0,0,0,0,0,0,0,0,0,0,0,0,0,0,
0,0,0,0,0,0,0,0,0,0,0,0,0,0,0,0,0,0,0,0,
0,0,0,0,0,0,0,0,0,0,0,0,0,0,0,0,0,0,0,0,
0,0,0,0,0,0,0,0,0,0,0,0,0,0,0,0,0,0,0,0,
0,0,0,0,0,0,0,0,0,0,0,0,0,0,0,0,0,0,0,0,
0,0,0,0,0,0,0,0,0,0,0,0,0,0,0,0,0,0,0,0,
0,0,0,0,0,0,0,0,0,0,0,0,0,296,297,298,299,0,0,0,
0,0,0,0,0,0,0,0,0,0,0,0,0,382,383,384,385,0,0,0,
0,0,296,297,298,299,0,0,0,0,0,0,0,0,0,0,0,0,0,0,
0,0,382,383,384,385,0,0,0,0,0,0,0,0,0,0,0,0,0,0,
0,0,0,0,0,0,0,0,0,0,0,0,0,0,0,0,0,0,0,0,
0,0,0,0,0,0,0,0,0,0,0,0,0,0,0,0,0,0,0,0,
0,0,0,0,0,0,0,0,0,0,0,0,0,0,0,0,0,0,0,0,
0,0,0,0,0,0,0,0,0,0,0,0,0,0,0,0,0,0,0,0
</data>
 </layer>
</map>
