<?xml version="1.0" encoding="UTF-8"?>
<map version="1.10" tiledversion="1.12.1" orientation="orthogonal" renderorder="left-up" width="20" height="15" tilewidth="32" tileheight="32" infinite="0" nextlayerid="6" nextobjectid="2">
 <tileset firstgid="1" source="../TILESET/biomes.tsx"/>
 <layer id="1" name="Tile Layer 1" width="20" height="15">
  <data encoding="csv">
2707,2707,2707,2707,2707,2707,2707,2707,2707,2707,2707,2707,2707,2707,2707,2707,2707,2707,2707,2707,
2707,2707,2707,2707,2707,2707,2707,2707,2707,2707,2707,2707,2707,2707,2707,2707,2707,2707,2707,2707,
2707,2707,2707,2707,2707,2707,2707,2707,2707,2707,2707,2707,2707,2707,2707,2707,2707,2707,2707,2707,
2707,2707,2707,2707,2707,2707,2707,2707,2707,2707,2707,2707,2707,2707,2707,2707,2707,2707,2707,2707,
2707,2707,2707,2707,2707,2707,2707,2707,2707,2707,2707,2707,2707,2707,2707,2707,2707,2707,2707,2707,
2707,2707,2707,2707,2707,2707,2707,2707,2707,2707,2707,2707,2707,2707,2707,2707,2707,2707,2707,2707,
2707,2707,2707,2707,2707,2707,2707,2707,2707,2707,2707,2707,2707,2707,2707,2707,2707,2707,2707,2707,
2707,2707,2707,2707,2707,2707,2707,2707,2707,2707,2707,2707,2707,2707,2707,2707,2707,2707,2707,2707,
2707,2707,2707,2707,2707,2707,2707,2707,2707,2707,2707,2707,2707,2707,2707,2707,2707,2707,2707,2707,
2707,2707,2707,2707,2707,2707,2707,2707,2707,2707,2707,2707,2707,2707,2707,2707,2707,2707,2707,2707,
2707,2707,2707,2707,2707,2707,2707,2707,2707,2707,2707,2707,2707,2707,2707,2707,2707,2707,2707,2707,
2707,2707,2707,2707,2707,2707,2707,2707,2707,2707,2707,2707,2707,2707,2707,2707,2707,2707,2707,2707,
2707,2707,2707,2707,2707,2707,2707,2707,2707,2707,2707,2707,2707,2707,2707,2707,2707,2707,2707,2707,
2707,2707,2707,2707,2707,2707,2707,2707,2707,2707,2707,2707,2707,2707,2707,2707,2707,2707,2707,2707,
2707,2707,2707,2707,2707,2707,2707,2707,2707,2707,2707,2707,2707,2707,2707,2707,2707,2707,2707,2707
</data>
 </layer>
 <layer id="2" name="Tile Layer 2" width="20" height="15">
  <data encoding="csv">
0,0,0,0,0,0,0,0,0,0,0,0,0,0,0,0,0,0,0,0,
0,0,0,0,0,0,0,0,0,0,0,0,0,0,0,0,0,0,0,0,
0,0,0,0,0,0,0,0,0,0,0,0,0,0,0,0,0,0,0,0,
0,0,0,0,0,0,0,0,0,0,0,0,0,0,0,0,0,0,0,0,
0,0,0,0,0,0,2659,2757,2757,2757,2757,2757,2757,2660,0,0,0,0,0,0,
0,0,0,0,0,0,2708,2806,2807,2807,2807,2807,2808,2706,0,0,0,0,0,0,
0,0,0,0,0,0,2708,2856,2857,2857,2857,2857,2858,2706,0,0,0,0,0,0,
0,0,0,0,0,0,2708,2856,2857,2857,2857,2857,2858,2706,0,0,0,0,0,0,
0,0,0,0,0,0,2708,2856,2857,2857,2857,2857,2858,2706,0,0,0,0,0,0,
0,0,0,0,0,0,2708,2906,2907,2907,2907,2907,2908,2706,0,0,0,0,0,0,
0,0,0,0,0,0,2709,2657,2657,2657,2657,2657,2657,2710,0,0,0,0,0,0,
0,0,0,0,0,0,0,0,0,0,0,0,0,0,0,0,0,0,0,0,
0,0,0,0,0,0,0,0,0,0,0,0,0,0,0,0,0,0,0,0,
0,0,0,0,0,0,0,0,0,2959,2960,0,0,0,0,0,0,0,0,0,
0,0,0,0,0,0,0,0,0,3009,3010,0,0,0,0,0,0,0,0,0
</data>
 </layer>
 <layer id="3" name="Tile Layer 3" width="20" height="15">
  <data encoding="csv">
2712,2713,2761,2762,2762,2762,2762,2762,2762,2762,2762,2762,2762,2762,2762,2762,2762,2763,2711,2712,
2712,2713,2811,2812,2812,2812,2812,2812,2812,2812,2812,2812,2812,2812,2812,2812,2812,2813,2711,2712,
2712,2713,0,0,0,0,0,0,0,0,0,0,0,0,0,0,0,0,2711,2712,
2712,2713,0,0,0,0,0,0,0,0,0,0,0,0,0,0,0,0,2711,2712,
2712,2713,0,0,0,0,0,0,0,0,0,0,0,0,0,0,0,0,2711,2712,
2712,2713,0,0,0,0,0,0,0,0,0,0,0,0,0,0,0,0,2711,2712,
2712,2713,0,0,0,0,0,0,0,0,0,0,0,0,0,0,0,0,2711,2712,
2712,2713,0,0,0,0,0,0,0,0,0,0,0,0,0,0,0,0,2711,2712,
2712,2713,0,0,0,0,0,0,0,0,0,0,0,0,0,0,0,0,2711,2712,
2712,2713,0,0,0,0,0,0,0,0,0,0,0,0,0,0,0,0,2711,2712,
2712,2713,0,0,0,0,0,0,0,0,0,0,0,0,0,0,0,0,2711,2712,
2712,2713,0,0,0,0,0,0,0,0,0,0,0,0,0,0,0,0,2711,2712,
2712,2713,2701,2702,0,0,0,0,0,0,0,0,0,0,0,0,2701,2702,2711,2712,
2712,2713,2751,2752,0,0,0,0,0,0,0,0,0,0,0,0,2751,2752,2711,2712,
2712,2714,2812,2812,2812,2812,2812,2812,2812,0,0,2812,2812,2812,2812,2812,2812,2812,2715,2712
</data>
 </layer>
 <layer id="4" name="Tile Layer 4" width="20" height="15">
  <data encoding="csv">
0,0,2761,2762,2762,2762,2762,2762,2762,2762,2762,2762,2762,2762,2762,2762,2762,2763,0,0,
0,0,2811,2812,2812,2812,2812,2812,2812,2812,2812,2812,2812,2812,2812,2812,2812,2813,0,0,
0,0,0,0,0,0,0,0,0,0,0,0,0,0,0,0,0,0,0,2954,
3005,0,0,0,0,0,0,0,0,0,0,0,0,0,0,0,0,0,0,3004,
0,0,0,0,0,0,0,0,0,0,0,0,0,0,0,0,0,0,0,0,
0,0,0,0,0,0,0,0,0,0,0,0,0,0,0,0,0,0,0,0,
0,0,0,0,0,0,0,0,0,0,0,2754,0,0,0,0,0,0,0,0,
0,0,0,0,0,0,0,0,2754,0,0,0,0,0,0,0,0,0,0,0,
0,0,0,0,0,0,0,0,0,0,0,2754,0,0,0,0,0,0,0,0,
0,0,0,0,0,0,0,0,0,0,0,0,0,0,0,0,0,0,0,0,
0,0,0,0,0,0,0,0,0,0,0,0,0,0,0,0,0,0,0,3005,
2954,0,0,0,0,0,0,0,0,0,0,0,0,0,0,0,0,0,0,0,
3004,0,0,0,0,0,0,0,0,0,0,0,0,0,0,0,0,0,0,0,
0,0,0,0,0,0,0,0,0,0,0,0,0,0,0,0,0,0,0,0,
0,0,0,0,0,0,0,0,0,0,0,0,0,0,0,0,0,0,0,0
</data>
 </layer>
 <objectgroup id="5" name="Object Layer 1">
  <object id="1" x="292.551" y="422.003" width="52.4652" height="49.6139">
   <properties>
    <property name="entrance_id" value="cobalt"/>
   </properties>
  </object>
 </objectgroup>
</map>
