<?xml version="1.0" encoding="UTF-8"?>
<map version="1.10" tiledversion="1.12.1" orientation="orthogonal" renderorder="left-up" width="20" height="15" tilewidth="32" tileheight="32" infinite="0" nextlayerid="7" nextobjectid="11">
 <tileset firstgid="1" source="../TILESET/INTERIOR_ALL.tsx"/>
 <tileset firstgid="4793" source="../TILESET/biomes.tsx"/>
 <tileset firstgid="8693" source="../TILESET/dinocenter2.tsx"/>
 <tileset firstgid="8901" source="../TILESET/house3.tsx"/>
 <tileset firstgid="8997" source="../TILESET/PC_GYM2.tsx"/>
 <layer id="1" name="Tile Layer 1" width="20" height="15">
  <properties>
   <property name="no_collision" type="bool" value="true"/>
  </properties>
  <data encoding="csv">
5305,5305,5305,5305,5305,5305,5305,5305,5305,5305,5305,5305,5305,5305,5305,5305,5305,5305,5305,5305,
5305,3173,3173,3173,3173,3173,3173,3173,3173,3173,3173,3173,3173,3173,3173,3173,3173,3173,3173,5305,
5305,3173,3173,3173,3173,3173,3173,3173,3173,3173,3173,3173,3173,3173,3173,3173,3173,3173,3173,5305,
5305,3173,3173,3173,3173,3173,3173,3173,3173,3173,3173,3173,3173,3173,3173,3173,3173,3173,3173,5305,
5305,3173,3173,3173,3173,3173,3173,3173,3173,3173,3173,3173,3173,3173,3173,3173,3173,3173,3173,5305,
5305,3173,3173,3173,3173,3173,3173,3173,3173,3173,3173,3173,3173,3173,3173,3173,3173,3173,3173,5305,
5305,3173,3173,3173,3173,3173,3173,3173,3173,3173,3173,3173,3173,3173,3173,3173,3173,3173,3173,5305,
5305,3173,3173,3173,3173,3173,3173,3173,3173,3173,3173,3173,3173,3173,3173,3173,3173,3173,3173,5305,
5305,3173,3173,3173,3173,3173,3173,3173,3173,3173,3173,3173,3173,3173,3173,3173,3173,3173,3173,5305,
5305,3173,3173,3173,3173,3173,3173,3173,3173,3173,3173,3173,3173,3173,3173,3173,3173,3173,3173,5305,
5305,3173,3173,3173,3173,3173,3173,3173,3173,3173,3173,3173,3173,3173,3173,3173,3173,3173,3173,5305,
5305,3173,3173,3173,3173,3173,3173,3173,3173,3173,3173,3173,3173,3173,3173,3173,3173,3173,3173,5305,
5305,3173,3173,3173,3173,3173,3173,3173,3173,3173,3173,3173,3173,3173,3173,3173,3173,3173,3173,5305,
5305,3173,3173,3173,3173,3173,3173,3173,3173,3173,3173,3173,3173,3173,3173,3173,3173,3173,3173,5305,
8693,8693,8693,8693,8693,8693,8693,8693,8889,8890,8891,8693,8693,8693,8693,8693,8693,8693,8693,5305
</data>
 </layer>
 <layer id="2" name="Tile Layer 2" width="20" height="15">
  <data encoding="csv">
0,0,0,0,0,0,0,0,0,0,0,0,0,0,0,0,0,0,0,0,
0,0,0,0,0,0,0,0,0,0,0,0,0,0,0,0,0,0,0,0,
0,0,0,0,0,0,0,0,0,0,0,0,0,0,0,0,0,0,0,0,
0,0,0,0,0,0,0,0,0,0,0,0,0,0,0,0,0,0,0,0,
0,0,0,0,0,0,0,0,0,0,0,0,0,0,0,0,0,0,0,0,
0,0,0,0,0,0,0,0,0,0,0,0,0,0,0,0,0,0,0,0,
0,0,0,0,0,0,0,0,0,0,0,0,0,0,0,0,0,0,0,0,
0,0,0,0,0,3212,3213,3214,0,0,0,0,3212,3213,3214,0,0,0,0,0,
0,0,0,0,0,3220,3221,3222,0,0,0,0,3220,3221,3222,0,0,0,0,0,
0,0,0,0,0,3228,3229,3230,0,0,0,0,3228,3229,3230,0,0,0,0,0,
0,0,0,0,0,0,0,0,0,0,0,0,0,0,0,0,0,0,0,0,
0,0,0,0,0,0,0,0,0,0,0,0,0,0,0,0,0,0,0,0,
0,0,0,0,0,0,0,0,0,0,0,0,0,0,0,0,0,0,0,0,
0,0,0,0,0,0,0,0,8881,8882,8883,0,0,0,0,0,0,0,0,0,
0,0,0,0,0,0,0,0,0,0,0,0,0,0,0,0,0,0,0,0
</data>
 </layer>
 <layer id="3" name="Tile Layer 3" width="20" height="15">
  <data encoding="csv">
0,0,0,0,0,0,0,0,0,0,0,0,0,0,0,0,0,0,0,0,
0,0,0,0,0,0,0,0,0,0,0,0,0,0,0,0,0,0,0,0,
0,0,0,0,0,0,0,0,0,0,0,0,0,0,0,0,0,0,0,0,
0,0,3630,0,0,0,0,0,3641,3642,3642,3643,0,0,0,3591,3592,3630,0,0,
0,0,0,0,3926,3927,3928,0,3649,3650,3650,3651,0,0,0,3599,3600,0,0,0,
0,0,0,0,3934,3935,3936,0,3657,3658,3658,3659,0,0,0,0,0,0,0,0,
0,0,0,0,0,0,0,0,0,0,0,0,0,0,0,0,0,0,0,0,
0,0,0,0,0,0,0,0,0,0,0,0,0,0,0,0,0,0,0,0,
0,0,0,0,0,0,3627,0,0,0,0,0,0,3627,0,0,0,0,0,0,
0,0,0,0,0,0,0,0,0,0,0,0,0,0,0,0,0,0,0,0,
0,0,0,0,0,0,0,0,0,0,0,0,0,0,0,0,0,0,0,0,
0,0,8777,0,0,0,0,0,0,0,0,0,0,0,0,0,0,8777,0,0,
0,0,3630,10137,10138,0,0,0,0,0,0,0,0,0,0,10137,10138,3630,0,0,
0,0,0,0,0,0,0,0,0,0,0,0,0,0,0,0,0,0,0,0,
0,0,0,0,0,0,0,0,0,0,0,0,0,0,0,0,0,0,0,0
</data>
 </layer>
 <layer id="4" name="Tile Layer 4" width="20" height="15">
  <data encoding="csv">
0,0,0,0,0,0,0,0,0,0,0,0,0,0,0,0,0,0,0,0,
0,8906,8906,8906,8906,8906,8906,8906,8906,8906,8906,8906,8906,8906,8906,8906,8906,8906,8906,0,
0,8914,8914,8914,8914,8914,8914,8914,8914,8914,8914,8914,8914,8914,8914,8914,8914,8914,8914,0,
0,8908,0,0,0,0,0,0,0,0,0,0,0,0,0,0,0,0,8908,0,
0,8908,0,0,0,0,0,0,0,0,0,0,0,0,0,0,0,0,8908,0,
0,8908,0,0,0,0,0,0,0,0,0,0,0,0,0,0,0,0,8908,0,
0,8908,0,0,0,0,0,0,0,0,0,0,0,0,0,0,0,0,8908,0,
0,8908,0,0,0,0,0,0,0,0,0,0,0,0,0,0,0,0,8908,0,
0,8908,0,0,0,0,0,0,0,0,0,0,0,0,0,0,0,0,8908,0,
0,8908,8761,0,0,0,0,0,0,0,0,0,0,0,0,0,0,8761,8908,0,
0,8908,8769,0,0,0,0,0,0,0,0,0,0,0,0,0,0,8769,8908,0,
0,8908,0,10129,10130,0,0,0,0,0,0,0,0,0,0,10129,10130,0,8908,0,
0,8908,0,0,0,0,0,0,0,0,0,0,0,0,0,0,0,0,8908,0,
0,8916,8916,8916,8916,8916,8916,8916,0,0,0,8916,8916,8916,8916,8916,8916,8916,8916,0,
0,0,0,0,0,0,0,0,0,0,0,0,0,0,0,0,0,0,0,0
</data>
 </layer>
 <layer id="5" name="Tile Layer 5" width="20" height="15">
  <data encoding="csv">
0,0,0,0,0,0,0,0,0,0,0,0,0,0,0,0,0,0,0,0,
0,0,0,0,3553,3554,3555,0,0,0,0,0,0,0,0,0,0,0,0,0,
0,0,0,0,3561,3562,3563,0,0,0,0,0,0,0,0,0,0,0,0,0,
0,0,0,0,0,0,0,0,0,0,0,0,0,0,0,0,0,0,0,0,
0,0,0,0,0,0,0,0,0,0,0,0,0,0,0,0,0,0,0,0,
0,0,0,0,0,0,0,0,0,0,0,0,0,0,0,0,0,0,0,0,
0,0,0,0,0,0,0,0,0,0,0,0,0,0,0,0,0,0,0,0,
0,0,0,0,0,0,0,0,0,0,0,0,0,0,0,0,0,0,0,0,
0,0,0,0,0,0,0,0,0,0,0,0,0,0,0,0,0,0,0,0,
0,0,0,0,0,0,0,0,0,0,0,0,0,0,0,0,0,0,0,0,
0,0,0,0,0,0,0,0,0,0,0,0,0,0,0,0,0,0,0,0,
0,0,0,0,0,0,0,0,0,0,0,0,0,0,0,0,0,0,0,0,
0,0,0,0,0,0,0,0,0,0,0,0,0,0,0,0,0,0,0,0,
0,0,0,0,0,0,0,0,0,0,0,0,0,0,0,0,0,0,0,0,
0,0,0,0,0,0,0,0,0,0,0,0,0,0,0,0,0,0,0,0
</data>
 </layer>
 <objectgroup id="6" name="Collision">
  <object id="1" name="top wall" x="0" y="0" width="640" height="96">
   <properties>
    <property name="collision" type="bool" value="true"/>
   </properties>
  </object>
  <object id="2" name="left edge" x="0" y="96" width="32" height="384">
   <properties>
    <property name="collision" type="bool" value="true"/>
   </properties>
  </object>
  <object id="3" name="right edge" x="608" y="96" width="32" height="384">
   <properties>
    <property name="collision" type="bool" value="true"/>
   </properties>
  </object>
  <object id="4" name="bottom left" x="32" y="448" width="256" height="32">
   <properties>
    <property name="collision" type="bool" value="true"/>
   </properties>
  </object>
  <object id="5" name="bottom right" x="320" y="448" width="288" height="32">
   <properties>
    <property name="collision" type="bool" value="true"/>
   </properties>
  </object>
  <object id="6" name="pot top left" x="64" y="96" width="32" height="32">
   <properties>
    <property name="collision" type="bool" value="true"/>
   </properties>
  </object>
  <object id="7" name="pot top right" x="544" y="96" width="32" height="32">
   <properties>
    <property name="collision" type="bool" value="true"/>
   </properties>
  </object>
  <object id="8" name="stove" x="480" y="96" width="64" height="64">
   <properties>
    <property name="collision" type="bool" value="true"/>
   </properties>
  </object>
  <object id="9" name="plants left" x="64" y="288" width="32" height="128">
   <properties>
    <property name="collision" type="bool" value="true"/>
   </properties>
  </object>
  <object id="10" name="plants right" x="544" y="288" width="32" height="128">
   <properties>
    <property name="collision" type="bool" value="true"/>
   </properties>
  </object>
 </objectgroup>
</map>
