<?xml version="1.0" encoding="UTF-8"?>
<map version="1.10" tiledversion="1.12.1" orientation="orthogonal" renderorder="left-up" width="20" height="15" tilewidth="32" tileheight="32" infinite="0" nextlayerid="6" nextobjectid="2">
 <tileset firstgid="1" source="../TILESET/biomes.tsx"/>
 <tileset firstgid="3901" source="../TILESET/Base1.tsx"/>
 <tileset firstgid="4173" source="../TILESET/PC_GYM2.tsx"/>
 <layer id="1" name="Tile Layer 1" width="20" height="15">
  <data encoding="csv">
663,663,663,663,663,663,663,663,663,663,663,663,663,663,663,663,663,663,663,663,
663,663,663,663,663,663,663,663,663,663,663,663,663,663,663,663,663,663,663,663,
663,663,663,663,663,663,663,663,663,663,663,663,663,663,663,663,663,663,663,663,
663,663,663,663,663,663,663,663,663,663,663,663,663,663,663,663,663,663,663,663,
663,663,663,663,663,663,663,663,663,663,663,663,663,663,663,663,663,663,663,663,
663,663,663,663,663,663,663,663,663,663,663,663,663,663,663,663,663,663,663,663,
663,663,663,663,663,663,663,663,663,663,663,663,663,663,663,663,663,663,663,663,
663,663,663,663,663,663,663,663,663,663,663,663,663,663,663,663,663,663,663,663,
663,663,663,663,663,663,663,663,663,663,663,663,663,663,663,663,663,663,663,663,
663,663,663,663,663,663,663,663,663,663,663,663,663,663,663,663,663,663,663,663,
663,663,663,663,663,663,663,663,663,663,663,663,663,663,663,663,663,663,663,663,
663,663,663,663,663,663,663,663,663,663,663,663,663,663,663,663,663,663,663,663,
663,663,663,663,663,663,663,663,663,663,663,663,663,663,663,663,663,663,663,663,
663,663,663,663,663,663,663,663,663,663,663,663,663,663,663,663,663,663,663,663,
663,663,663,663,663,663,663,663,663,663,663,663,663,663,663,663,663,663,663,663
</data>
 </layer>
 <layer id="2" name="Tile Layer 2" width="20" height="15">
  <data encoding="csv">
0,0,0,0,0,0,0,0,0,0,0,0,0,0,0,0,0,0,113,0,
0,0,0,0,0,0,0,0,0,0,0,0,0,0,0,0,0,0,113,0,
0,0,0,0,0,0,0,0,0,0,0,0,0,0,0,0,0,0,113,0,
0,0,0,0,0,0,0,0,0,0,0,0,0,0,0,0,0,0,113,0,
0,0,0,0,0,0,0,0,0,0,0,0,0,0,0,0,0,0,113,0,
0,0,0,0,0,0,0,812,813,813,813,814,0,0,0,0,0,0,113,0,
0,0,0,0,0,0,0,862,863,863,863,864,0,0,0,0,915,916,0,4038,
0,0,0,0,0,0,0,862,863,863,863,864,0,0,0,0,965,966,113,0,
0,0,0,0,0,0,0,862,863,863,863,864,0,0,0,0,0,0,113,0,
0,0,0,0,0,0,0,862,863,863,863,864,0,0,0,0,0,0,113,0,
0,0,0,0,0,0,0,912,913,913,913,914,0,0,0,0,0,0,113,0,
0,0,0,0,0,0,0,0,0,0,0,0,0,0,0,0,0,0,113,0,
0,0,0,0,0,0,0,0,0,0,0,0,0,0,0,0,0,0,113,0,
0,0,0,0,0,0,0,0,0,0,0,0,0,0,0,0,0,0,113,0,
0,0,0,0,0,0,0,0,0,0,0,0,0,0,0,0,0,0,113,0
</data>
 </layer>
 <layer id="3" name="Tile Layer 3" width="20" height="15">
  <data encoding="csv">
113,213,213,213,213,213,213,213,213,213,213,213,213,213,213,213,213,213,112,113,
113,263,263,263,263,263,263,263,263,263,263,263,263,263,263,263,263,263,112,113,
113,263,263,215,313,313,313,313,313,313,313,313,313,313,313,313,313,313,112,113,
113,263,215,315,363,363,363,363,363,363,363,363,363,363,363,363,363,363,112,113,
113,263,264,567,0,0,0,0,0,0,0,0,0,0,0,0,0,0,112,113,
113,263,264,0,0,0,0,0,0,0,0,0,0,0,0,0,0,0,112,113,
113,263,264,0,0,0,0,0,0,0,0,0,0,0,0,0,0,0,4098,113,
113,263,264,0,0,0,0,0,0,767,768,0,0,0,0,0,0,0,112,113,
113,263,264,0,0,0,0,0,0,0,0,0,0,0,0,0,0,0,112,113,
113,263,264,0,0,0,0,0,0,0,0,0,0,0,0,0,0,0,112,113,
113,263,264,0,0,0,0,0,0,0,0,0,0,0,0,567,0,0,112,113,
113,263,264,0,0,0,0,0,0,0,0,0,0,0,212,213,213,214,112,113,
313,313,314,0,0,0,0,0,0,0,0,0,0,0,262,263,263,264,112,113,
363,363,364,0,0,0,0,0,0,0,0,0,0,5505,312,313,313,314,112,113,
567,5505,567,0,0,0,0,0,0,0,0,0,0,567,362,363,363,363,112,113
</data>
 </layer>
 <layer id="4" name="Tile Layer 4" width="20" height="15">
  <data encoding="csv">
0,0,469,0,0,0,0,0,0,0,0,0,0,0,518,0,0,264,0,0,
0,0,0,0,0,0,0,0,0,0,0,0,0,0,0,0,0,264,0,469,
0,0,0,0,0,0,0,0,0,0,0,0,0,0,0,0,0,314,0,0,
0,0,0,517,0,0,0,0,0,0,0,0,0,0,0,0,0,0,0,0,
0,0,0,0,0,0,615,713,713,713,713,713,616,0,0,0,0,0,0,0,
0,0,0,0,0,0,664,0,0,0,0,0,662,0,0,0,0,0,0,0,
0,0,0,0,0,0,664,0,0,0,0,0,662,0,0,0,0,0,0,0,
0,0,0,0,0,0,664,0,0,0,0,0,662,0,0,0,0,0,0,0,
0,0,0,0,0,0,664,0,0,0,0,0,662,0,0,0,0,0,0,469,
0,0,0,0,0,0,664,0,0,0,0,0,662,0,0,517,0,0,0,0,
0,518,0,0,0,0,664,0,0,0,0,0,662,0,0,0,0,0,0,0,
0,0,0,0,0,0,665,613,613,613,613,613,666,0,0,0,0,0,0,0,
0,0,0,0,0,0,0,0,0,0,0,0,0,0,0,0,518,0,0,0,
517,0,517,0,0,0,0,0,0,0,0,0,0,517,0,0,0,0,0,0,
0,0,0,0,0,0,0,0,0,0,0,0,0,0,0,0,0,0,0,0
</data>
 </layer>
 <objectgroup id="5" name="Object Layer 1">
  <object id="1" x="578.667" y="194.667" width="24" height="29.3333">
   <properties>
    <property name="exit" type="bool" value="true"/>
   </properties>
  </object>
 </objectgroup>
</map>
