<?xml version="1.0" encoding="UTF-8"?>
<map version="1.10" tiledversion="1.12.1" orientation="orthogonal" renderorder="left-up" width="20" height="15" tilewidth="32" tileheight="32" infinite="0" nextlayerid="7" nextobjectid="3">
 <tileset firstgid="1" source="../TILESET/biomes.tsx"/>
 <layer id="1" name="Tile Layer 1" width="20" height="15">
  <data encoding="csv">
663,663,663,663,663,663,663,663,663,663,663,663,663,663,663,663,663,663,663,663,
663,663,663,663,663,663,663,663,663,663,663,663,663,663,663,663,663,663,663,663,
663,663,663,663,663,663,663,663,663,663,663,663,663,663,663,663,663,663,663,663,
663,663,663,663,663,663,663,663,663,663,663,663,663,663,663,663,663,663,663,663,
663,663,663,663,663,663,663,663,663,663,663,663,663,663,663,663,663,663,663,663,
663,663,663,663,663,663,663,663,663,663,663,663,663,663,663,663,663,663,663,663,
663,663,663,663,663,663,663,663,663,663,663,663,663,663,663,663,663,663,663,663,
663,663,663,663,663,663,663,663,663,663,663,663,663,663,663,663,663,663,663,663,
663,663,663,663,663,663,663,663,663,663,663,663,663,663,663,663,663,663,663,663,
663,663,663,663,663,663,663,663,663,663,663,663,663,663,663,663,663,663,663,663,
663,663,663,663,663,663,663,663,663,663,663,663,663,663,663,663,663,663,663,663,
663,663,663,663,663,663,663,663,663,663,663,663,663,663,663,663,663,663,663,663,
663,663,663,663,663,663,663,663,663,663,663,663,663,663,663,663,663,663,663,663,
663,663,663,663,663,663,663,663,663,663,663,663,663,663,663,663,663,663,663,663,
663,663,663,663,663,663,663,663,663,663,663,663,663,663,663,663,663,663,663,663
</data>
 </layer>
 <layer id="2" name="Tile Layer 2" width="20" height="15">
  <data encoding="csv">
262,0,0,264,0,0,0,965,966,0,0,0,0,0,0,0,0,0,0,0,
0,0,0,0,0,0,0,0,0,0,0,0,0,0,0,0,0,0,0,0,
0,0,0,0,0,0,0,0,0,0,0,0,0,0,0,0,0,0,0,0,
0,0,0,0,0,0,0,0,0,0,0,0,0,0,0,0,0,0,0,0,
0,0,0,0,0,0,0,0,0,0,0,0,0,0,0,0,0,0,0,0,
0,0,0,0,0,0,0,0,0,0,0,0,0,0,0,0,0,0,0,0,
0,0,0,0,0,0,0,0,0,0,0,0,0,0,0,0,0,0,0,0,
0,0,0,0,0,0,0,0,0,0,0,0,0,0,0,0,0,0,0,0,
0,0,0,0,0,0,0,0,0,0,0,0,0,0,0,0,0,0,0,0,
0,0,0,0,0,0,0,0,0,0,0,0,0,0,0,0,0,0,0,0,
0,0,0,0,0,0,0,0,0,0,0,0,0,0,0,0,0,0,0,0,
0,0,0,0,0,0,0,0,0,0,0,0,0,0,0,0,0,0,0,0,
0,0,0,0,0,0,0,0,915,916,0,0,0,0,0,0,0,0,0,0,
0,0,915,916,0,0,0,0,965,966,0,0,0,0,0,0,0,0,0,0,
0,0,965,966,0,0,0,0,0,0,0,0,0,0,0,0,0,0,0,0
</data>
 </layer>
 <layer id="3" name="Tile Layer 3" width="20" height="15">
  <data encoding="csv">
212,213,213,214,2701,2702,0,0,0,0,0,0,0,0,0,0,0,0,0,0,
262,263,263,264,2751,2752,0,0,0,0,0,0,0,0,0,0,0,0,0,0,
262,263,263,264,0,0,0,0,0,0,0,0,0,0,0,0,0,0,0,0,
262,263,263,264,0,0,0,0,0,0,0,0,0,0,0,0,0,0,0,0,
262,263,263,264,0,0,0,0,0,0,0,0,0,0,0,0,0,0,0,0,
262,263,263,264,0,0,0,0,0,0,0,0,0,0,0,0,0,0,0,0,
266,263,263,263,213,213,213,213,213,213,213,213,213,213,213,213,213,213,213,213,
262,263,263,263,263,263,263,263,263,263,263,263,263,263,263,263,263,263,263,263,
312,313,313,313,313,313,313,313,313,313,313,313,313,313,313,313,313,313,313,313,
362,363,363,363,363,363,363,363,363,363,363,363,363,363,363,363,363,363,363,363,
519,520,0,0,0,0,0,0,0,0,0,0,469,0,0,0,0,0,0,0,
569,570,0,0,0,0,0,0,0,0,0,0,0,0,0,0,0,0,0,0,
0,0,0,0,0,0,0,0,0,0,0,0,0,0,0,0,0,0,0,0,
0,0,0,0,0,0,0,0,0,0,0,0,0,0,0,0,212,213,213,263,
0,0,0,0,0,0,0,0,0,0,0,0,0,0,0,0,262,263,263,263
</data>
 </layer>
 <layer id="4" name="Tile Layer 4" width="20" height="15">
  <data encoding="csv">
0,469,0,0,0,0,0,0,0,0,0,0,0,0,0,0,0,0,0,0,
0,0,2501,0,0,0,0,0,0,0,0,0,0,0,0,0,0,0,0,0,
0,0,0,0,0,0,0,0,0,0,0,0,0,0,0,0,0,0,0,0,
0,0,0,0,0,0,0,0,0,0,0,0,0,0,0,0,0,0,0,0,
0,0,0,0,0,0,0,0,0,0,0,0,0,0,0,0,0,0,0,0,
0,0,0,0,0,0,0,0,0,0,0,0,0,0,0,0,0,0,0,0,
0,0,0,567,469,0,0,2501,0,0,0,0,0,0,0,0,0,0,0,2501,
0,469,0,0,0,0,0,0,0,0,0,0,0,0,0,0,0,0,0,469,
0,0,0,0,0,0,0,0,0,0,0,0,0,0,0,0,0,0,0,0,
0,0,0,0,0,0,0,0,0,0,0,0,0,0,0,0,0,0,0,0,
0,0,0,0,0,0,0,0,0,0,0,0,0,0,0,0,0,0,0,0,
0,0,0,0,0,0,0,0,0,0,0,0,0,0,0,0,0,0,0,0,
0,0,0,0,0,0,0,0,0,0,0,0,0,0,0,0,0,0,0,0,
0,0,0,0,0,0,0,0,0,0,0,0,0,0,0,0,0,0,0,0,
0,0,0,0,0,0,0,0,0,0,0,0,0,0,0,0,0,0,0,0
</data>
 </layer>
 <layer id="5" name="Tile Layer 5" width="20" height="15">
  <data encoding="csv">
0,0,0,0,0,0,0,0,0,0,0,0,0,0,0,0,0,0,0,0,
0,0,0,0,0,0,0,0,0,0,0,0,0,0,0,0,0,0,0,0,
0,0,0,0,0,0,0,0,0,0,0,0,0,0,0,0,0,0,0,0,
0,0,0,0,0,0,0,0,0,0,0,0,0,0,0,0,0,0,0,0,
0,0,0,0,0,0,0,0,0,0,0,0,0,0,0,0,0,0,0,0,
0,0,0,517,0,0,0,0,0,0,0,0,0,0,0,0,0,0,0,0,
0,0,0,0,0,0,0,0,0,0,0,0,0,0,0,0,0,0,0,0,
0,0,0,0,0,0,0,0,0,0,0,0,0,0,0,0,0,0,0,0,
0,0,0,0,0,0,0,0,0,0,0,0,0,0,0,0,0,0,0,0,
0,0,0,0,0,0,0,0,0,0,0,0,0,0,0,0,0,0,0,0,
0,0,0,0,0,0,0,0,0,0,0,0,0,0,0,0,0,0,0,0,
0,0,0,0,0,0,0,0,0,0,0,0,0,0,0,0,0,0,0,0,
0,0,0,0,0,0,0,0,0,0,0,0,0,0,0,0,0,0,0,0,
0,0,0,0,0,0,0,0,0,0,0,0,0,0,0,0,0,0,0,0,
0,0,0,0,0,0,0,0,0,0,0,0,0,0,0,0,0,0,0,0
</data>
 </layer>
</map>
