<?xml version="1.0" encoding="UTF-8"?>
<map version="1.10" tiledversion="1.12.1" orientation="orthogonal" renderorder="left-up" width="20" height="15" tilewidth="32" tileheight="32" infinite="0" nextlayerid="6" nextobjectid="2">
 <tileset firstgid="1" source="../TILESET/biomes.tsx"/>
 <layer id="1" name="Tile Layer 1" width="20" height="15">
  <data encoding="csv">
663,663,663,663,663,663,663,663,663,663,663,663,663,663,663,663,663,663,663,663,
663,663,663,663,663,663,663,663,663,663,663,663,663,663,663,663,663,663,663,663,
663,663,663,663,663,663,663,663,663,663,663,663,663,663,663,663,663,663,663,663,
663,663,663,663,663,663,663,663,663,663,663,663,663,663,663,663,663,663,663,663,
663,663,663,663,663,663,663,663,663,663,663,663,663,663,663,663,663,663,663,663,
663,663,663,663,663,663,663,663,663,663,663,663,663,663,663,663,663,663,663,663,
663,663,663,663,663,663,663,663,663,663,663,663,663,663,663,663,663,663,663,663,
663,663,663,663,663,663,663,663,663,663,663,663,663,663,663,663,663,663,663,663,
663,663,663,663,663,663,663,663,663,663,663,663,663,663,663,663,663,663,663,663,
663,663,663,663,663,663,663,663,663,663,663,663,663,663,663,663,663,663,663,663,
663,663,663,663,663,663,663,663,663,663,663,663,663,663,663,663,663,663,663,663,
663,663,663,663,663,663,663,663,663,663,663,663,663,663,663,663,663,663,663,663,
663,663,663,663,663,663,663,663,663,663,663,663,663,663,663,663,663,663,663,663,
663,663,663,663,663,663,663,663,663,663,663,663,663,663,663,663,663,663,663,663,
663,663,663,663,663,663,663,663,663,663,663,663,663,663,663,663,663,663,663,663
</data>
 </layer>
 <layer id="2" name="Tile Layer 2" width="20" height="15">
  <data encoding="csv">
0,0,0,0,0,0,0,0,0,0,0,0,0,0,0,0,0,0,0,0,
0,0,0,0,0,0,0,0,0,0,0,0,0,0,0,0,0,0,0,0,
0,0,0,0,0,0,0,0,0,0,0,0,0,0,0,0,0,0,0,0,
0,0,0,0,0,0,0,0,0,0,0,0,0,0,0,0,0,0,0,0,
0,0,0,0,0,0,0,0,0,0,0,0,0,0,0,0,0,0,0,0,
0,0,0,0,0,0,0,0,0,2959,2960,0,0,0,0,0,0,0,0,0,
0,0,0,0,0,0,0,0,0,3009,3010,0,0,0,0,0,0,0,0,0,
0,0,0,0,0,0,0,0,0,0,0,0,0,0,0,0,0,0,0,0,
0,0,0,0,0,0,0,0,0,0,0,0,0,0,0,0,0,0,0,0,
0,0,0,0,0,0,0,0,0,0,0,0,0,0,0,0,0,0,0,0,
0,0,0,0,0,0,0,0,0,0,0,0,0,0,0,0,0,0,0,0,
0,0,0,0,0,0,0,0,0,0,0,0,0,0,0,0,0,0,0,0,
0,0,0,0,0,0,0,0,0,0,0,0,0,0,0,0,0,0,0,0,
0,0,0,0,0,0,0,0,0,0,0,0,0,0,0,0,0,0,0,0,
0,0,0,0,0,0,0,915,916,0,0,0,0,0,0,0,0,0,0,0
</data>
 </layer>
 <layer id="3" name="Tile Layer 3" width="20" height="15">
  <data encoding="csv">
112,113,113,114,62,63,64,62,63,64,469,62,63,64,62,63,64,262,263,263,
112,113,113,114,112,113,114,112,113,114,469,112,113,114,112,113,114,262,263,263,
112,113,113,114,162,163,164,162,163,164,469,162,163,164,162,163,164,262,263,263,
112,113,113,114,519,520,0,0,0,0,0,0,0,0,0,519,520,262,263,263,
112,113,113,114,569,570,0,0,0,0,0,0,0,0,0,569,570,262,263,263,
112,113,113,114,0,0,0,0,0,0,0,0,0,0,0,0,0,262,263,263,
112,113,113,114,0,0,0,0,0,0,0,0,0,0,0,0,0,262,263,263,
112,113,113,114,0,0,0,0,0,0,0,0,0,0,0,0,0,262,263,263,
112,113,113,114,0,0,0,0,0,0,0,0,0,0,0,0,0,262,263,263,
112,113,113,114,0,0,0,0,0,0,0,0,0,0,0,0,0,262,263,263,
112,113,113,114,0,0,0,0,0,0,0,0,0,0,0,0,0,262,263,263,
112,113,113,114,0,0,0,0,0,0,0,0,0,0,0,0,0,262,263,263,
112,113,113,114,0,0,0,0,0,0,0,0,0,0,0,0,0,312,313,313,
112,113,113,114,0,0,0,0,0,0,0,0,0,0,0,0,0,362,363,363,
112,263,263,114,0,0,0,0,0,0,0,0,0,0,0,0,0,567,0,0
</data>
 </layer>
 <layer id="4" name="Tile Layer 4" width="20" height="15">
  <data encoding="csv">
0,0,0,0,0,0,0,0,469,0,0,0,0,0,0,469,0,0,0,0,
0,0,0,0,0,469,0,0,0,0,0,0,469,0,0,0,0,0,0,469,
0,469,0,0,0,0,0,0,0,0,0,0,0,0,0,0,0,0,0,0,
0,0,0,0,0,0,0,0,0,0,0,0,0,0,0,0,0,0,0,0,
0,0,517,0,0,0,0,0,0,0,0,0,0,0,0,0,0,0,0,0,
0,0,567,0,0,0,0,0,0,0,0,0,0,0,0,0,0,0,0,0,
0,0,0,0,0,0,0,0,0,0,0,0,0,0,0,0,0,0,0,0,
0,0,0,0,0,0,0,0,0,0,0,0,0,0,0,0,0,0,469,0,
0,0,0,0,0,0,0,0,0,0,0,0,0,0,0,0,0,0,0,0,
0,0,0,0,0,0,0,0,0,0,0,0,0,0,0,0,0,0,0,0,
0,0,469,0,0,0,0,0,0,0,0,0,0,0,0,0,0,0,0,0,
0,0,0,0,0,0,0,0,0,0,0,0,0,0,0,0,0,0,0,0,
0,0,0,0,0,0,0,0,0,0,0,0,0,0,0,0,0,0,0,0,
0,469,0,0,0,0,0,0,0,0,0,0,0,0,0,0,0,517,0,0,
0,0,0,0,0,0,0,0,0,0,0,0,0,0,0,0,0,0,0,0
</data>
 </layer>
 <objectgroup id="5" name="Object Layer 1">
  <object id="1" x="295.972" y="168.231" width="45.0517" height="47.9031">
   <properties>
    <property name="entrance_id" value="shadowhq1"/>
   </properties>
  </object>
 </objectgroup>
</map>
