<?xml version="1.0" encoding="UTF-8"?>
<map version="1.10" tiledversion="1.12.1" orientation="orthogonal" renderorder="left-up" width="20" height="15" tilewidth="32" tileheight="32" infinite="0" nextlayerid="6" nextobjectid="2">
 <tileset firstgid="1" source="../TILESET/biomes.tsx"/>
 <layer id="1" name="Tile Layer 1" width="20" height="15">
  <data encoding="csv">
663,663,663,663,663,663,663,663,663,663,663,663,663,663,663,663,663,663,663,663,
663,663,663,663,663,663,663,663,663,663,663,663,663,663,663,663,663,663,663,663,
663,663,663,663,663,663,663,663,663,663,663,663,663,663,663,663,663,663,663,663,
663,663,663,663,663,663,663,663,663,663,663,663,663,663,663,663,663,663,663,663,
663,663,663,663,663,663,663,663,663,663,663,663,663,663,663,663,663,663,663,663,
663,663,663,663,663,663,663,663,663,663,663,663,663,663,663,663,663,663,663,663,
663,663,663,663,663,663,663,663,663,663,663,663,663,663,663,663,663,663,663,663,
663,663,663,663,663,663,663,663,663,663,663,663,663,663,663,663,663,663,663,663,
663,663,663,663,663,663,663,663,663,663,663,663,663,663,663,663,663,663,663,663,
663,663,663,663,663,663,663,663,663,663,663,663,663,663,663,663,663,663,663,663,
663,663,663,663,663,663,663,663,663,663,663,663,663,663,663,663,663,663,663,663,
663,663,663,663,663,663,663,663,663,663,663,663,663,663,663,663,663,663,663,663,
663,663,663,663,663,663,663,663,663,663,663,663,663,663,663,663,663,663,663,663,
663,663,663,663,663,663,663,663,663,663,663,663,663,663,663,663,663,663,663,663,
663,663,663,663,663,663,663,663,663,663,663,663,663,663,663,663,663,663,663,663
</data>
 </layer>
 <layer id="2" name="Tile Layer 2" width="20" height="15">
  <data encoding="csv">
0,0,0,0,0,0,0,0,0,0,0,0,0,0,0,0,0,0,0,0,
0,0,0,0,0,0,0,0,0,0,0,0,0,0,0,0,0,0,0,0,
0,0,0,0,0,0,0,0,0,0,0,0,0,0,0,0,0,0,0,0,
0,0,0,0,0,0,0,0,0,0,0,0,0,0,0,0,0,0,0,0,
0,0,0,0,0,0,0,0,0,0,0,0,0,0,0,0,0,0,0,0,
0,0,0,0,0,0,0,0,0,0,0,0,0,0,0,0,0,0,0,0,
0,0,0,0,0,0,0,0,0,0,0,0,0,0,0,0,0,0,0,0,
0,0,0,0,0,0,0,0,0,0,0,0,0,0,0,0,0,0,0,0,
0,0,0,0,0,0,0,0,0,0,0,0,0,0,0,0,0,0,0,0,
0,0,0,0,0,0,0,0,0,0,0,0,0,0,0,0,0,0,0,0,
0,0,0,0,0,0,0,0,0,0,0,0,0,0,0,0,0,0,0,0,
0,0,0,0,0,0,0,0,0,0,0,0,0,0,0,0,0,0,0,0,
0,0,0,0,0,0,0,0,0,0,0,0,0,0,0,0,0,0,0,0,
0,0,0,0,0,0,0,0,0,0,0,0,0,0,0,0,0,0,0,0,
0,0,0,0,0,0,0,0,0,0,0,0,0,0,0,0,0,0,0,0
</data>
 </layer>
 <layer id="3" name="Tile Layer 3" width="20" height="15">
  <data encoding="csv">
262,263,264,0,0,0,0,519,520,0,0,0,62,63,64,0,0,0,0,0,
262,263,264,0,0,0,0,569,570,0,0,0,112,113,114,0,0,0,0,0,
262,263,264,0,0,0,0,0,0,0,0,0,162,163,164,0,0,0,0,0,
262,263,264,0,0,0,0,0,0,62,63,64,0,0,0,0,0,567,0,0,
262,263,264,0,0,0,0,0,0,112,113,114,0,0,0,0,0,0,0,0,
262,263,264,0,0,0,0,0,0,162,163,164,0,0,0,0,0,0,0,0,
262,263,264,0,0,0,0,0,0,0,0,0,62,63,64,0,0,0,0,0,
262,263,264,0,0,567,0,0,0,0,0,0,112,113,114,0,0,0,0,0,
262,263,264,0,0,0,0,0,0,0,0,0,162,163,164,0,0,0,0,0,
262,263,264,0,0,0,0,0,0,0,0,0,0,0,0,0,0,0,0,0,
312,313,314,519,520,0,0,0,0,0,0,0,0,0,0,0,0,0,519,520,
362,363,364,569,570,0,0,0,0,0,0,0,0,0,0,0,0,0,569,570,
212,213,213,213,213,213,412,413,414,213,213,213,213,213,213,213,213,213,213,213,
262,263,263,263,263,263,263,263,263,263,263,263,263,263,263,263,263,263,263,263,
312,263,263,263,263,263,263,263,263,263,263,263,263,263,263,263,263,263,263,263
</data>
 </layer>
 <layer id="4" name="Tile Layer 4" width="20" height="15">
  <data encoding="csv">
0,517,0,0,0,0,0,0,0,0,0,0,0,517,0,0,0,0,0,0,
0,567,0,0,0,0,0,0,0,0,0,0,0,567,0,0,0,0,0,0,
0,0,0,0,0,0,0,0,0,0,0,0,0,0,0,0,0,517,0,0,
0,469,0,0,0,0,0,0,0,0,517,0,0,0,0,0,0,0,0,0,
0,0,0,0,0,0,0,0,0,0,567,0,0,0,0,0,0,0,0,0,
0,0,0,0,0,0,0,0,0,0,0,0,0,0,0,0,0,0,0,0,
0,0,0,0,0,517,0,0,0,0,0,0,0,517,0,0,0,0,0,0,
0,517,0,0,0,0,0,0,0,0,0,0,0,567,0,0,0,0,0,0,
0,567,0,0,0,0,0,0,0,0,0,0,0,0,0,0,0,0,0,0,
0,0,0,0,0,0,0,0,0,0,0,0,0,0,0,0,0,0,0,0,
0,0,0,0,0,0,0,0,0,0,0,0,0,0,0,0,0,0,0,0,
0,0,0,0,0,0,0,0,0,0,0,0,0,0,0,0,0,0,0,0,
0,519,520,0,0,0,0,0,0,0,469,0,0,0,0,0,0,0,517,0,
0,569,570,0,0,0,0,517,0,0,0,0,0,519,520,0,0,0,567,0,
0,0,0,0,518,0,0,567,0,0,0,0,0,569,570,0,0,0,0,469
</data>
 </layer>
 <objectgroup id="5" name="Object Layer 1">
  <object id="1" x="226.667" y="386.667" width="26.6667" height="22.6667">
   <properties>
    <property name="entrance_id" value="route4_1"/>
   </properties>
  </object>
 </objectgroup>
</map>
