<?xml version="1.0" encoding="UTF-8"?>
<map version="1.10" tiledversion="1.12.1" orientation="orthogonal" renderorder="left-up" width="20" height="15" tilewidth="32" tileheight="32" infinite="0" nextlayerid="5" nextobjectid="1">
 <tileset firstgid="1" source="../TILESET/biomes.tsx"/>
 <tileset firstgid="3901" source="../TILESET/PC_GYM2.tsx"/>
 <layer id="1" name="Tile Layer 1" width="20" height="15">
  <data encoding="csv">
663,663,663,663,663,663,663,663,663,663,663,663,663,663,663,663,663,663,663,663,
663,663,663,663,663,663,663,663,663,663,663,663,663,663,663,663,663,663,663,663,
663,663,663,663,663,663,663,663,663,663,663,663,663,663,663,663,663,663,663,663,
663,663,663,663,663,663,663,663,663,663,663,663,663,663,663,663,663,663,663,663,
663,663,663,663,663,663,663,663,663,663,663,663,663,663,663,663,663,663,663,663,
663,663,663,663,663,663,663,663,663,663,663,663,663,663,663,663,663,663,663,663,
663,663,663,663,663,663,663,663,663,663,663,663,663,663,663,663,663,663,663,663,
663,663,663,663,663,663,663,663,663,663,663,663,663,663,663,663,663,663,663,663,
663,663,663,663,663,663,663,663,663,663,663,663,663,663,663,663,663,663,663,663,
663,663,663,663,663,663,663,663,663,663,663,663,663,663,663,663,663,663,663,663,
663,663,663,663,663,663,663,663,663,663,663,663,663,663,663,663,663,663,663,663,
663,663,663,663,663,663,663,663,663,663,663,663,663,663,663,663,663,663,663,663,
663,663,663,663,663,663,663,663,663,663,663,663,663,663,663,663,663,663,663,663,
663,663,663,663,663,663,663,663,663,663,663,663,663,663,663,663,663,663,663,663,
663,663,663,663,663,663,663,663,663,663,663,663,663,663,663,663,663,663,663,663
</data>
 </layer>
 <layer id="2" name="Tile Layer 2" width="20" height="15">
  <data encoding="csv">
0,0,0,0,0,0,0,0,0,0,0,0,0,0,0,0,0,0,0,0,
0,0,0,0,0,0,0,0,0,0,0,0,0,0,0,0,0,0,0,0,
0,0,0,0,0,0,0,0,0,0,0,0,0,0,0,0,0,0,0,0,
0,0,0,0,0,0,0,0,0,0,0,0,0,0,0,0,0,0,0,0,
0,0,0,0,0,0,0,0,0,0,0,0,0,0,0,0,0,0,0,0,
0,0,0,0,0,0,0,0,0,0,0,0,0,0,0,0,0,0,0,0,
0,0,0,0,0,0,0,0,0,0,0,0,5233,0,0,0,0,0,0,0,
0,0,0,0,0,0,0,0,0,0,0,0,0,0,0,0,0,0,0,0,
0,0,0,0,0,0,0,0,0,615,713,713,713,616,0,0,0,0,0,0,
0,0,0,0,0,0,0,0,0,664,812,813,814,662,0,0,0,0,0,0,
0,0,0,0,0,0,0,0,0,664,862,863,864,662,0,0,0,0,0,0,
0,0,0,0,0,0,0,0,0,664,912,913,914,662,0,0,0,0,0,0,
0,0,0,0,0,0,0,0,0,665,613,613,613,666,0,0,0,0,0,0,
0,0,0,0,0,0,0,0,0,0,0,0,0,0,0,0,0,0,0,0,
0,0,0,0,0,0,0,0,0,0,0,0,0,0,0,0,0,0,0,0
</data>
 </layer>
 <layer id="3" name="Tile Layer 3" width="20" height="15">
  <data encoding="csv">
915,916,0,0,0,0,0,0,0,0,0,0,0,0,0,0,0,0,112,113,
965,966,0,0,0,0,0,0,0,0,0,0,915,916,0,0,0,0,112,113,
0,0,0,0,0,0,0,0,0,0,0,0,965,966,0,0,567,0,112,113,
0,0,519,520,0,0,212,213,213,213,213,213,213,213,213,214,0,0,112,113,
0,0,569,570,0,0,262,263,215,313,313,313,313,216,263,264,0,0,112,113,
0,0,0,0,0,0,262,263,264,363,363,363,363,266,263,264,0,0,112,113,
213,213,214,0,0,0,262,263,264,567,0,0,0,312,313,314,0,0,112,113,
263,263,264,0,0,0,262,263,264,0,0,0,0,362,363,364,0,0,112,113,
313,313,314,0,0,0,312,313,314,0,0,0,0,0,915,916,0,0,112,113,
363,363,364,0,0,0,362,363,364,0,0,0,0,0,965,966,519,520,112,113,
0,0,0,0,0,0,0,0,0,0,0,0,0,0,0,0,569,570,112,113,
0,0,0,0,0,0,0,915,916,0,0,0,0,0,0,0,0,0,112,113,
0,0,0,0,567,0,0,965,966,0,0,0,0,0,0,0,0,567,112,113,
63,63,63,63,63,63,63,63,63,63,63,63,63,63,63,63,63,64,112,113,
113,113,113,113,113,113,113,113,113,113,113,113,113,113,113,113,113,114,162,163
</data>
 </layer>
 <layer id="4" name="Tile Layer 4" width="20" height="15">
  <data encoding="csv">
0,0,0,0,0,0,0,0,0,0,0,0,0,0,0,0,0,0,0,0,
0,0,0,0,0,0,0,0,0,0,0,0,0,0,0,0,517,0,0,518,
0,0,0,0,0,0,0,0,0,0,0,0,0,0,0,0,0,0,0,0,
0,0,0,0,0,0,0,469,0,0,0,0,0,0,0,0,0,0,0,0,
0,0,0,0,0,0,0,0,0,0,0,0,0,0,469,0,0,0,0,0,
0,0,0,0,0,0,0,0,0,517,0,0,0,0,0,0,0,0,0,0,
0,0,0,0,0,0,0,0,0,0,0,0,0,0,0,0,0,0,0,0,
0,0,0,0,0,0,0,518,0,0,0,0,0,0,0,0,0,0,0,0,
0,0,0,0,0,0,0,0,0,0,0,0,0,0,0,0,0,0,0,0,
0,0,0,0,0,0,0,0,0,0,0,0,0,0,0,0,0,0,0,0,
0,0,0,0,0,0,0,0,0,0,0,0,0,0,0,0,0,0,0,0,
0,0,0,0,517,0,0,0,0,0,0,0,0,0,0,0,0,517,0,469,
0,0,0,0,0,0,0,0,0,0,0,0,0,0,0,0,0,0,0,0,
0,518,0,0,0,0,0,0,0,469,0,0,0,518,0,0,0,0,0,0,
0,0,0,0,518,0,0,0,0,0,0,0,0,0,0,0,469,0,0,0
</data>
 </layer>
</map>
