<?xml version="1.0" encoding="UTF-8"?>
<map version="1.10" tiledversion="1.12.1" orientation="orthogonal" renderorder="left-up" width="20" height="15" tilewidth="32" tileheight="32" infinite="0" nextlayerid="5" nextobjectid="1">
 <tileset firstgid="1" source="../TILESET/biomes.tsx"/>
 <layer id="1" name="Tile Layer 1" width="20" height="15">
  <data encoding="csv">
663,663,663,663,663,663,663,663,663,663,663,663,663,663,663,663,663,663,663,663,
663,663,663,663,663,663,663,663,663,663,663,663,663,663,663,663,663,663,663,663,
663,663,663,663,663,663,663,663,663,663,663,663,663,663,663,663,663,663,663,663,
663,663,663,663,663,663,663,663,663,663,663,663,663,663,663,663,663,663,663,663,
663,663,663,663,663,663,663,663,663,663,663,663,663,663,663,663,663,663,663,663,
663,663,663,663,663,663,663,663,663,663,663,663,663,663,663,663,663,663,663,663,
663,663,663,663,663,663,663,663,663,663,663,663,663,663,663,663,663,663,663,663,
663,663,663,663,663,663,663,663,663,663,663,663,663,663,663,663,663,663,663,663,
663,663,663,663,663,663,663,663,663,663,663,663,663,663,663,663,663,663,663,663,
663,663,663,663,663,663,663,663,663,663,663,663,663,663,663,663,663,663,663,663,
663,663,663,663,663,663,663,663,663,663,663,663,663,663,663,663,663,663,663,663,
663,663,663,663,663,663,663,663,663,663,663,663,663,663,663,663,663,663,663,663,
663,663,663,663,663,663,663,663,663,663,663,663,663,663,663,663,663,663,663,663,
663,663,663,663,663,663,663,663,663,663,663,663,663,663,663,663,663,663,663,663,
663,663,663,663,663,663,663,663,663,663,663,663,663,663,663,663,663,663,663,663
</data>
 </layer>
 <layer id="2" name="Tile Layer 2" width="20" height="15">
  <data encoding="csv">
0,0,0,0,0,0,0,0,0,0,0,0,0,0,0,0,0,0,0,0,
0,0,0,0,0,0,0,0,0,0,0,0,0,0,0,0,0,0,0,0,
0,0,0,0,0,0,0,0,0,0,0,0,0,0,0,0,0,0,0,0,
0,0,0,0,0,0,0,0,0,0,0,0,0,0,0,0,0,0,0,0,
0,0,0,0,0,0,0,0,0,0,0,0,0,0,0,0,0,0,0,0,
0,0,0,0,0,0,0,0,0,0,0,0,0,0,0,0,0,0,0,0,
0,0,0,0,0,0,0,0,0,0,0,0,0,0,0,0,0,0,0,0,
0,0,0,0,0,0,0,0,0,0,0,0,0,0,0,0,0,0,0,0,
0,0,0,0,0,0,0,0,0,0,0,0,0,0,0,0,0,0,0,0,
0,0,0,0,0,0,0,0,0,0,0,0,0,0,0,0,0,0,0,0,
0,0,0,0,0,0,0,0,0,0,0,0,0,0,0,0,0,0,0,0,
0,0,0,0,0,0,0,0,0,0,0,0,0,0,0,0,0,0,0,0,
0,0,0,0,0,0,0,0,0,0,0,0,0,0,0,0,0,0,0,0,
0,0,0,0,0,0,0,0,0,0,0,0,0,0,0,0,0,0,0,0,
0,0,0,0,0,0,0,0,0,0,0,0,0,0,0,0,0,0,0,0
</data>
 </layer>
 <layer id="3" name="Tile Layer 3" width="20" height="15">
  <data encoding="csv">
262,263,263,263,263,263,263,263,263,263,263,263,263,263,263,263,263,263,263,263,
262,263,215,313,313,313,313,313,313,313,313,313,313,313,313,313,313,313,313,313,
262,263,264,363,363,363,363,363,363,363,363,363,363,363,363,363,363,363,363,363,
262,263,264,567,0,615,713,713,713,713,713,713,713,713,713,713,713,713,713,616,
262,263,264,0,0,664,812,813,813,813,813,813,813,813,813,813,813,813,814,662,
262,263,264,0,0,664,862,863,863,863,863,863,863,863,863,863,863,863,864,662,
262,263,264,0,0,664,862,863,863,863,863,863,863,863,863,863,863,863,864,662,
262,263,264,0,0,664,862,863,863,863,863,863,863,863,863,863,863,863,864,662,
262,263,264,0,0,664,862,863,863,863,863,863,863,863,863,863,863,863,864,662,
262,263,264,0,0,664,862,863,863,863,863,863,863,863,863,863,863,863,864,662,
262,263,264,0,0,664,862,863,863,863,863,863,863,863,863,863,863,863,864,662,
262,263,264,0,0,664,862,863,863,863,863,863,863,863,863,863,863,863,864,662,
262,263,264,0,0,664,862,863,863,863,863,863,863,863,863,863,863,863,864,662,
262,263,264,0,0,664,912,913,913,913,913,913,913,913,913,913,913,913,914,662,
262,263,264,0,0,665,613,613,613,613,613,613,613,613,613,613,613,613,613,666
</data>
 </layer>
 <layer id="4" name="Tile Layer 4" width="20" height="15">
  <data encoding="csv">
0,0,0,0,0,0,0,0,0,0,0,0,0,0,0,0,0,469,0,264,
0,0,0,0,0,0,0,0,0,0,0,0,0,0,0,0,0,0,0,314,
0,0,0,517,0,0,0,0,0,0,0,0,0,0,0,0,0,0,0,0,
0,469,0,0,0,0,0,0,0,0,0,0,0,0,0,0,0,0,0,0,
0,0,0,0,0,0,0,0,0,0,0,0,0,0,0,0,0,0,0,0,
0,0,0,0,0,0,0,0,0,0,0,0,0,0,0,0,0,0,0,0,
0,0,0,0,0,0,0,0,0,0,0,0,0,0,0,0,0,0,0,0,
0,0,0,0,0,0,0,0,0,0,0,0,0,0,0,0,0,0,0,0,
0,0,0,519,520,0,0,0,0,0,0,0,0,0,0,0,0,0,0,0,
0,0,0,569,570,0,0,0,0,0,0,0,0,0,0,0,0,0,0,0,
0,0,0,0,0,0,0,0,0,0,0,0,0,0,0,0,0,0,0,0,
0,0,0,0,0,0,0,0,0,0,0,0,0,0,0,0,0,0,0,0,
0,469,0,0,0,0,0,0,0,0,0,0,0,0,0,0,0,0,0,0,
0,0,0,0,0,0,0,0,0,0,0,0,0,0,0,0,0,0,0,0,
0,0,0,0,0,0,0,0,0,0,0,0,0,0,0,0,0,0,0,0
</data>
 </layer>
</map>
