<?xml version="1.0" encoding="UTF-8"?>
<map version="1.10" tiledversion="1.12.1" orientation="orthogonal" renderorder="left-up" width="20" height="15" tilewidth="32" tileheight="32" infinite="0" nextlayerid="5" nextobjectid="1">
 <tileset firstgid="1" source="../TILESET/Base1.tsx"/>
 <layer id="1" name="Tile Layer 1" width="20" height="15">
  <data encoding="csv">
1,1,38,59,58,58,63,63,63,63,63,63,63,63,58,58,58,57,40,1,
1,1,38,59,58,58,58,63,63,63,63,63,63,58,58,58,58,57,40,1,
1,1,38,59,58,58,58,63,63,63,63,63,63,58,58,58,58,57,40,1,
1,1,38,68,51,58,58,58,58,58,58,58,58,58,58,58,49,69,40,1,
1,1,46,45,68,50,51,58,58,58,58,58,58,58,49,50,69,44,48,1,
1,1,1,38,39,39,68,50,50,50,50,50,50,50,69,44,47,48,1,1,
1,1,1,46,47,47,47,47,47,47,47,47,47,47,47,48,1,1,1,1,
1,1,1,1,1,1,1,1,1,1,1,1,1,1,1,1,1,1,1,1,
1,1,1,1,1,1,1,1,1,1,1,1,1,1,1,1,1,1,1,1,
1,1,1,1,1,1,1,1,1,1,1,1,1,1,1,1,1,1,1,1,
1,1,1,1,1,1,1,1,1,1,1,1,1,1,1,1,1,1,1,1,
1,1,1,1,1,1,1,1,1,1,1,1,1,1,1,1,1,1,1,1,
1,1,1,1,1,1,1,1,1,1,1,1,1,1,1,1,1,1,1,1,
1,1,1,1,1,1,1,1,1,1,1,1,1,1,1,1,1,1,1,1,
1,1,1,1,1,1,1,1,1,1,1,1,1,1,1,1,1,1,1,1
</data>
 </layer>
 <layer id="2" name="Tile Layer 2" width="20" height="15">
  <data encoding="csv">
0,0,0,0,0,0,0,0,0,0,0,0,0,0,0,0,0,0,0,0,
0,0,0,0,0,0,0,0,0,0,0,0,0,0,0,0,0,0,0,0,
0,0,0,0,0,0,0,0,0,0,0,0,0,0,0,0,0,0,0,0,
0,0,0,0,0,0,0,0,0,0,0,0,0,0,0,0,0,0,0,0,
0,0,0,0,0,0,0,0,0,0,0,0,0,0,0,0,0,0,0,0,
0,0,0,0,0,0,0,0,0,0,0,0,0,0,0,0,0,0,0,0,
0,0,0,0,0,0,0,0,0,0,0,0,0,0,0,0,0,0,0,0,
0,0,0,0,0,0,0,0,0,0,0,0,0,0,0,0,0,0,0,0,
0,0,0,0,0,0,0,0,0,0,0,0,0,0,0,0,0,0,0,0,
0,0,0,0,0,0,0,0,0,0,0,0,0,0,0,0,0,0,0,0,
0,0,0,0,0,0,0,0,0,0,0,0,0,0,0,0,0,0,0,0,
0,0,0,0,0,0,0,0,0,0,0,0,0,0,0,0,0,0,0,0,
0,0,0,0,0,0,0,0,0,0,0,0,0,0,0,0,0,0,0,0,
0,0,0,0,0,0,0,0,0,0,0,0,0,0,0,0,0,0,0,0,
0,0,0,0,0,0,0,0,0,0,0,0,0,0,0,0,0,0,0,0
</data>
 </layer>
 <layer id="3" name="Tile Layer 3" width="20" height="15">
  <data encoding="csv">
0,0,0,0,0,0,0,0,0,0,0,0,0,0,0,0,0,0,0,0,
0,0,0,0,0,0,0,0,0,0,0,0,0,0,0,0,0,0,0,0,
0,0,0,0,0,0,0,0,0,0,0,0,0,0,0,0,0,0,0,0,
0,0,0,0,0,0,0,0,0,0,0,0,0,0,0,0,0,0,0,0,
0,0,0,0,0,0,0,0,0,0,0,0,0,0,0,0,0,0,0,0,
0,0,0,0,0,0,0,0,0,0,0,0,0,0,0,0,0,0,0,0,
102,0,0,0,0,0,0,0,0,0,0,0,0,0,0,0,0,0,0,0,
102,0,0,0,0,0,0,0,0,0,0,0,0,0,0,0,0,0,0,0,
102,102,0,0,0,0,0,0,0,0,0,0,0,0,0,0,0,0,0,102,
102,102,0,0,0,0,0,0,0,0,0,0,0,0,0,0,0,0,0,102,
102,102,0,0,0,0,0,0,0,0,0,0,0,0,0,0,0,0,0,102,
102,102,0,0,0,0,0,0,0,0,0,0,0,0,0,0,0,0,0,102,
102,102,0,0,0,0,0,0,0,0,0,0,0,0,0,0,0,0,0,102,
102,102,0,0,0,0,0,0,0,0,0,0,0,0,0,0,0,0,0,102,
102,102,102,102,102,102,0,0,0,0,0,0,0,0,0,102,102,102,102,102
</data>
 </layer>
 <layer id="4" name="Tile Layer 4" width="20" height="15">
  <data encoding="csv">
47,47,45,0,0,0,0,0,0,0,0,0,0,0,0,0,0,0,44,47,
0,0,0,0,0,0,0,0,0,0,0,0,0,0,0,0,0,0,0,0,
0,0,0,0,0,0,0,0,0,0,0,0,0,0,0,0,0,0,0,0,
0,0,0,0,0,0,0,0,0,0,0,0,0,0,0,0,0,0,0,0,
0,0,0,0,0,0,0,0,0,0,0,0,0,0,0,0,0,0,0,0,
86,0,0,0,0,0,0,0,0,0,0,0,0,0,0,0,0,0,0,0,
86,0,0,0,0,0,0,0,0,0,0,0,0,0,0,0,0,0,0,0,
86,86,0,0,0,0,0,0,0,0,0,0,0,0,0,0,0,0,0,86,
86,86,0,0,0,0,0,0,0,0,0,0,0,0,0,0,0,0,0,86,
86,86,0,0,0,0,0,0,0,0,0,0,0,0,0,0,0,0,0,86,
86,86,0,0,0,0,0,0,0,0,0,0,0,0,0,0,0,0,0,86,
86,86,0,0,0,0,0,0,0,0,0,0,0,0,0,0,0,0,0,86,
86,86,0,0,0,0,0,0,0,0,0,0,0,0,0,0,0,0,0,86,
86,86,86,86,86,86,0,0,0,0,0,0,0,0,0,86,86,86,86,86,
86,86,86,86,86,86,0,0,0,0,0,0,0,0,0,86,86,86,86,86
</data>
 </layer>
</map>
