<?xml version="1.0" encoding="UTF-8"?>
<map version="1.10" tiledversion="1.12.1" orientation="orthogonal" renderorder="left-up" width="20" height="15" tilewidth="32" tileheight="32" infinite="0" nextlayerid="5" nextobjectid="1">
 <tileset firstgid="1" source="../TILESET/Base1.tsx"/>
 <tileset firstgid="273" source="../TILESET/snowy.tsx"/>
 <layer id="1" name="Tile Layer 1" width="20" height="15">
  <data encoding="csv">
1,1,1,1,1,1,1,1,1,1,1,1,38,59,59,58,63,63,63,63,
1,1,1,1,1,1,1,1,1,1,1,1,1,59,59,58,63,63,63,63,
1,1,1,1,1,1,1,1,1,1,1,1,1,59,59,58,63,63,63,63,
1,1,1,1,1,1,1,1,1,1,1,1,1,59,59,58,63,63,63,63,
1,1,1,1,1,1,1,1,1,1,1,1,1,59,59,58,58,63,63,63,
1,1,1,1,1,1,1,1,1,1,1,1,1,59,59,58,58,58,58,58,
1,1,1,1,1,1,1,1,1,1,1,1,1,59,59,58,58,58,58,58,
1,1,1,1,1,1,1,1,1,1,1,1,1,59,68,50,50,50,50,50,
1,1,1,1,1,1,1,1,1,1,1,1,1,68,39,39,39,39,39,39,
1,1,1,1,1,1,1,1,1,1,1,1,1,1,1,1,1,1,1,1,
1,1,1,1,1,1,1,1,1,1,1,1,1,1,1,1,1,1,1,1,
1,1,1,1,1,1,1,1,1,1,1,1,1,1,1,1,1,1,1,1,
1,1,1,1,1,1,1,1,1,1,1,1,1,1,1,1,1,1,1,1,
1,1,1,1,1,1,1,1,1,1,1,1,1,1,1,1,1,1,1,1,
1,1,1,1,1,1,1,1,1,1,1,1,1,1,1,1,1,1,1,1
</data>
 </layer>
 <layer id="2" name="Tile Layer 2" width="20" height="15">
  <data encoding="csv">
0,0,0,0,0,0,1,1,1,1,1,1,1,1,0,0,0,0,0,0,
0,0,0,0,0,0,0,0,281,281,281,281,281,38,0,0,0,0,0,0,
0,0,0,0,0,0,0,281,0,0,0,281,281,38,0,0,0,0,0,0,
0,0,0,0,0,0,0,281,0,0,0,281,281,38,0,0,0,0,0,0,
0,0,0,0,0,0,0,281,281,281,281,281,281,38,0,0,0,0,0,0,
0,0,0,0,0,0,0,281,281,281,281,281,281,38,0,0,0,0,0,0,
0,0,0,0,0,0,0,281,281,281,281,281,281,38,0,0,0,0,0,0,
0,0,0,0,0,0,0,281,281,281,281,281,281,38,0,0,0,0,0,0,
0,0,0,0,0,0,0,281,281,281,281,0,1,38,0,0,0,0,0,0,
0,0,0,0,0,0,0,281,281,281,0,0,1,38,39,39,39,39,39,39,
0,0,0,0,0,0,0,281,281,0,0,0,1,38,39,39,39,39,39,39,
0,0,0,0,0,0,0,281,281,0,0,0,1,38,39,39,39,39,39,39,
0,0,0,281,281,281,281,281,281,0,0,0,1,38,39,39,39,39,39,39,
0,0,0,281,281,281,281,281,0,0,0,1,1,38,39,39,39,39,39,39,
0,0,0,0,0,0,0,0,0,0,0,1,1,38,39,39,39,39,39,39
</data>
 </layer>
 <layer id="3" name="Tile Layer 3" width="20" height="15">
  <data encoding="csv">
137,138,138,138,138,139,326,326,326,326,326,326,326,326,326,0,0,0,0,0,
137,138,138,138,138,139,326,326,0,0,0,0,0,0,0,0,0,0,0,0,
137,138,138,138,138,139,326,0,209,210,211,0,0,0,0,0,0,0,0,0,
137,138,138,138,138,139,326,0,217,218,219,0,0,0,0,0,0,0,0,0,
137,138,138,138,138,139,326,0,0,0,0,0,0,0,0,0,0,0,0,0,
137,138,138,138,138,139,326,0,0,0,0,0,0,0,0,0,0,0,0,0,
137,138,138,138,138,139,326,0,0,0,0,0,0,0,0,0,0,0,0,0,
137,138,138,138,138,139,326,0,0,0,0,0,0,0,0,0,0,0,0,0,
137,138,138,138,138,139,326,0,0,0,0,0,0,0,248,0,0,0,0,248,
137,138,138,138,138,147,326,0,0,0,0,0,0,0,256,0,0,0,0,256,
137,138,138,138,138,147,326,0,0,0,0,0,0,0,0,0,0,0,0,0,
137,138,139,326,326,326,326,0,0,0,0,0,0,0,0,0,126,127,0,0,
137,138,139,0,0,0,0,0,0,0,0,0,0,0,0,0,134,135,0,0,
137,138,139,0,0,0,0,0,0,0,0,0,0,0,0,0,0,0,0,0,
137,138,139,0,0,0,0,0,0,0,0,0,0,0,0,0,0,0,0,0
</data>
 </layer>
 <layer id="4" name="Tile Layer 4" width="20" height="15">
  <data encoding="csv">
0,0,0,0,0,0,309,309,0,0,0,0,0,0,0,0,0,0,0,0,
0,0,0,0,0,0,309,0,201,202,203,0,0,0,0,0,0,0,0,0,
0,0,0,0,0,0,309,0,0,0,0,0,0,0,0,0,0,0,0,0,
0,0,0,0,0,0,309,0,0,0,0,0,0,0,0,0,0,0,0,0,
0,0,0,0,0,0,309,0,0,0,0,0,0,0,0,0,0,0,0,0,
0,0,0,0,0,0,309,0,0,0,0,0,0,0,0,0,0,0,0,0,
0,0,0,0,0,0,309,0,0,0,0,0,0,0,0,0,0,0,0,0,
0,0,0,0,0,0,293,0,0,0,0,0,0,0,240,0,0,0,0,240,
0,0,0,0,0,0,293,0,0,0,0,0,0,0,0,0,0,0,0,0,
0,0,0,0,0,0,293,0,0,0,0,0,0,0,0,0,0,0,0,0,
0,0,180,293,293,293,293,0,0,0,0,0,0,0,0,0,0,0,0,0,
0,0,0,0,0,0,0,0,0,0,0,0,0,0,0,0,0,0,0,0,
0,0,0,0,0,0,0,0,0,0,0,0,0,0,0,0,0,0,0,0,
0,0,0,0,0,0,0,0,0,0,0,0,0,0,0,0,0,0,0,0,
0,0,0,86,0,0,0,0,0,0,0,0,0,0,0,0,0,0,0,0
</data>
 </layer>
</map>
