<?xml version="1.0" encoding="UTF-8"?>
<map version="1.10" tiledversion="1.12.1" orientation="orthogonal" renderorder="left-up" width="20" height="15" tilewidth="32" tileheight="32" infinite="0" nextlayerid="5" nextobjectid="1">
 <tileset firstgid="1" source="../TILESET/Base1.tsx"/>
 <tileset firstgid="273" source="../TILESET/snowy.tsx"/>
 <layer id="1" name="Tile Layer 1" width="20" height="15">
  <data encoding="csv">
1,1,1,1,1,1,1,1,1,1,1,1,1,38,58,58,63,63,57,40,
1,1,1,1,1,1,1,1,1,1,1,1,1,38,58,58,63,63,57,40,
1,1,1,1,1,58,1,1,1,1,1,1,1,38,58,58,63,63,57,40,
1,1,1,1,1,1,277,277,277,277,277,277,277,38,58,58,63,63,57,52,
1,1,1,1,1,1,277,277,277,277,277,277,277,38,58,58,63,63,65,66,
1,1,1,1,1,1,277,277,277,277,277,277,277,38,58,58,63,63,63,63,
1,1,1,1,1,1,277,277,277,277,277,277,277,38,58,58,63,63,63,63,
1,1,1,1,1,1,277,277,277,277,277,277,277,38,58,58,63,63,63,63,
1,1,1,1,1,1,277,277,277,277,277,277,277,38,58,58,63,63,63,63,
1,1,1,1,1,1,277,277,277,277,277,277,277,38,58,58,63,63,63,63,
1,1,1,1,1,1,277,277,277,277,277,277,277,38,58,58,63,63,63,63,
1,1,1,1,1,1,277,277,277,277,277,277,277,38,58,58,63,63,63,63,
1,1,1,1,1,1,277,277,277,277,277,277,277,38,58,58,63,63,63,63,
1,1,1,1,1,1,1,277,277,277,277,277,277,38,58,58,63,63,63,63,
1,1,1,1,1,1,1,277,277,277,277,277,277,38,58,58,63,63,63,63
</data>
 </layer>
 <layer id="2" name="Tile Layer 2" width="20" height="15">
  <data encoding="csv">
0,0,0,0,0,0,0,0,0,0,0,0,0,0,0,0,0,0,0,0,
0,0,0,0,0,0,0,0,0,0,0,0,0,0,0,0,0,0,0,0,
0,0,0,0,0,0,0,0,0,0,0,0,0,0,0,0,0,0,0,0,
0,0,0,0,0,0,0,0,0,0,0,0,0,0,0,0,0,0,0,0,
0,0,0,0,0,0,0,281,281,281,281,281,281,0,0,0,0,0,0,0,
0,0,0,0,0,0,0,281,281,281,281,281,0,0,0,0,0,0,0,0,
0,0,0,0,0,0,0,281,281,281,281,0,0,0,0,0,0,0,0,0,
0,0,0,0,0,0,0,281,281,281,281,0,0,0,0,0,0,0,0,0,
0,0,0,0,0,0,0,281,281,281,273,273,0,0,0,0,0,0,0,0,
0,0,0,0,0,0,0,281,281,281,0,0,0,0,0,0,0,0,0,0,
0,0,0,0,0,0,0,281,281,281,0,0,0,0,0,0,0,0,0,0,
0,0,0,0,0,0,0,281,281,0,0,0,0,0,0,0,0,0,0,0,
0,0,0,0,0,0,0,281,281,0,0,0,0,0,0,0,0,0,0,0,
0,0,0,0,0,0,0,281,281,0,0,0,0,0,0,0,0,0,0,0,
0,0,0,0,0,0,0,0,0,0,0,0,0,0,0,0,0,0,0,0
</data>
 </layer>
 <layer id="3" name="Tile Layer 3" width="20" height="15">
  <data encoding="csv">
137,138,138,138,138,138,138,138,138,138,138,138,139,0,0,0,0,0,0,0,
137,138,138,138,138,138,138,138,138,138,138,138,139,0,0,0,0,0,0,0,
137,138,138,138,138,139,138,138,138,138,138,138,139,0,0,0,0,0,0,0,
137,138,138,138,138,139,326,326,326,326,326,326,326,0,0,0,0,0,0,0,
137,138,138,138,138,139,326,0,0,0,0,0,0,0,0,0,0,0,0,0,
137,138,138,138,138,139,326,0,0,0,0,0,0,0,0,0,0,0,0,0,
137,138,138,138,138,139,326,0,0,0,0,0,0,0,0,0,0,0,0,0,
137,138,138,138,138,139,326,0,0,0,0,0,0,0,0,0,0,0,0,0,
137,138,138,138,138,139,326,0,0,0,0,0,0,0,0,0,0,0,0,0,
137,138,138,138,138,139,326,0,0,0,307,308,0,0,0,0,0,0,0,0,
137,138,138,138,138,139,326,0,0,0,0,0,0,0,0,0,0,0,0,0,
137,138,138,138,138,139,326,0,0,0,0,0,0,0,0,0,0,0,0,0,
137,138,138,138,138,139,326,0,0,0,0,0,0,0,0,0,0,0,0,0,
137,138,138,138,138,139,326,0,0,0,0,0,0,0,0,0,0,0,0,0,
137,138,138,138,138,139,326,0,0,0,0,0,0,0,0,0,0,0,0,0
</data>
 </layer>
 <layer id="4" name="Tile Layer 4" width="20" height="15">
  <data encoding="csv">
0,0,0,0,0,0,0,0,0,0,0,0,0,0,0,0,0,0,0,0,
0,0,0,0,0,0,0,0,0,0,0,0,0,0,0,0,0,0,0,0,
0,0,0,0,0,0,309,309,309,309,309,309,309,0,0,0,0,0,0,0,
0,0,0,0,0,0,309,0,0,0,0,0,0,0,0,0,0,0,0,0,
0,0,0,0,0,0,309,0,0,0,0,0,0,0,0,0,0,0,0,0,
0,0,0,0,0,0,309,0,0,0,0,0,0,0,0,0,0,0,0,0,
0,0,0,0,0,0,309,0,0,0,0,0,0,0,0,0,0,0,0,0,
0,0,0,0,0,0,309,0,0,0,291,292,0,0,0,0,0,0,0,0,
0,0,0,0,0,0,309,0,0,0,299,300,0,0,0,0,0,0,0,0,
0,0,0,0,0,0,309,0,0,0,0,0,0,0,0,0,0,0,0,0,
0,0,0,0,0,0,309,0,0,0,0,0,0,0,0,0,0,0,0,0,
0,0,0,0,0,0,309,0,0,0,0,0,0,0,0,0,0,0,0,0,
0,0,0,0,0,0,309,0,0,0,0,0,0,0,0,0,0,0,0,0,
0,0,0,0,0,0,309,0,0,0,0,0,0,0,0,0,0,0,0,0,
0,0,0,0,0,0,309,309,309,309,309,309,309,309,309,0,0,0,0,0
</data>
 </layer>
</map>
