<?xml version="1.0" encoding="UTF-8"?>
<map version="1.10" tiledversion="1.12.1" orientation="orthogonal" renderorder="left-up" width="20" height="15" tilewidth="32" tileheight="32" infinite="0" nextlayerid="5" nextobjectid="1">
 <tileset firstgid="1" source="../TILESET/Base1.tsx"/>
 <tileset firstgid="273" source="../TILESET/snowy.tsx"/>
 <layer id="1" name="Tile Layer 1" width="20" height="15">
  <data encoding="csv">
38,59,58,58,57,40,1,1,1,1,1,1,1,1,1,1,1,1,1,1,
38,59,58,58,57,40,1,1,1,1,1,1,1,1,1,1,1,1,1,1,
38,59,58,58,57,40,1,1,1,1,1,1,1,1,1,1,1,1,1,1,
53,59,58,58,57,40,1,1,1,1,1,1,1,1,1,1,1,1,1,1,
66,67,58,58,57,40,1,1,1,1,1,1,1,1,1,1,1,1,1,1,
63,63,58,58,57,52,31,32,1,1,1,1,1,1,1,1,1,1,1,1,
63,63,63,58,65,66,61,40,1,1,1,1,1,1,1,1,1,1,1,1,
63,63,63,58,58,58,57,40,1,1,1,1,1,1,1,1,1,1,1,1,
63,63,63,63,58,58,57,40,1,1,1,1,1,1,1,1,1,1,1,1,
63,63,63,63,58,58,57,40,1,1,1,1,1,1,1,1,1,1,1,1,
63,63,63,63,58,58,57,40,1,1,1,1,1,1,1,1,1,1,1,1,
63,63,63,63,58,58,57,40,1,1,1,1,1,1,1,1,1,1,1,1,
63,63,63,63,58,58,57,40,1,1,1,1,1,1,1,1,1,1,1,1,
63,63,63,63,58,58,57,40,1,1,1,1,1,1,1,1,1,1,1,1,
63,63,63,63,58,58,57,40,1,1,1,1,1,1,1,1,1,1,1,1
</data>
 </layer>
 <layer id="2" name="Tile Layer 2" width="20" height="15">
  <data encoding="csv">
0,0,0,0,0,0,0,0,0,0,0,0,0,0,0,0,0,0,0,0,
0,0,0,0,0,0,0,0,0,0,0,0,0,0,0,0,0,0,0,0,
0,0,0,0,0,0,0,0,0,0,0,0,0,0,0,0,0,0,0,0,
0,0,0,0,0,0,0,0,281,281,281,281,0,0,0,0,0,0,0,0,
0,0,0,0,0,0,0,0,281,281,281,281,281,281,281,281,281,0,0,0,
0,0,0,0,0,0,0,0,0,281,281,281,281,281,281,281,281,0,0,0,
0,0,0,0,0,0,0,0,0,281,281,281,281,281,281,281,281,0,0,0,
0,0,0,0,0,0,0,0,0,0,281,281,281,281,281,281,281,0,0,0,
0,0,0,0,0,0,0,0,0,0,0,281,281,281,281,0,0,0,0,0,
0,0,0,0,0,0,0,0,0,0,0,0,281,281,0,0,0,0,0,0,
0,0,0,0,0,0,0,0,0,0,0,0,0,0,0,0,0,0,0,0,
0,0,0,0,0,0,0,0,0,0,0,0,0,0,0,0,0,0,0,0,
0,0,0,0,0,0,0,0,0,0,0,0,0,0,0,0,0,0,0,0,
0,0,0,0,0,0,0,0,0,0,0,0,0,0,0,0,0,0,0,0,
0,0,0,0,0,0,0,0,0,0,0,0,0,0,0,0,0,0,0,0
</data>
 </layer>
 <layer id="3" name="Tile Layer 3" width="20" height="15">
  <data encoding="csv">
0,0,0,0,326,326,326,301,326,326,326,326,326,326,326,326,326,326,326,326,
0,0,0,0,0,0,326,326,326,326,326,326,326,326,326,326,326,326,326,326,
0,0,0,0,0,0,0,326,326,326,326,326,326,326,326,326,326,326,326,326,
0,0,0,0,0,0,0,0,0,0,0,0,326,326,326,326,326,326,326,326,
0,0,0,0,0,0,0,0,0,0,0,0,0,0,0,0,0,326,326,102,
0,0,0,0,0,0,0,0,0,0,0,0,0,0,0,0,0,326,326,102,
0,0,0,0,0,0,0,0,0,0,0,0,0,0,0,0,0,326,326,102,
0,0,0,0,0,0,0,0,0,0,0,0,0,0,0,0,0,326,326,102,
0,0,0,0,0,0,0,0,0,0,0,0,0,0,0,0,94,94,102,102,
0,0,0,0,0,0,0,0,0,0,0,0,0,0,0,94,94,102,102,102,
0,0,0,0,0,0,0,0,0,0,0,0,0,0,94,94,102,102,102,102,
0,0,0,0,0,0,0,0,0,0,0,0,0,94,94,102,102,102,102,102,
0,0,0,0,0,0,0,0,0,0,0,0,0,94,102,102,102,102,102,102,
0,0,0,0,0,0,0,0,0,0,0,0,0,94,102,102,102,102,102,102,
0,0,0,0,0,0,0,0,0,0,0,0,0,94,94,94,94,94,94,94
</data>
 </layer>
 <layer id="4" name="Tile Layer 4" width="20" height="15">
  <data encoding="csv">
0,0,0,0,0,0,309,309,309,309,309,309,309,309,309,309,309,309,309,309,
0,0,0,0,0,0,0,309,309,309,309,309,309,309,309,309,309,309,309,309,
0,0,0,0,0,0,0,0,0,0,0,0,309,309,309,309,309,309,309,293,
0,0,0,0,0,0,0,0,0,0,0,0,0,0,0,0,0,309,293,86,
0,0,0,0,0,0,0,0,0,0,0,0,0,0,0,0,0,293,293,86,
0,0,0,0,0,0,0,0,0,0,0,0,0,0,0,0,0,293,293,86,
0,0,0,0,0,0,0,0,0,0,0,0,0,0,0,0,0,293,293,86,
0,0,0,0,0,0,0,0,0,0,0,0,0,0,0,0,86,86,86,86,
0,0,0,0,0,0,0,0,0,0,0,0,0,0,0,86,86,86,86,86,
0,0,0,0,0,0,0,0,0,0,0,0,0,0,86,86,86,86,86,86,
0,0,0,0,0,0,0,0,0,0,0,0,0,86,86,86,86,86,86,86,
0,0,0,0,0,0,0,0,0,0,0,0,0,86,86,86,86,86,86,86,
0,0,0,0,0,0,0,0,0,0,0,0,0,86,86,86,86,86,86,86,
0,0,0,0,0,0,0,0,0,0,0,0,0,86,86,86,86,86,86,86,
0,0,0,0,0,0,0,0,0,0,0,0,0,86,86,86,86,86,86,86
</data>
 </layer>
</map>
