<?xml version="1.0" encoding="UTF-8"?>
<map version="1.10" tiledversion="1.12.1" orientation="orthogonal" renderorder="left-up" width="20" height="15" tilewidth="32" tileheight="32" infinite="0" nextlayerid="5" nextobjectid="1">
 <tileset firstgid="1" source="../TILESET/Base1.tsx"/>
 <layer id="1" name="Tile Layer 1" width="20" height="15">
  <data encoding="csv">
39,7,7,7,7,7,7,7,7,7,7,7,7,7,7,7,7,7,7,39,
39,7,7,7,7,7,7,7,7,7,7,7,7,7,7,7,7,7,7,39,
39,39,39,39,7,7,7,7,7,7,7,7,7,7,7,7,39,39,39,39,
31,31,32,39,7,7,7,7,7,7,7,7,7,7,39,7,39,30,31,31,
66,61,40,39,7,7,7,7,7,7,7,7,7,7,7,7,39,38,60,66,
63,57,40,39,39,39,7,7,7,7,7,7,7,7,39,39,39,38,59,63,
63,57,52,31,32,39,7,7,7,7,7,7,7,7,39,39,30,53,59,63,
63,57,39,39,40,39,7,7,7,7,7,7,7,7,39,39,38,60,67,63,
63,65,61,39,40,39,7,7,7,7,7,7,7,7,39,39,38,59,63,63,
63,63,57,39,40,39,7,7,7,7,7,7,7,7,7,39,38,59,63,63,
63,63,65,61,40,39,39,39,7,7,7,7,7,7,7,39,38,59,63,63,
63,63,63,57,40,39,39,7,7,7,7,7,39,39,39,39,38,59,63,63,
63,63,63,57,52,32,39,7,7,7,39,7,39,39,39,30,53,59,63,63,
63,63,63,57,39,40,39,39,7,7,7,7,7,7,39,38,39,59,63,63,
63,63,63,57,39,40,39,7,7,7,7,7,7,7,39,38,39,59,63,63
</data>
 </layer>
 <layer id="2" name="Tile Layer 2" width="20" height="15">
  <data encoding="csv">
8,8,8,8,8,8,8,8,8,8,8,8,8,8,8,8,8,8,8,8,
8,8,8,8,8,8,8,8,8,8,8,8,8,8,8,8,8,8,8,8,
8,8,8,8,8,8,8,8,8,8,8,8,8,8,8,8,8,8,8,8,
0,0,0,8,8,8,8,8,8,8,8,8,8,8,9,9,8,0,0,0,
0,0,0,8,8,8,8,8,8,8,8,8,8,8,9,9,8,0,0,0,
0,0,0,8,8,8,9,9,8,8,8,8,8,8,9,8,8,0,0,0,
0,0,0,0,0,8,9,9,9,9,8,9,9,9,9,8,0,0,0,0,
0,0,0,0,0,8,9,9,9,9,9,9,9,9,9,8,0,0,0,0,
0,0,0,0,0,8,9,9,9,9,9,9,9,9,9,8,0,0,0,0,
0,0,0,0,0,8,9,9,9,9,9,9,9,9,9,8,0,0,0,0,
0,0,0,0,0,8,8,9,9,9,9,9,9,9,9,8,0,0,0,0,
0,0,0,0,0,8,8,9,9,9,9,9,9,9,8,8,0,0,0,0,
0,0,0,0,0,0,8,9,9,9,7,7,8,8,8,0,0,0,0,0,
0,0,0,0,0,0,8,9,9,7,7,7,8,8,8,0,0,0,0,0,
0,0,0,0,0,0,8,8,8,7,7,7,8,8,8,0,0,0,0,0
</data>
 </layer>
 <layer id="3" name="Tile Layer 3" width="20" height="15">
  <data encoding="csv">
102,0,0,0,0,0,161,154,154,154,154,154,154,154,163,0,0,0,0,102,
102,0,0,0,0,0,169,170,170,170,208,170,170,170,171,0,0,0,0,102,
102,102,102,102,0,0,0,0,0,0,0,0,0,0,0,0,102,102,102,102,
0,0,0,102,0,0,0,0,0,0,0,0,0,0,0,0,102,0,0,0,
0,0,0,102,92,93,0,0,0,0,0,0,0,0,92,93,102,0,0,0,
0,0,0,102,102,102,0,0,0,0,0,0,0,0,0,102,102,0,0,0,
0,0,0,0,0,102,0,0,0,0,0,0,0,0,0,102,0,0,0,0,
0,0,0,0,0,102,0,0,0,201,202,203,0,0,0,102,0,0,0,0,
0,0,0,0,0,102,0,0,0,209,210,211,0,0,0,102,0,0,0,0,
0,0,0,0,0,102,0,0,0,217,218,219,0,0,0,102,0,0,0,0,
0,0,0,0,0,102,0,0,0,0,0,0,0,0,0,102,0,0,0,0,
0,0,0,0,0,102,102,0,0,0,0,0,0,0,102,102,0,0,0,0,
0,0,0,0,0,0,102,0,0,0,0,0,0,0,102,0,0,0,0,0,
0,0,0,0,0,0,102,0,0,0,0,0,0,0,102,0,0,0,0,0,
0,0,0,0,0,0,102,0,0,0,0,0,0,0,102,0,0,0,0,0
</data>
 </layer>
 <layer id="4" name="Tile Layer 4" width="20" height="15">
  <data encoding="csv">
86,0,0,0,0,0,0,0,0,0,0,0,0,0,0,0,0,0,0,86,
86,86,86,86,0,0,0,0,0,0,0,0,0,0,0,0,86,86,86,86,
0,0,0,86,76,77,0,0,0,0,0,0,0,0,76,77,86,0,0,0,
0,0,0,86,84,85,0,0,0,0,0,0,0,0,84,85,86,0,0,0,
0,0,0,86,86,86,0,0,0,0,0,0,0,0,0,86,86,0,0,0,
0,0,0,0,0,86,0,0,0,0,0,0,0,0,0,86,0,0,0,0,
0,0,0,0,0,86,0,0,0,0,0,0,0,0,0,86,0,0,0,0,
0,0,0,0,0,86,0,0,0,0,0,0,0,0,0,86,0,0,0,0,
0,0,0,0,0,86,0,0,0,0,0,0,0,0,0,86,0,0,0,0,
0,0,0,0,0,86,0,0,0,0,0,0,0,0,0,86,0,0,0,0,
0,0,0,0,0,86,86,0,0,0,0,0,0,0,86,86,0,0,0,0,
0,0,0,0,0,0,86,0,0,0,0,0,0,0,86,0,0,0,0,0,
0,0,0,0,0,0,86,0,0,0,0,0,0,0,86,0,0,0,0,0,
0,0,0,0,0,0,86,0,0,0,0,0,0,0,86,0,0,0,0,0,
0,0,0,0,0,0,86,0,0,0,0,0,0,0,86,0,0,0,0,0
</data>
 </layer>
</map>
