<?xml version="1.0" encoding="UTF-8"?>
<map version="1.10" tiledversion="1.12.1" orientation="orthogonal" renderorder="left-up" width="20" height="15" tilewidth="32" tileheight="32" infinite="0" nextlayerid="5" nextobjectid="1">
 <tileset firstgid="1" source="../TILESET/Base1.tsx"/>
 <layer id="1" name="Tile Layer 1" width="20" height="15">
  <data encoding="csv">
1,1,1,1,1,1,1,1,1,1,1,1,1,1,1,1,1,1,1,1,
1,1,1,1,1,1,1,1,1,1,1,1,1,1,1,1,1,1,1,1,
1,1,1,1,1,1,1,1,1,1,1,1,1,1,1,1,1,1,1,1,
1,1,1,1,1,1,1,1,1,1,1,1,1,1,1,1,1,1,1,1,
1,1,1,1,1,1,1,1,1,1,1,1,1,1,1,1,1,1,1,1,
1,1,1,1,1,1,1,1,1,1,1,1,1,1,1,1,1,1,1,1,
1,1,1,1,1,1,1,1,1,1,1,1,1,1,1,1,1,1,1,1,
1,1,1,1,1,1,1,1,1,1,1,1,1,1,1,1,1,1,1,1,
1,1,1,1,1,1,1,1,1,1,1,1,1,1,1,1,1,1,1,1,
1,1,1,1,1,1,1,1,1,1,1,1,1,1,1,1,1,1,1,1,
1,1,1,1,1,1,1,1,1,1,1,1,1,1,1,1,1,1,1,1,
1,1,1,1,1,1,1,1,1,1,1,1,1,1,1,1,1,1,1,1,
1,1,1,1,1,1,1,1,1,1,1,1,1,1,1,1,1,1,1,1,
1,1,1,1,1,1,1,1,1,1,1,1,1,1,1,1,1,1,1,1,
1,1,1,1,1,1,1,1,1,1,1,1,1,1,1,1,1,1,1,1
</data>
 </layer>
 <layer id="2" name="Tile Layer 2" width="20" height="15">
  <data encoding="csv">
0,0,0,0,0,0,0,0,0,0,0,0,0,0,0,0,0,0,0,0,
0,0,0,0,0,0,0,0,0,0,0,0,0,0,0,0,0,0,0,0,
0,0,0,0,0,0,0,0,0,0,0,0,0,0,0,0,0,0,0,0,
0,0,0,0,0,0,0,0,0,0,0,0,0,0,0,0,0,0,0,0,
0,0,0,0,0,0,0,0,0,0,0,0,0,0,0,0,0,0,0,0,
0,0,0,0,0,0,0,0,0,0,0,0,0,0,0,0,0,0,0,0,
0,0,0,0,0,0,0,0,0,0,0,0,0,0,0,0,0,0,0,0,
0,0,0,0,0,0,0,0,0,0,0,0,0,0,0,0,0,0,0,0,
0,0,0,0,0,0,0,0,0,0,0,0,0,0,0,0,0,0,0,0,
0,0,0,0,0,0,0,0,0,0,0,0,0,0,0,0,0,0,0,0,
0,0,0,0,0,0,0,0,0,0,0,0,0,0,0,0,0,0,0,0,
0,0,0,0,0,0,0,0,0,0,0,0,0,0,0,0,0,0,0,0,
0,0,0,0,0,0,0,0,0,0,0,0,0,0,0,0,0,0,0,0,
0,0,0,0,0,0,0,0,0,0,0,0,0,0,0,0,0,0,0,0,
0,0,0,0,0,0,0,0,0,0,0,0,0,0,0,0,0,0,0,0
</data>
 </layer>
 <layer id="3" name="Tile Layer 3" width="20" height="15">
  <data encoding="csv">
139,132,138,138,138,138,138,138,138,138,138,138,138,138,138,138,138,138,138,138,
147,137,138,138,138,138,138,138,138,138,138,138,138,138,138,138,138,138,138,138,
94,137,138,138,138,138,138,138,138,138,138,138,138,138,138,138,138,138,138,138,
94,137,138,138,138,138,138,138,138,138,138,138,138,138,138,138,138,138,138,138,
94,137,138,138,138,138,138,138,138,138,138,138,138,138,138,138,138,138,138,138,
94,137,138,138,138,138,138,138,138,138,138,138,138,138,138,138,138,138,138,138,
94,146,146,146,146,146,146,146,146,146,146,146,146,146,146,146,146,146,146,146,
94,94,94,94,94,94,129,130,130,130,130,130,130,130,130,130,130,130,130,130,
94,94,94,94,94,94,137,138,138,138,138,138,138,138,138,138,138,138,138,138,
94,94,94,94,94,94,137,138,138,138,138,138,138,138,138,138,138,138,138,138,
94,94,94,94,94,94,137,138,138,138,138,138,138,138,138,138,138,138,138,138,
94,94,94,94,94,94,137,138,138,138,138,138,138,138,138,138,138,138,138,138,
94,94,94,94,94,94,137,138,138,138,138,138,138,138,138,138,138,138,138,138,
94,94,94,94,94,94,137,138,138,138,138,138,138,138,138,138,138,138,138,138,
94,94,94,94,94,94,137,138,138,138,138,138,138,138,138,138,138,138,138,138
</data>
 </layer>
 <layer id="4" name="b" width="20" height="15">
  <data encoding="csv">
0,0,142,143,0,0,0,0,0,0,0,0,0,0,0,0,0,0,0,0,
86,0,150,151,0,0,0,0,120,0,0,0,129,130,131,0,142,143,0,0,
86,0,0,0,0,0,0,0,0,0,0,0,137,138,139,0,150,151,0,0,
86,0,0,0,0,0,0,0,0,0,142,143,145,146,147,0,0,0,0,0,
86,0,0,0,0,120,0,0,0,0,150,151,0,0,0,0,0,0,120,0,
86,0,0,0,0,0,0,0,0,0,0,0,0,0,0,0,0,0,0,0,
86,86,86,86,86,86,0,0,0,0,0,0,0,0,0,0,0,0,0,0,
86,86,86,86,86,86,0,142,143,0,0,0,0,0,0,0,0,0,0,0,
86,86,86,86,86,86,0,150,151,0,0,0,0,0,0,0,0,0,0,0,
86,86,86,86,86,86,0,0,0,0,0,0,129,130,131,0,120,0,0,0,
86,86,86,86,86,86,0,0,0,0,0,0,137,138,139,0,0,0,0,0,
86,86,86,86,86,86,0,0,0,0,0,0,145,146,147,0,0,0,0,0,
86,86,86,86,86,86,0,0,0,0,0,0,0,0,0,142,143,0,0,0,
86,86,86,86,86,86,0,0,0,0,120,0,0,0,0,150,151,0,0,0,
86,86,86,86,86,86,0,0,0,0,0,0,0,0,0,0,0,0,0,0
</data>
 </layer>
</map>
