<?xml version="1.0" encoding="UTF-8"?>
<map version="1.10" tiledversion="1.12.1" orientation="orthogonal" renderorder="left-up" width="20" height="15" tilewidth="32" tileheight="32" infinite="0" nextlayerid="6" nextobjectid="1">
 <tileset firstgid="1" source="../TILESET/Base1.tsx"/>
 <layer id="1" name="Tile Layer 1" width="20" height="15">
  <data encoding="csv">
1,1,1,1,1,1,1,1,1,1,1,1,1,1,1,1,1,1,1,1,
1,1,1,1,1,1,1,1,1,1,1,1,1,1,1,1,1,1,1,1,
1,1,1,1,1,1,1,1,1,1,1,1,1,1,1,1,1,1,1,1,
1,1,1,1,1,1,1,1,1,1,1,1,1,1,1,1,1,1,1,1,
1,1,1,1,1,1,1,1,1,1,1,1,1,1,1,1,1,1,1,1,
1,1,1,1,1,1,1,1,1,1,1,1,1,1,1,1,1,1,1,1,
1,1,1,1,1,1,1,1,1,1,1,1,1,1,1,1,1,1,1,1,
1,1,1,1,1,1,1,1,1,1,1,1,1,1,1,1,1,1,1,1,
1,1,1,1,1,1,1,1,1,1,1,1,1,1,1,1,1,1,1,1,
1,1,1,1,1,1,1,1,1,1,1,1,1,1,1,1,1,1,1,1,
1,1,1,1,1,1,1,1,1,1,1,1,1,1,1,1,1,1,1,1,
1,1,1,1,1,1,1,1,1,1,1,1,1,1,1,1,1,1,1,1,
1,1,1,1,1,1,1,1,1,1,1,1,1,1,1,1,1,1,1,1,
1,1,1,1,1,1,1,1,1,1,1,1,1,1,1,1,1,1,1,1,
1,1,1,1,1,1,1,1,1,1,1,1,1,1,1,1,1,1,1,1
</data>
 </layer>
 <layer id="2" name="Tile Layer 2" width="20" height="15">
  <data encoding="csv">
0,0,0,0,0,0,0,0,0,0,0,0,0,0,0,0,0,0,0,0,
0,0,0,0,0,0,0,0,0,0,0,0,0,0,0,0,0,0,0,0,
0,0,0,0,0,0,0,0,0,0,0,0,0,0,0,0,0,0,0,0,
0,0,0,0,0,0,0,0,0,0,0,0,0,0,0,0,0,0,0,0,
0,0,0,0,0,0,0,0,0,0,0,0,0,0,0,0,0,0,0,0,
0,0,0,0,0,0,0,0,0,0,0,0,0,0,0,0,0,0,0,0,
0,0,0,0,0,0,0,0,0,0,0,0,0,0,0,0,0,0,0,0,
0,0,0,0,0,0,0,0,0,0,0,0,0,0,0,0,0,0,0,0,
0,0,0,0,0,0,0,0,0,0,0,0,0,0,0,0,0,0,0,0,
0,0,0,0,0,0,0,0,0,0,0,0,0,0,0,0,0,0,0,0,
0,0,0,0,0,0,0,0,0,0,0,0,0,0,0,0,0,0,0,0,
0,0,0,0,0,0,0,0,0,0,0,0,0,0,0,0,0,0,0,0,
0,0,0,0,0,0,0,0,0,0,0,0,0,0,0,0,0,0,0,0,
0,0,0,0,0,0,0,0,0,0,0,0,0,0,0,0,0,0,0,0,
0,0,0,0,0,0,0,0,0,0,0,0,0,0,0,0,0,0,0,0
</data>
 </layer>
 <layer id="3" name="Tile Layer 3" width="20" height="15">
  <data encoding="csv">
139,138,138,138,138,138,138,138,138,138,138,138,138,138,138,138,138,138,138,138,
139,138,138,138,138,138,138,138,138,138,138,138,138,138,138,138,138,138,138,138,
139,138,138,138,138,138,138,138,138,138,138,138,138,138,138,138,138,138,138,138,
139,138,138,138,138,138,138,138,138,138,138,138,138,138,138,138,138,138,138,138,
139,138,138,138,138,138,138,138,138,138,138,138,138,138,138,138,138,138,138,138,
139,138,138,138,138,138,138,138,138,138,138,138,138,138,138,138,138,138,138,138,
139,138,138,138,138,138,138,138,138,138,138,138,138,138,138,138,138,138,138,138,
139,138,138,138,138,138,138,138,138,138,138,138,138,138,138,138,138,138,138,138,
139,138,138,138,138,138,138,138,138,138,138,138,138,138,138,138,138,138,138,138,
139,138,138,138,138,138,138,138,138,138,138,138,138,138,138,138,138,138,138,138,
139,138,138,138,138,138,138,138,138,138,138,138,138,138,138,138,138,138,138,138,
139,138,138,138,138,138,138,138,138,138,138,138,138,138,138,138,138,138,138,138,
139,138,138,138,138,138,138,138,138,138,138,138,138,138,138,138,138,138,138,138,
139,138,138,138,138,138,138,138,138,138,138,138,138,138,138,138,138,138,138,138,
139,138,138,138,138,138,138,138,138,138,138,138,138,138,138,138,138,138,138,138
</data>
 </layer>
 <layer id="4" name="Tile Layer 4" width="20" height="15">
  <data encoding="csv">
0,0,0,0,0,0,0,0,0,0,0,0,0,0,0,0,0,0,0,0,
0,0,0,0,0,0,0,0,0,0,0,0,0,0,0,0,0,0,0,0,
0,0,0,0,105,106,106,106,106,106,106,106,106,106,106,106,107,0,0,0,
0,0,0,0,113,1,1,1,1,1,1,1,1,1,1,1,115,0,0,0,
0,0,0,0,113,1,1,1,1,1,1,1,1,1,1,1,115,0,0,0,
0,0,0,0,113,1,1,1,1,1,1,1,1,1,1,1,115,0,0,0,
0,0,0,0,113,1,1,1,1,1,1,1,1,1,1,1,115,0,0,0,
0,0,0,0,113,1,1,1,1,1,1,1,1,1,1,1,115,0,0,0,
0,0,0,0,113,1,1,1,1,1,1,1,1,1,1,1,115,0,0,0,
0,0,0,0,113,1,1,1,1,1,1,1,1,1,1,1,115,0,0,0,
0,0,0,0,113,1,1,1,1,1,1,1,1,1,1,1,115,0,0,0,
0,0,0,0,121,122,122,122,122,122,122,122,122,122,122,122,123,0,0,0,
0,0,0,0,0,0,0,0,0,0,0,0,0,0,0,0,0,0,0,0,
0,0,0,0,0,0,0,0,0,0,0,0,0,0,0,0,0,0,0,0,
0,0,0,0,0,0,0,0,0,0,0,0,0,0,0,0,0,0,0,0
</data>
 </layer>
 <layer id="5" width="20" height="15">
  <data encoding="csv">
0,0,0,0,0,0,0,0,0,0,0,0,0,0,0,0,0,0,0,0,
0,0,0,0,0,0,0,0,0,112,0,0,0,0,0,0,0,142,143,0,
0,0,0,0,0,76,77,0,0,0,0,0,0,0,76,77,0,150,151,0,
0,0,0,0,0,84,85,0,0,0,0,0,0,0,84,85,0,0,0,0,
0,112,0,0,0,92,93,0,0,0,0,0,0,0,92,93,0,0,112,0,
0,0,0,0,0,0,0,0,0,73,74,75,0,0,0,0,0,0,0,0,
0,0,0,0,0,0,0,0,0,81,82,83,0,0,0,0,0,0,0,0,
0,0,112,0,0,0,0,0,0,89,90,91,0,0,0,0,0,0,0,0,
0,0,0,0,0,76,77,0,0,0,0,0,0,0,76,77,0,0,0,112,
0,0,0,0,0,84,85,0,0,0,0,0,0,0,84,85,0,0,0,0,
0,0,0,0,0,92,93,0,0,0,0,0,0,0,92,93,0,0,0,0,
0,0,142,143,0,0,0,0,0,0,0,0,0,0,0,0,0,0,0,0,
0,0,150,151,0,0,0,0,0,0,0,0,0,112,0,0,0,142,143,0,
0,0,0,0,0,0,0,0,0,0,0,0,0,0,0,0,0,150,151,0,
0,0,0,0,0,0,0,0,0,0,0,0,0,0,0,112,0,0,0,0
</data>
 </layer>
</map>
