<?xml version="1.0" encoding="UTF-8"?>
<map version="1.10" tiledversion="1.12.1" orientation="orthogonal" renderorder="left-up" width="20" height="15" tilewidth="32" tileheight="32" infinite="0" nextlayerid="5" nextobjectid="1">
 <tileset firstgid="1" source="../TILESET/Base1.tsx"/>
 <layer id="1" name="Tile Layer 1" width="20" height="15">
  <data encoding="csv">
1,1,1,1,1,1,1,1,1,1,1,1,1,1,1,1,1,1,1,1,
1,1,1,1,1,1,1,1,1,1,1,1,1,1,1,1,1,1,1,1,
1,1,1,1,1,1,1,1,1,1,1,1,1,1,1,1,1,1,1,1,
1,1,1,1,1,1,1,1,1,1,1,1,1,1,1,1,1,1,1,1,
1,1,1,1,1,1,1,1,1,1,1,1,1,1,1,1,1,1,1,1,
1,1,1,1,1,1,1,1,1,1,1,1,1,1,1,1,1,1,1,1,
1,1,1,1,1,1,1,1,1,1,1,1,1,1,1,1,1,1,1,1,
1,1,1,1,1,1,1,1,1,1,1,1,1,1,1,1,1,1,1,1,
1,1,1,1,1,1,1,1,1,1,1,1,1,1,1,1,1,1,1,1,
1,1,1,1,1,1,1,1,1,1,1,1,1,1,1,1,1,1,1,1,
1,1,1,1,1,1,1,1,1,1,1,1,1,1,1,1,1,1,1,1,
1,1,1,1,1,1,1,1,1,1,1,1,1,1,1,1,1,1,1,1,
1,1,1,1,1,1,1,1,1,1,1,1,1,1,1,1,1,1,1,1,
1,1,1,1,1,1,1,1,1,1,1,1,1,1,1,1,1,1,1,1,
1,1,1,1,1,1,1,1,1,1,1,1,1,1,1,1,1,1,1,1
</data>
 </layer>
 <layer id="2" name="Tile Layer 2" width="20" height="15">
  <data encoding="csv">
0,0,0,0,0,0,0,0,0,0,0,0,0,0,0,0,0,0,0,0,
0,0,0,0,0,6,6,6,7,7,7,7,7,7,7,7,7,7,0,0,
0,0,0,0,0,7,7,6,6,6,6,7,7,7,7,7,7,7,7,0,
0,0,0,0,0,7,7,7,7,7,6,6,6,6,6,6,6,7,7,0,
0,0,0,0,0,0,7,7,7,7,7,7,7,6,6,6,6,6,6,0,
0,0,0,0,0,0,0,0,0,0,0,0,0,0,0,0,0,0,0,0,
0,0,0,2,2,2,2,2,2,2,2,2,2,2,2,2,2,2,2,2,
0,0,0,0,0,0,0,0,0,0,0,0,0,0,0,0,0,0,0,1,
0,0,0,0,0,0,0,0,0,0,0,0,0,0,0,0,0,0,0,1,
0,0,0,0,0,0,0,0,0,0,0,0,0,0,0,0,0,0,0,1,
0,0,0,0,0,0,0,0,0,0,0,0,0,0,0,0,0,0,0,1,
0,0,0,0,0,0,0,0,0,0,0,0,0,0,0,0,0,0,0,1,
0,0,0,0,0,0,0,0,0,0,0,0,0,0,0,0,0,0,0,1,
0,0,0,0,0,0,0,0,0,0,0,0,0,0,0,0,0,0,0,1,
0,0,0,0,0,0,0,0,0,0,0,0,0,0,0,0,0,0,0,1
</data>
 </layer>
 <layer id="3" name="Tile Layer 3" width="20" height="15">
  <data encoding="csv">
138,138,139,94,94,94,94,94,94,94,94,94,94,94,94,94,94,94,94,94,
138,138,139,94,94,0,0,0,0,0,0,0,0,0,0,0,0,0,94,94,
138,138,139,94,94,0,0,0,0,0,0,0,0,0,0,0,0,0,0,94,
138,138,139,94,94,0,0,0,0,0,0,0,0,0,0,0,0,0,0,94,
138,138,139,94,94,94,0,0,0,0,0,0,0,0,0,0,0,0,0,94,
138,138,139,94,94,94,94,94,94,94,94,94,94,94,94,94,94,94,94,94,
145,146,147,112,0,0,0,0,0,0,0,0,0,0,0,0,0,0,112,0,
130,130,130,130,130,130,130,130,130,130,130,130,130,130,130,130,130,130,130,139,
138,138,138,138,138,138,138,138,138,138,138,138,138,138,138,138,138,138,138,139,
138,138,138,138,138,138,138,138,138,138,138,138,138,138,138,138,138,138,138,139,
138,138,138,138,138,138,138,138,138,138,138,138,138,138,138,138,138,138,138,139,
138,138,138,138,138,138,138,138,138,138,138,138,138,138,138,138,138,138,138,139,
138,138,138,138,138,138,138,138,138,138,138,138,138,138,138,138,138,138,138,139,
138,138,138,138,138,138,138,138,138,138,138,138,138,138,138,138,138,138,138,139,
138,138,138,138,138,138,138,138,138,138,138,138,138,138,138,138,138,138,138,139
</data>
 </layer>
 <layer id="4" name="Tile Layer 4" width="20" height="15">
  <data encoding="csv">
0,0,0,86,86,0,0,0,0,0,0,0,0,0,0,0,0,0,86,86,
0,0,0,86,86,0,0,0,0,0,0,0,0,0,0,0,0,0,0,86,
0,0,0,86,86,0,0,0,0,0,0,0,0,0,0,0,0,0,0,86,
142,143,0,86,86,86,0,0,0,0,0,0,0,0,0,0,0,0,0,86,
150,151,0,86,86,86,86,86,86,86,86,86,86,86,86,86,86,86,86,86,
0,0,0,0,0,0,0,0,0,0,0,0,0,0,0,0,0,0,0,0,
0,0,0,0,0,0,0,0,0,0,0,0,0,0,0,0,0,0,0,0,
142,143,0,0,0,0,0,129,130,131,0,0,0,0,0,0,0,142,143,0,
150,151,0,0,0,0,0,137,138,139,0,0,0,0,0,0,0,150,151,0,
0,0,0,0,0,0,0,145,146,147,0,0,0,0,0,0,0,0,0,0,
0,0,0,0,0,0,0,0,0,0,0,0,0,129,130,131,0,0,0,0,
0,0,0,0,0,0,0,0,0,0,0,0,0,137,138,139,0,0,0,0,
0,0,0,0,0,0,0,0,105,106,107,0,0,145,146,147,0,0,0,0,
142,143,0,0,0,0,0,0,113,1,115,0,0,0,0,0,0,142,143,0,
150,151,0,0,0,0,0,0,121,122,123,0,0,0,0,0,0,150,151,0
</data>
 </layer>
</map>
