<?xml version="1.0" encoding="UTF-8"?>
<map version="1.10" tiledversion="1.12.1" orientation="orthogonal" renderorder="left-up" width="20" height="15" tilewidth="32" tileheight="32" infinite="0" nextlayerid="5" nextobjectid="1">
 <tileset firstgid="1" source="../TILESET/Base1.tsx"/>
 <layer id="1" name="Tile Layer 1" width="20" height="15">
  <data encoding="csv">
1,1,1,1,1,1,1,1,1,1,1,1,1,1,1,1,1,1,1,1,
1,1,1,1,1,1,1,1,1,1,1,1,1,1,1,1,1,1,1,1,
1,1,1,1,1,1,1,1,1,1,1,1,1,1,1,1,1,1,1,1,
1,1,1,1,1,1,1,1,1,1,1,1,1,1,1,1,1,1,1,1,
1,1,1,1,1,1,1,1,1,1,1,1,1,1,1,1,1,1,1,1,
1,1,1,1,1,1,1,1,1,1,1,1,1,1,1,1,1,1,1,1,
1,1,1,1,1,1,1,1,1,1,1,1,1,1,1,1,1,1,1,1,
1,1,1,1,1,1,1,1,1,1,1,1,1,1,1,1,1,1,1,1,
1,1,1,1,1,1,1,1,1,1,1,1,1,1,1,1,1,1,1,1,
1,1,1,1,1,1,1,1,1,1,1,1,1,1,1,1,1,1,1,1,
1,1,1,1,1,1,1,1,1,1,1,1,1,1,1,1,1,1,1,1,
1,1,1,1,1,1,1,1,1,1,1,1,1,1,1,1,1,1,1,1,
1,1,1,1,1,1,1,1,1,1,1,1,1,1,1,1,1,1,1,1,
1,1,1,1,1,1,1,1,1,1,1,1,1,1,1,1,1,1,1,1,
1,1,1,1,1,1,1,1,1,1,1,1,1,1,1,1,1,1,1,1
</data>
 </layer>
 <layer id="2" name="Tile Layer 2" width="20" height="15">
  <data encoding="csv">
0,0,0,0,0,0,137,138,138,138,138,138,138,138,138,138,138,138,138,138,
0,0,0,0,0,0,137,138,138,138,138,138,138,138,138,138,138,138,138,138,
0,0,0,0,0,0,137,138,138,138,138,138,138,138,138,138,138,138,138,138,
0,5,13,5,5,0,137,138,138,138,138,138,138,138,138,138,138,138,138,138,
0,13,5,13,5,0,137,138,138,138,138,138,138,138,138,138,138,138,138,138,
0,5,13,5,13,0,137,138,138,138,138,138,138,138,138,138,138,138,138,138,
0,13,5,13,5,0,137,138,138,138,138,138,138,138,138,138,138,138,138,138,
0,5,13,5,13,0,137,138,138,138,138,138,138,138,138,138,138,138,138,138,
0,13,5,13,5,0,137,138,138,138,138,138,138,138,138,138,138,138,138,138,
0,5,13,5,13,0,137,138,138,138,138,138,138,138,138,138,138,138,138,138,
0,5,5,13,5,0,137,138,138,138,138,138,138,138,138,138,138,138,138,138,
0,5,5,5,13,0,137,138,138,138,138,138,138,138,138,138,138,138,138,138,
0,0,0,0,0,137,137,138,138,138,138,138,138,138,138,138,138,138,138,138,
0,0,0,0,0,137,137,138,138,138,138,138,138,138,138,138,138,138,138,138,
0,0,0,0,0,0,137,138,138,138,138,138,138,138,138,138,138,138,138,138
</data>
 </layer>
 <layer id="3" name="Tile Layer 3" width="20" height="15">
  <data encoding="csv">
102,102,102,102,102,102,0,0,0,0,0,0,0,0,0,0,0,0,0,0,
102,102,102,102,102,102,0,0,0,0,0,0,0,0,0,0,0,0,0,0,
102,94,94,94,94,102,0,0,0,0,0,0,0,0,0,0,0,0,0,0,
102,0,0,0,0,102,0,0,0,0,0,0,0,0,0,0,0,0,0,0,
102,0,0,0,0,102,0,0,0,0,0,0,0,0,0,0,0,0,0,0,
102,0,0,0,0,102,0,0,0,0,0,0,0,0,0,0,0,0,0,0,
102,0,0,0,0,102,0,0,0,0,0,0,0,0,0,0,0,0,0,0,
102,0,0,0,0,102,0,0,0,0,0,0,0,0,0,0,0,0,0,0,
102,0,0,0,0,102,0,0,0,0,0,0,0,0,0,0,0,0,0,0,
102,0,0,0,0,102,0,0,0,0,0,0,0,0,0,0,0,0,0,0,
102,0,0,0,0,102,0,0,0,0,0,0,0,0,0,0,0,0,0,0,
102,0,0,0,0,102,0,0,0,0,0,0,0,0,0,0,0,0,0,0,
102,94,94,94,94,102,0,0,0,0,0,0,0,0,0,0,0,0,0,0,
102,102,102,102,102,102,0,0,0,0,0,0,0,0,0,0,0,0,0,0,
102,102,102,102,102,102,0,0,0,0,0,0,0,0,0,0,0,0,0,0
</data>
 </layer>
 <layer id="4" name="Tile Layer 4" width="20" height="15">
  <data encoding="csv">
86,86,86,86,86,86,0,0,0,0,0,0,0,0,0,0,0,0,0,0,
86,86,86,86,86,86,0,0,0,0,0,0,0,0,0,0,0,0,0,0,
86,0,0,0,0,86,0,0,0,0,0,0,0,0,0,0,0,0,0,0,
86,0,0,0,0,86,0,0,0,0,0,0,0,0,0,0,0,0,0,0,
86,0,0,0,0,86,0,0,0,0,0,0,0,0,0,0,0,0,0,0,
86,0,0,0,0,86,0,0,0,0,0,0,0,0,0,0,0,0,0,0,
86,0,0,0,0,86,0,0,0,0,0,0,0,0,0,0,0,0,0,0,
86,0,0,0,0,86,0,0,0,0,0,0,0,0,0,0,0,0,0,0,
86,0,0,0,0,86,0,0,0,0,0,0,0,0,0,0,0,0,0,0,
86,0,0,0,0,86,0,0,0,0,0,0,0,0,0,0,0,0,0,0,
86,0,0,0,0,86,0,0,0,0,0,0,0,0,0,0,0,0,0,0,
86,86,86,86,86,86,0,0,0,0,0,0,0,0,0,0,0,0,0,0,
86,86,86,86,86,86,0,0,0,0,0,0,0,0,0,0,0,0,0,0,
86,86,86,86,86,86,0,0,0,0,0,0,0,0,0,0,0,0,0,0,
0,0,0,0,0,0,0,0,0,0,0,0,0,0,0,0,0,0,0,0
</data>
 </layer>
</map>
