<?xml version="1.0" encoding="UTF-8"?>
<map version="1.10" tiledversion="1.12.1" orientation="orthogonal" renderorder="left-up" width="20" height="15" tilewidth="32" tileheight="32" infinite="0" nextlayerid="5" nextobjectid="1">
 <tileset firstgid="1" source="../TILESET/Base1.tsx"/>
 <tileset firstgid="273" source="../TILESET/biome2.tsx"/>
 <layer id="1" name="Tile Layer 1" width="20" height="15">
  <data encoding="csv">
39,39,39,39,39,39,39,39,39,39,39,39,39,39,39,39,39,39,39,39,
39,39,39,39,39,39,39,39,39,39,39,39,39,39,39,39,39,39,39,39,
39,39,39,39,39,39,39,39,39,39,39,39,39,39,39,39,39,39,39,39,
39,39,39,39,39,39,39,39,39,39,39,39,39,39,39,39,39,39,39,39,
39,39,39,39,39,39,39,39,39,39,39,39,39,39,39,39,39,39,39,39,
39,39,39,39,39,39,39,39,39,39,39,39,39,39,39,39,40,1,1,1,
39,39,39,39,39,39,39,39,39,39,39,39,39,39,39,39,40,1,1,1,
39,39,39,39,39,39,39,39,39,39,39,39,39,39,39,39,40,1,1,1,
39,39,39,39,39,39,39,39,39,39,39,39,39,39,39,39,40,1,1,1,
39,39,39,39,39,39,39,39,39,39,39,39,39,39,39,39,40,1,1,1,
39,39,39,39,39,39,39,39,39,39,39,39,39,39,39,39,40,1,1,1,
39,39,39,39,39,39,39,39,39,39,39,39,39,39,39,39,40,1,1,1,
39,39,39,39,39,39,39,39,39,39,39,39,39,39,39,39,52,31,31,31,
39,39,39,39,39,39,39,39,39,39,39,39,39,39,39,39,39,39,39,39,
39,39,39,39,39,39,39,39,39,39,39,39,39,39,39,39,39,39,39,39
</data>
 </layer>
 <layer id="2" name="Tile Layer 2" width="20" height="15">
  <data encoding="csv">
58,58,58,58,58,58,58,58,58,58,58,58,58,58,57,0,0,0,0,0,
58,58,58,58,58,58,58,58,58,58,58,58,58,58,57,0,0,0,0,0,
58,58,58,58,58,58,58,58,58,58,58,58,58,58,57,0,0,0,0,0,
58,58,58,58,58,58,58,58,58,58,58,58,58,58,57,0,0,0,0,0,
58,58,58,58,58,58,58,58,58,58,58,58,58,58,57,0,0,0,0,0,
58,58,58,58,58,58,58,58,58,58,58,58,58,58,57,0,0,0,0,0,
58,58,58,58,58,58,58,58,58,58,58,58,58,58,57,0,0,0,0,0,
58,58,58,58,58,58,58,58,58,58,58,58,58,58,57,0,0,0,0,0,
58,58,58,58,58,58,58,58,58,58,58,49,50,50,69,0,0,0,0,0,
58,58,58,58,58,58,58,58,58,58,58,57,0,0,0,0,0,0,0,0,
58,58,58,58,58,58,58,58,58,58,58,57,0,0,0,0,0,0,0,0,
58,58,58,58,58,58,58,58,58,58,58,57,0,0,0,0,0,0,0,0,
58,58,58,58,58,58,58,58,58,58,58,57,0,0,0,0,0,0,0,0,
58,58,58,58,58,58,58,58,58,58,58,57,0,0,0,0,0,0,0,0,
58,58,58,58,58,58,58,58,58,58,58,65,66,66,66,66,66,61,0,0
</data>
 </layer>
 <layer id="3" name="Tile Layer 3" width="20" height="15">
  <data encoding="csv">
0,0,0,0,0,0,0,0,0,0,0,0,0,0,0,0,137,138,138,138,
0,0,0,0,0,0,0,0,0,0,0,0,0,0,0,0,137,138,138,138,
0,0,0,0,0,0,0,0,0,0,0,0,0,0,0,0,137,138,138,138,
0,0,0,0,0,0,0,0,0,0,0,0,0,0,0,0,137,138,138,138,
0,0,0,0,0,0,0,0,0,0,0,0,0,0,0,0,145,146,146,146,
0,0,0,0,0,0,0,0,0,0,0,0,0,0,0,0,0,94,0,0,
0,0,0,0,0,0,0,0,0,0,0,0,0,0,0,0,0,94,0,0,
0,0,0,0,0,0,0,3475,0,0,0,0,0,0,0,0,0,94,0,0,
0,0,0,0,0,0,0,0,0,0,0,0,0,0,0,0,0,94,0,0,
0,0,0,0,0,0,0,0,0,0,0,0,0,0,0,0,0,94,0,0,
0,0,0,0,0,0,0,0,0,0,0,0,0,0,0,0,0,94,0,0,
0,0,0,0,0,3557,3558,0,0,0,0,0,468,469,470,471,0,94,94,94,
0,0,0,0,0,3643,3644,0,0,0,0,0,554,555,556,557,0,0,0,0,
0,0,0,0,0,0,0,0,0,0,0,0,3827,0,0,0,0,0,0,0,
0,0,0,0,0,0,0,0,0,0,0,0,0,0,0,0,0,0,0,0
</data>
 </layer>
 <layer id="4" name="Tile Layer 4" width="20" height="15">
  <data encoding="csv">
0,0,0,0,0,0,0,0,0,0,0,0,0,0,0,0,0,0,0,0,
0,0,0,0,0,0,0,0,0,0,0,0,0,0,0,0,0,0,0,0,
0,0,0,0,0,0,0,0,0,0,0,0,0,0,0,0,0,0,0,0,
0,0,0,0,0,0,0,0,0,0,0,0,0,0,0,0,0,0,0,0,
0,0,0,0,0,0,0,0,0,0,0,0,0,0,0,0,0,86,0,0,
0,0,0,0,0,0,0,0,0,0,0,0,0,0,0,0,0,86,0,0,
0,0,0,0,0,0,0,0,0,0,0,0,0,0,0,0,0,86,0,0,
0,0,0,0,0,0,0,0,0,0,0,0,0,0,0,0,0,86,0,0,
0,0,0,0,0,0,0,0,0,0,0,0,0,0,0,0,0,86,0,0,
0,0,0,0,0,0,0,0,0,0,0,0,296,297,298,299,0,86,0,0,
0,0,0,0,0,0,0,0,0,0,0,0,382,383,384,385,0,86,86,86,
0,0,0,0,0,0,0,0,0,0,0,0,0,0,0,0,0,0,0,0,
0,0,0,0,0,0,0,0,0,0,0,0,0,0,0,0,0,0,0,0,
0,0,0,0,0,0,0,0,0,0,0,0,0,0,0,0,0,0,0,0,
0,0,0,0,0,0,0,0,0,0,0,0,0,0,0,0,0,0,0,0
</data>
 </layer>
</map>
