<?xml version="1.0" encoding="UTF-8"?>
<map version="1.10" tiledversion="1.12.1" orientation="orthogonal" renderorder="left-up" width="20" height="15" tilewidth="32" tileheight="32" infinite="0" nextlayerid="6" nextobjectid="2">
 <tileset firstgid="1" source="../TILESET/biomes.tsx"/>
 <tileset firstgid="3901" source="../TILESET/Base1.tsx"/>
 <tileset firstgid="4173" source="../TILESET/PC_GYM2.tsx"/>
 <tileset firstgid="5709" source="../TILESET/biome2.tsx"/>
 <layer id="1" name="Tile Layer 1" width="20" height="15">
  <data encoding="csv">
3901,3901,3901,3901,3901,3901,3901,3901,3901,3901,3901,3901,3901,3901,3901,3901,3901,3901,3901,3901,
3901,3901,3901,3901,3901,3901,3901,3901,3901,3901,3901,3901,3901,3901,3901,3901,3901,3901,3901,3901,
3901,3901,3901,3901,3901,3901,3901,3901,3901,3901,3901,3901,3901,3901,3901,3901,3901,3901,3901,3901,
3939,3939,3939,3939,3939,3939,3939,3939,3939,2878,2878,2878,2878,2878,2878,2878,2878,2878,2878,2878,
3939,3939,3939,3939,3939,3939,3939,3939,3939,2878,2878,2878,2878,2878,2878,2878,2878,2878,2878,2878,
3939,3939,3939,3939,3939,3939,3939,3939,3939,2878,2878,2878,2878,2878,2878,2878,2878,2878,2878,2878,
2878,2878,2878,2878,2878,2878,2878,2878,2878,2878,2878,2878,2878,2878,2878,2878,2878,2878,2878,2878,
2878,2878,2878,2878,2878,2878,2878,2878,2878,2878,2878,2878,2878,2878,2878,2878,2878,2878,2878,2878,
2878,2878,2878,2878,2878,2878,2878,2878,2878,2878,2878,2878,2878,2878,2878,2878,2878,2878,2878,2878,
2878,2878,2878,2878,2878,2878,2878,2878,2878,2878,2878,2878,2878,2878,2878,2878,2878,2878,2878,2878,
2878,2878,2878,2878,2878,2878,2878,2878,2878,2878,2878,2878,2878,2878,2878,2878,2878,2878,2878,2878,
2878,2878,2878,2878,2878,2878,2878,2878,2878,2878,2878,2878,2878,2878,2878,2878,2878,2878,2878,2878,
2878,2878,2878,2878,2878,2878,2878,2878,2878,2878,2878,2878,2878,2878,2878,2878,2878,2878,2878,2878,
2878,2878,2878,2878,2878,2878,2878,2878,2878,2878,2878,2878,2878,2878,2878,2878,2878,2878,2878,2878,
3939,3939,3939,3939,3939,3939,3939,3939,3939,3939,3939,3939,3939,3939,3939,3939,3939,3939,3939,3939
</data>
 </layer>
 <layer id="2" name="Tile Layer 2" width="20" height="15">
  <data encoding="csv">
0,0,0,0,0,0,0,0,0,0,0,0,0,0,0,0,0,0,0,0,
0,0,0,0,0,0,0,0,0,0,0,0,0,0,0,0,0,0,0,0,
0,0,0,0,0,0,0,0,0,0,0,0,0,0,0,0,0,0,0,0,
0,0,0,0,0,0,0,0,0,0,0,0,0,0,0,0,0,0,0,0,
0,0,0,0,0,0,0,0,0,0,0,0,0,0,0,0,0,0,0,0,
0,0,0,0,0,0,0,0,0,0,0,0,0,0,0,0,0,0,0,0,
0,0,0,0,0,0,0,0,0,0,0,0,0,0,0,0,0,0,0,0,
0,0,0,0,0,0,0,0,0,0,0,0,0,0,0,0,0,0,0,0,
0,0,0,0,0,0,0,0,0,0,0,9687,9688,9689,0,0,0,0,0,0,
0,0,0,0,0,0,0,0,0,0,0,9773,9774,9775,0,0,0,0,0,0,
0,0,0,0,0,0,0,0,0,0,0,9859,9860,9861,0,0,0,0,0,0,
0,0,0,0,0,0,0,0,0,0,0,0,0,0,0,0,0,0,0,0,
0,0,0,0,0,0,0,0,0,0,0,0,0,0,0,0,0,0,0,0,
0,0,0,0,0,0,0,0,0,0,0,0,0,0,0,0,0,0,0,0,
0,0,0,0,0,0,0,0,0,0,0,0,0,0,0,0,0,0,0,0
</data>
 </layer>
 <layer id="3" name="Tile Layer 3" width="20" height="15">
  <data encoding="csv">
3994,3994,3994,3994,3994,3994,3994,3994,3994,3994,3994,3994,3994,3994,3994,3994,3994,3994,3994,3994,
3994,3994,3994,3994,3994,3994,3994,3994,3994,3994,3994,3994,3994,3994,3994,3994,3994,3994,3994,3994,
3994,3994,3994,3994,3994,3994,3994,3994,3994,3994,3994,3994,3994,3994,3994,3994,3994,3994,3994,3994,
5305,5306,0,0,5303,5304,0,9349,9350,0,0,0,0,0,0,0,0,0,0,5481,
5313,5314,0,0,5311,5312,0,9435,9436,0,0,4925,4926,4927,4928,4929,4930,4931,4932,5465,
0,0,0,0,0,0,0,0,0,0,0,4933,4934,4935,4936,4937,4938,4939,4940,5473,
0,0,0,0,0,0,0,0,0,0,0,4941,4942,4943,4944,4945,4946,4947,4948,5481,
0,0,0,0,0,0,0,0,0,0,0,4949,4950,4951,4952,4953,4954,4955,4956,5481,
0,0,0,0,0,0,0,0,0,0,0,4957,4958,4959,4960,4961,4962,4963,4964,5465,
0,0,0,0,0,0,0,0,0,0,0,4965,4966,4967,4968,4969,4970,4971,4972,5473,
0,0,0,0,0,0,0,0,0,0,0,0,0,0,0,0,0,0,0,5481,
0,0,0,0,0,0,0,0,0,0,0,0,0,0,0,0,0,0,0,5465,
0,0,0,0,0,0,0,0,0,0,0,0,0,0,0,0,0,0,0,5473,
0,0,0,0,0,0,0,0,0,0,0,0,0,0,0,0,0,0,0,5481,
0,0,0,0,0,0,0,0,0,0,0,0,0,0,0,0,0,0,9263,5481
</data>
 </layer>
 <layer id="4" name="Tile Layer 4" width="20" height="15">
  <data encoding="csv">
3986,3986,3986,3986,3986,3986,3986,3986,3986,3986,3986,3986,3986,3986,3986,3986,3986,3986,3986,3986,
3986,3986,3986,3986,3986,3986,3986,3986,3986,3986,3986,3986,3986,3986,3986,3986,3986,3986,3986,3986,
0,0,0,0,0,0,0,0,0,0,0,4909,4910,4911,4912,4913,4914,4915,4916,0,
0,0,0,0,0,0,0,0,0,0,0,4917,4918,4919,4920,4921,4922,4923,4924,0,
0,0,0,0,0,0,0,0,0,0,0,0,0,0,0,0,0,0,0,0,
0,0,0,0,0,0,0,0,0,0,0,0,0,0,0,0,0,0,0,0,
0,0,0,0,0,0,0,0,0,0,0,0,0,0,0,0,0,0,0,0,
0,0,0,0,0,0,0,0,0,0,0,0,0,0,0,0,0,0,0,0,
0,0,0,0,0,0,0,0,0,0,0,0,0,0,0,0,0,0,0,0,
0,0,0,0,0,0,0,0,0,0,0,0,0,0,0,0,0,0,0,0,
0,0,0,0,0,0,0,0,0,0,0,0,0,0,0,0,0,0,0,0,
0,0,0,0,0,0,0,0,0,0,0,0,0,0,0,0,0,0,0,0,
0,0,0,0,0,0,0,0,0,0,0,0,0,0,0,0,0,0,0,0,
0,0,0,0,0,0,0,0,0,0,0,0,0,0,0,0,0,0,0,0,
0,0,0,0,0,0,0,0,0,0,0,0,0,0,0,0,0,0,0,0
</data>
 </layer>
 <objectgroup id="5" name="Object Layer 1">
  <object id="1" x="480.171" y="258.334" width="31.3651" height="25.6624">
   <properties>
    <property name="entrance_id" value="gym3"/>
   </properties>
  </object>
 </objectgroup>
</map>
