<?xml version="1.0" encoding="UTF-8"?>
<map version="1.10" tiledversion="1.12.1" orientation="orthogonal" renderorder="left-up" width="20" height="15" tilewidth="32" tileheight="32" infinite="0" nextlayerid="5" nextobjectid="1">
 <tileset firstgid="1" source="../TILESET/biomes.tsx"/>
 <tileset firstgid="3901" source="../TILESET/Base1.tsx"/>
 <tileset firstgid="4173" source="../TILESET/biome2.tsx"/>
 <tileset firstgid="10279" source="../TILESET/PC_GYM2.tsx"/>
 <layer id="1" name="Tile Layer 1" width="20" height="15">
  <data encoding="csv">
3939,3939,3939,3939,3939,0,2878,2878,2878,2878,2878,2878,2878,2878,2878,2878,2878,2878,2878,2878,
3939,3939,3939,3939,3939,0,2878,2878,2878,2878,2878,2878,2878,2878,2878,2878,2878,2878,2878,2878,
3939,3939,3939,3939,3939,0,2878,2878,2878,2878,2878,2878,2878,2878,2878,2878,2878,2878,2878,2878,
3939,3939,3939,3939,3939,0,2878,2878,2878,2878,2878,2878,2878,2878,2878,2878,2878,2878,2878,2878,
3939,3939,3939,3939,3939,0,2878,2878,2878,2878,2878,2878,2878,2878,2878,2878,2878,2878,2878,2878,
3939,3939,3939,3939,3939,0,2878,2878,2878,2878,2878,2878,2878,2878,2878,2878,2878,2878,2878,2878,
3939,3939,3939,3939,3939,0,2878,2878,2878,2878,2878,2878,2878,2878,2878,2878,2878,2878,2878,2878,
3939,3939,3939,3939,3939,0,2878,2878,2878,2878,2878,2878,2878,2878,2878,2878,2878,2878,2878,2878,
3939,3939,3939,3939,3939,0,2878,2878,2878,2878,2878,2878,2878,2878,2878,2878,2878,2878,2878,2878,
3939,3939,3939,3939,3939,0,2878,2878,2878,2878,2878,2878,2878,2878,2878,2878,2878,2878,2878,2878,
3939,3939,3939,3939,3939,0,2878,2878,2878,2878,2878,2878,2878,2878,2878,2878,2878,2878,2878,2878,
3939,3939,3939,3939,3939,0,2878,2878,2878,2878,2878,2878,2878,2878,2878,2878,2878,2878,2878,2878,
3939,3939,3939,3939,3939,0,2878,2878,2878,2878,2878,2878,2878,2878,2878,2878,2878,2878,2878,2878,
3939,3939,3939,3939,3939,0,2878,2878,2878,2878,2878,2878,2878,2878,2878,2878,2878,2878,2878,2878,
3939,3939,3939,3939,3939,0,2878,2878,2878,2878,2878,2878,2878,2878,2878,2878,2878,2878,2878,2878
</data>
 </layer>
 <layer id="2" name="Tile Layer 2" width="20" height="15">
  <data encoding="csv">
0,0,0,4865,2878,2878,2878,2878,2878,2878,2878,2878,2878,2878,2878,2878,2878,3939,3939,3939,
0,0,0,4865,2878,2878,2878,2878,2878,2878,2878,2878,2878,2878,2878,2878,2878,3934,3939,3939,
0,0,0,4865,2878,2878,2878,2878,2878,2878,2878,2878,2878,2878,2878,2878,2878,3934,3939,3939,
0,0,0,4865,2878,2878,2878,2878,2878,2878,2878,2878,2878,2878,2878,2878,2878,3939,3939,3939,
0,0,0,4865,2878,2878,2878,2878,2878,2878,2878,2878,2878,2878,2878,2878,2878,3939,3939,3939,
0,0,0,4865,2878,2878,2878,2878,2878,2878,2878,2878,2878,2878,2878,2878,2878,3939,3939,3939,
0,0,0,4865,2878,2878,2878,2878,2878,2878,2878,2878,2878,2878,2878,2878,2878,3939,3939,3939,
0,0,0,4865,2878,2878,2878,2878,2878,2878,2878,2878,2878,2878,2878,2878,2878,3939,3939,3939,
0,0,0,4865,2878,2878,2878,2878,2878,2878,2878,2878,2878,2878,2878,2878,2878,3939,3939,3939,
0,0,0,4865,2878,2878,2878,2878,2878,2878,2878,2878,2878,2878,2878,2878,2878,3939,3939,3939,
0,0,0,4865,2878,2878,2878,2878,2878,2878,2878,2878,2878,2878,2878,2878,2878,3939,3939,3939,
0,0,0,4865,2878,2878,2878,2878,2878,2878,2878,2878,2878,2878,2878,2878,2878,3939,3939,3939,
0,0,0,4865,2878,2878,2878,2878,2878,2878,2878,2878,2878,2878,2878,2878,2878,3939,3939,3939,
0,0,0,4865,2878,2878,2878,2878,2878,2878,2878,2878,2878,2878,2878,2878,2878,3939,3939,3939,
0,0,0,4865,2878,2878,2878,2878,2878,2878,2878,2878,2878,2878,2878,2878,2878,3939,3939,3939
</data>
 </layer>
 <layer id="3" name="Tile Layer 3" width="20" height="15">
  <data encoding="csv">
11409,11410,0,0,0,0,0,0,0,0,0,0,0,0,0,0,0,0,0,0,
11417,11418,0,0,0,0,0,0,0,0,0,0,0,0,0,0,0,0,0,0,
11387,11388,0,0,10398,0,0,0,0,0,0,0,0,0,0,0,4368,4369,4370,4371,
11395,11396,0,0,10406,0,0,0,0,0,0,0,0,0,0,0,4454,4455,4456,4457,
11411,11412,0,0,0,0,0,0,0,0,0,0,0,0,0,0,0,0,0,0,
11419,11420,0,0,0,0,0,0,0,0,0,0,0,0,0,0,0,0,0,0,
0,0,0,0,0,0,0,0,0,0,0,0,0,0,0,0,4368,4369,4370,4371,
0,0,0,0,10398,0,0,0,0,0,0,0,0,0,0,0,4454,4455,4456,4457,
11409,11410,0,0,10406,0,0,0,0,0,0,0,0,0,0,0,0,0,0,0,
11417,11418,0,0,0,0,0,0,0,0,0,0,0,0,0,0,0,0,0,0,
11387,11388,0,0,0,0,0,0,0,0,0,0,0,0,0,0,4368,4369,4370,4371,
11395,11396,0,0,0,0,0,0,0,0,0,0,0,0,0,0,4454,4455,4456,4457,
11411,11412,0,0,10398,0,0,0,0,0,0,0,0,0,0,0,0,0,0,0,
11419,11420,0,0,10406,0,0,0,0,0,0,0,0,0,0,0,4196,4197,4198,4199,
0,0,0,0,0,0,0,0,0,0,0,0,0,0,0,0,4282,4283,4284,4285
</data>
 </layer>
 <layer id="4" name="Tile Layer 4" width="20" height="15">
  <data encoding="csv">
0,0,0,0,10382,0,0,0,0,0,0,0,0,0,0,0,4196,4197,4198,4199,
0,0,0,0,10390,0,0,0,0,0,0,0,0,0,0,0,4282,4283,4284,4285,
0,0,0,0,0,0,0,0,0,0,0,0,0,0,0,0,0,0,0,0,
0,0,0,0,0,0,0,0,0,0,0,0,0,0,0,0,0,0,0,0,
0,0,0,0,0,0,0,0,0,0,0,0,0,0,0,0,4196,4197,4198,4199,
0,0,0,0,10382,0,0,0,0,0,0,0,0,0,0,0,4282,4283,4284,4285,
0,0,0,0,10390,0,0,0,0,0,0,0,0,0,0,0,0,0,0,0,
0,0,0,0,0,0,0,0,0,0,0,0,0,0,0,0,0,0,0,0,
0,0,0,0,0,0,0,0,0,0,0,0,0,0,0,0,4196,4197,4198,4199,
0,0,0,0,0,0,0,0,0,0,0,0,0,0,0,0,4282,4283,4284,4285,
0,0,0,0,10382,0,0,0,0,0,0,0,0,0,0,0,0,0,0,0,
0,0,0,0,10390,0,0,0,0,0,0,0,0,0,0,0,0,0,0,0,
0,0,0,0,0,0,0,0,0,0,0,0,0,0,0,0,0,0,0,0,
0,0,0,0,0,0,0,0,0,0,0,0,0,0,0,0,0,0,0,0,
0,0,0,0,0,0,0,0,0,0,0,0,0,0,0,0,0,0,0,0
</data>
 </layer>
</map>
