<?xml version="1.0" encoding="UTF-8"?>
<map version="1.10" tiledversion="1.12.1" orientation="orthogonal" renderorder="left-up" width="20" height="15" tilewidth="32" tileheight="32" infinite="0" nextlayerid="5" nextobjectid="1">
 <tileset firstgid="1" source="../TILESET/biomes.tsx"/>
 <tileset firstgid="3901" source="../TILESET/Base1.tsx"/>
 <tileset firstgid="4173" source="../TILESET/PC_GYM2.tsx"/>
 <tileset firstgid="5709" source="../TILESET/biome2.tsx"/>
 <layer id="1" name="Tile Layer 1" width="20" height="15">
  <data encoding="csv">
3901,3901,3901,3901,3901,3901,3901,3901,3901,3901,3901,3901,3901,3901,3901,3901,3901,3901,3901,3901,
3901,3901,3901,3901,3901,3901,3901,3901,3901,3901,3901,3901,3901,3901,3901,3901,3901,3901,3901,3901,
3901,3901,3901,3901,3901,3901,3901,3901,3901,3901,3901,3901,3901,3901,3901,3901,3901,3901,3901,3901,
3939,3939,3939,3939,3939,3939,3939,3939,3939,3939,3939,3939,3939,3939,3939,3939,3939,3939,3939,3939,
3939,3939,3939,3939,3939,3939,3939,3939,3939,3939,3939,3939,3939,3939,3939,3939,3939,3939,3939,3939,
3939,3939,3939,3939,3939,3939,3939,3939,3939,3939,3939,3939,3939,3939,3939,3939,3939,3939,3939,3939,
2878,2878,2878,2878,2878,2878,2878,2878,2878,2878,2878,2878,2878,2878,2878,2878,2878,2878,2878,2878,
2878,2878,2878,2878,2878,2878,2878,2878,2878,2878,2878,2878,2878,2878,2878,2878,2878,2878,2878,2878,
2878,2878,2878,2878,2878,2878,2878,2878,2878,2878,2878,2878,2878,2878,2878,2878,2878,2878,2878,2878,
3939,3939,3939,3939,3939,3939,3939,3939,3939,3939,3939,2878,2878,2878,2878,2878,2878,2878,2878,2878,
3939,3939,3939,3939,3939,3939,3939,3939,3939,3939,3939,2878,2878,2878,2878,2878,2878,2878,2878,2878,
3939,3939,3939,3939,3939,3939,3939,3939,3939,3939,3939,2878,2878,2878,2878,2878,2878,2878,2878,2878,
3939,3939,3939,3939,3939,3939,3939,3939,3939,3939,3939,2878,2878,2878,2878,2878,2878,2878,2878,2878,
3939,3939,3939,3939,3939,3939,3939,3939,3939,3939,3939,2878,2878,2878,2878,2878,2878,2878,2878,2878,
3939,3939,3939,3939,3939,3939,3939,3939,3939,3939,3939,3939,3939,3939,3939,3939,3939,3939,3939,3939
</data>
 </layer>
 <layer id="2" name="Tile Layer 2" width="20" height="15">
  <data encoding="csv">
0,0,0,0,0,0,0,0,0,0,0,0,0,0,0,0,0,0,0,0,
0,0,0,0,0,0,0,0,0,0,0,0,0,0,0,0,0,0,0,0,
0,0,0,0,0,0,0,0,0,0,0,0,0,0,0,0,0,0,0,0,
0,0,0,0,0,0,0,0,0,0,0,0,0,0,0,0,0,0,0,0,
0,0,0,0,0,0,0,0,0,0,0,0,0,0,0,0,0,0,0,0,
0,0,0,0,0,0,0,0,0,0,0,0,0,0,0,0,0,0,0,0,
0,0,0,0,0,0,0,0,0,0,0,0,0,0,0,0,0,0,0,0,
0,0,0,0,0,0,0,0,0,0,0,0,0,0,0,0,0,0,0,0,
0,0,0,0,0,0,0,0,0,0,0,0,0,0,0,0,0,0,0,0,
0,0,0,0,0,0,0,0,0,0,0,0,0,0,0,0,0,0,0,0,
0,0,0,0,0,0,9349,9350,0,0,0,0,0,0,0,0,0,0,0,0,
0,0,0,0,0,0,9435,9436,0,0,0,0,0,0,0,0,0,0,0,0,
0,0,0,0,0,0,0,0,0,0,0,0,0,0,0,0,0,0,0,0,
0,0,0,0,9264,0,0,0,0,0,0,0,0,0,0,0,0,0,0,0,
0,0,0,0,0,0,0,0,0,0,0,0,0,0,0,0,0,0,0,0
</data>
 </layer>
 <layer id="3" name="Tile Layer 3" width="20" height="15">
  <data encoding="csv">
3994,3994,3994,3994,3994,3994,3994,3994,3994,3994,3994,3994,3994,3994,3994,3994,3994,3994,3994,3994,
3994,3994,3994,3994,3994,3994,3994,3994,3994,3994,3994,3994,3994,3994,3994,3994,3994,3994,3994,3994,
3994,3994,3994,3994,3994,3994,3994,3994,3994,3994,3994,3994,3994,3994,3994,3994,3994,3994,3994,3994,
5303,5304,0,0,5305,5306,0,0,5303,5304,0,0,5305,5306,0,0,5303,5304,0,0,
5311,5312,0,0,5313,5314,0,0,5311,5312,0,0,5313,5314,0,0,5311,5312,0,0,
0,0,0,0,0,0,0,0,0,0,0,0,0,0,0,0,0,0,0,0,
0,0,0,0,0,0,0,0,0,0,0,0,0,0,0,0,0,0,0,0,
0,0,0,0,0,0,0,0,0,0,0,0,0,0,0,0,0,0,0,0,
0,0,0,0,0,0,0,0,0,0,0,0,0,0,0,0,0,0,0,0,
5904,5905,5906,5907,0,0,0,0,5904,5905,5906,5907,0,4509,4510,4511,4512,4513,4514,4515,
5990,5991,5992,5993,5303,5304,0,0,5990,5991,5992,5993,0,4517,4518,4519,4520,4521,4522,4523,
0,0,0,0,5311,5312,0,0,0,0,0,0,0,4525,4526,4527,4528,4529,4530,4531,
0,0,0,0,0,0,0,0,0,0,0,0,0,4533,4534,4535,4536,4537,4538,4539,
5904,5905,5906,5907,0,0,0,0,5904,5905,5906,5907,0,4541,4542,4543,4544,4545,4546,4547,
5990,5991,5992,5993,0,0,0,0,5990,5991,5992,5993,0,0,0,0,0,0,0,0
</data>
 </layer>
 <layer id="4" name="Tile Layer 4" width="20" height="15">
  <data encoding="csv">
3986,3986,3986,3986,3986,3986,3986,3986,3986,3986,3986,3986,3986,3986,3986,3986,3986,3986,3986,3986,
3986,3986,3986,3986,3986,3986,3986,3986,3986,3986,3986,3986,3986,3986,3986,3986,3986,3986,3986,3986,
0,0,0,0,0,0,0,0,0,0,0,0,0,0,0,0,0,0,0,0,
0,0,0,0,0,0,0,0,0,0,0,0,0,0,0,0,0,0,0,0,
0,0,0,0,0,0,0,0,0,0,0,0,0,0,0,0,0,0,0,0,
0,0,0,0,0,0,0,0,0,0,0,0,0,4485,0,0,0,0,0,4491,
0,0,0,0,0,0,0,0,0,0,0,0,0,4485,4486,4487,4488,4489,4490,4491,
5732,5733,5734,5735,0,0,0,0,5732,5733,5734,5735,0,4493,4494,4495,4496,4497,4498,4499,
5818,5819,5820,5821,0,0,0,0,5818,5819,5820,5821,0,4501,4502,4503,4504,4505,4506,4507,
0,0,0,0,0,0,0,0,0,0,0,0,0,0,0,0,0,0,0,0,
0,0,0,0,0,0,0,0,0,0,0,0,0,0,0,0,0,0,0,0,
5732,5733,5734,5735,0,0,0,0,5732,5733,5734,5735,0,0,0,0,0,0,0,0,
5818,5819,5820,5821,0,0,0,0,5818,5819,5820,5821,0,0,0,0,0,0,0,0,
0,0,0,0,0,0,0,0,0,0,0,0,0,0,0,0,0,0,0,0,
0,0,0,0,0,0,0,0,0,0,0,0,0,0,0,0,0,0,0,0
</data>
 </layer>
</map>
