<?xml version="1.0" encoding="UTF-8"?>
<map version="1.10" tiledversion="1.12.1" orientation="orthogonal" renderorder="left-up" width="20" height="15" tilewidth="32" tileheight="32" infinite="0" nextlayerid="5" nextobjectid="1">
 <tileset firstgid="1" source="../TILESET/Base1.tsx"/>
 <tileset firstgid="273" source="../TILESET/biomes.tsx"/>
 <tileset firstgid="4173" source="../TILESET/biome2.tsx"/>
 <tileset firstgid="10279" source="../TILESET/PC_GYM2.tsx"/>
 <layer id="1" name="Tile Layer 1" width="20" height="15">
  <data encoding="csv">
39,39,39,39,3150,3150,3150,3150,3150,3150,3150,3150,3150,3150,3150,3150,3150,39,39,39,
39,39,39,39,3150,3150,3150,3150,3150,3150,3150,3150,3150,3150,3150,3150,3150,39,39,39,
39,39,39,39,3150,3150,3150,3150,3150,3150,3150,3150,3150,3150,3150,3150,3150,39,39,39,
39,39,39,39,3150,3150,3150,3150,3150,3150,3150,3150,3150,3150,3150,3150,3150,39,39,39,
39,39,39,39,3150,3150,3150,3150,3150,3150,3150,3150,3150,3150,3150,3150,3150,39,39,39,
39,39,39,39,3150,3150,3150,3150,3150,3150,3150,3150,3150,3150,3150,3150,3150,39,39,39,
39,39,39,39,3150,3150,3150,3150,3150,3150,3150,3150,3150,3150,3150,3150,3150,39,39,39,
39,39,39,39,3150,3150,3150,3150,3150,3150,3150,3150,3150,3150,3150,3150,3150,39,39,39,
39,39,39,39,3150,3150,3150,3150,3150,3150,3150,3150,3150,3150,3150,3150,3150,39,39,39,
39,39,39,39,3150,3150,3150,3150,3150,3150,3150,3150,3150,3150,3150,3150,3150,39,39,39,
39,39,39,39,3150,3150,3150,3150,3150,3150,3150,3150,3150,3150,3150,3150,3150,39,39,39,
39,39,39,39,3150,3150,3150,3150,3150,3150,3150,3150,3150,3150,3150,3150,3150,39,39,39,
39,39,39,39,3150,3150,3150,3150,3150,3150,3150,3150,3150,3150,3150,3150,3150,39,39,39,
39,39,39,39,3150,3150,3150,3150,3150,3150,3150,3150,3150,3150,3150,3150,3150,39,39,39,
39,39,39,39,3150,3150,3150,3150,3150,3150,3150,3150,3150,3150,3150,3150,3150,39,39,39
</data>
 </layer>
 <layer id="2" name="Tile Layer 2" width="20" height="15">
  <data encoding="csv">
0,0,0,0,0,0,0,0,0,0,0,0,0,0,0,0,0,0,0,0,
0,0,0,0,0,0,0,0,0,0,0,0,0,0,0,0,0,0,0,0,
0,0,0,0,0,0,0,0,0,0,0,0,0,0,0,0,0,0,0,0,
0,0,0,0,0,0,0,0,0,0,0,0,0,0,0,0,0,0,0,0,
0,0,0,0,0,0,0,0,0,0,0,0,0,0,0,0,0,0,0,0,
0,0,0,0,0,0,0,0,0,0,0,0,0,0,0,0,0,0,0,0,
0,0,0,0,0,0,0,0,0,0,0,0,0,0,0,0,0,0,0,0,
0,0,0,0,0,0,0,0,0,0,0,0,0,0,0,0,0,0,0,0,
0,0,0,0,0,0,0,0,0,0,0,0,0,0,0,0,0,0,0,0,
0,0,0,0,0,0,0,0,0,0,0,0,0,0,0,0,0,0,0,0,
0,0,0,0,0,0,0,0,0,0,0,0,0,0,0,0,0,0,0,0,
0,0,0,0,0,0,0,0,0,0,0,0,0,0,0,0,0,0,0,0,
0,0,0,0,0,0,0,0,0,0,0,0,0,0,0,0,0,0,0,0,
0,0,0,0,0,0,0,0,0,0,0,0,0,0,0,0,0,0,0,0,
0,0,0,0,0,0,0,0,0,0,0,0,0,0,0,0,0,0,0,0
</data>
 </layer>
 <layer id="3" name="Tile Layer 3" width="20" height="15">
  <data encoding="csv">
5034,5034,5035,4865,0,0,0,0,0,0,0,0,9929,9930,9931,9932,9933,9934,0,0,
0,0,0,4865,9316,9317,9318,0,0,0,0,0,10015,10016,10017,10018,10019,10020,0,0,
0,0,0,4865,9402,9403,9404,4585,4586,4587,4585,4586,10101,10102,10103,10104,10105,0,0,0,
11450,11451,0,4865,9488,9489,9490,4671,4672,4673,4671,4672,10187,10188,10189,10190,10191,10192,0,0,
11458,11459,0,4865,9574,9575,9576,4757,4758,4759,4757,4758,10273,10274,10275,10276,10277,5016,5017,5015,
11466,11467,0,4865,5015,0,0,0,0,0,0,0,0,0,0,0,0,0,0,0,
11474,11475,0,4865,0,0,0,0,0,0,0,0,0,0,0,0,0,0,0,0,
0,0,0,4865,10398,0,0,0,0,0,0,0,0,0,0,0,4368,4369,4370,4371,
0,0,0,4865,10406,0,0,0,0,0,0,0,0,0,0,0,4454,4455,4456,4457,
0,0,0,4865,0,0,0,0,0,0,0,0,0,0,0,0,0,0,0,0,
0,0,0,4865,0,0,0,0,0,0,0,0,0,0,0,0,0,0,0,0,
0,0,0,4865,0,0,0,0,0,0,0,0,0,0,0,0,0,0,0,0,
11419,11420,0,4865,10398,0,0,0,0,0,0,0,0,0,0,0,4368,4369,4370,4371,
0,0,0,4865,10406,0,0,0,0,0,0,0,0,0,0,0,4454,4455,4456,4457,
0,0,0,4865,0,0,0,0,0,0,0,0,0,0,0,0,0,0,0,0
</data>
 </layer>
 <layer id="4" name="Tile Layer 4" width="20" height="15">
  <data encoding="csv">
11426,11427,0,0,0,0,0,0,0,0,0,0,0,0,0,0,0,0,0,0,
11434,11435,0,0,0,0,0,4585,4586,4587,4588,4589,0,0,0,0,0,0,0,0,
11442,11443,0,0,0,0,0,4671,4672,4673,4674,4675,0,0,0,0,0,0,0,0,
0,0,0,0,0,0,0,4757,4758,4759,4760,4761,0,0,0,0,0,0,0,0,
0,0,0,0,0,0,0,0,0,0,0,0,0,0,0,0,0,0,0,0,
0,0,0,0,10382,0,0,0,0,0,0,0,0,0,0,0,4196,4197,4198,4199,
0,0,0,0,10390,0,0,0,0,0,0,0,0,0,0,0,4282,4283,4284,4285,
0,0,0,0,0,0,0,0,0,0,0,0,0,0,0,0,0,0,0,0,
0,0,0,0,0,0,0,0,0,0,0,0,0,0,0,0,0,0,0,0,
0,0,0,0,0,0,0,0,0,0,0,0,0,0,0,0,0,0,0,0,
0,0,0,0,10382,0,0,0,0,0,0,0,0,0,0,0,4196,4197,4198,4199,
11411,11412,0,0,10390,0,0,0,0,0,0,0,0,0,0,0,4282,4283,4284,4285,
0,0,0,0,0,0,0,0,0,0,0,0,0,0,0,0,0,0,0,0,
0,0,0,0,0,0,0,0,0,0,0,0,0,0,0,0,0,0,0,0,
0,0,0,0,0,0,0,0,0,0,0,0,0,0,0,0,0,0,0,0
</data>
 </layer>
</map>
