<?xml version="1.0" encoding="UTF-8"?>
<map version="1.10" tiledversion="1.12.1" orientation="orthogonal" renderorder="left-up" width="20" height="15" tilewidth="32" tileheight="32" infinite="0" nextlayerid="5" nextobjectid="1">
 <tileset firstgid="1" source="../TILESET/Base1.tsx"/>
 <tileset firstgid="273" source="../TILESET/PC_GYM2.tsx"/>
 <tileset firstgid="1809" source="../TILESET/biome2.tsx"/>
 <layer id="1" name="Tile Layer 1" width="20" height="15">
  <data encoding="csv">
39,39,39,39,39,39,39,39,39,39,39,39,39,39,39,39,39,39,39,39,
39,39,39,39,39,39,39,39,39,39,39,39,39,39,39,39,39,39,39,39,
39,39,39,39,39,39,39,39,39,39,39,39,39,39,39,39,39,39,39,39,
39,39,39,39,39,39,39,39,39,39,39,39,39,39,39,39,39,39,39,39,
39,39,39,39,39,39,39,39,39,39,39,39,39,39,39,39,39,39,39,39,
39,39,39,39,39,39,39,39,39,39,39,39,39,39,39,39,39,39,39,39,
39,39,39,39,39,39,39,39,39,39,39,39,39,39,39,39,39,39,39,39,
39,39,39,39,39,39,39,39,39,39,39,39,39,39,39,39,39,39,39,39,
39,39,39,39,39,39,39,39,39,39,39,39,39,39,39,39,39,39,39,39,
39,39,39,39,39,39,39,39,39,39,39,39,39,39,39,39,39,39,39,39,
39,39,39,39,39,39,39,39,39,39,39,39,39,39,39,39,39,39,39,39,
39,39,39,39,39,39,39,39,39,39,39,39,39,39,39,39,39,39,39,39,
39,39,39,39,39,39,39,39,39,39,39,39,39,39,39,39,39,39,39,39,
39,39,39,39,39,39,39,39,39,39,39,39,39,39,39,39,39,39,39,39,
39,39,39,39,39,39,39,39,39,39,39,39,39,39,39,39,39,39,39,39
</data>
 </layer>
 <layer id="2" name="Tile Layer 2" width="20" height="15">
  <data encoding="csv">
0,0,0,0,0,0,0,0,0,0,0,0,0,0,0,0,0,0,0,0,
0,0,0,0,0,0,0,0,0,0,0,0,0,0,0,0,0,0,0,0,
0,0,0,0,0,0,0,0,0,0,0,0,0,0,0,0,0,0,0,0,
0,0,0,0,0,0,0,0,0,0,0,0,0,0,0,0,0,0,0,0,
66,66,66,66,66,66,66,66,66,66,66,66,66,66,61,0,0,0,0,0,
58,58,58,58,58,58,58,58,58,58,58,58,58,58,57,0,0,0,0,0,
58,58,58,58,58,58,58,58,58,58,58,58,58,58,57,0,0,0,0,0,
58,58,58,58,58,58,58,58,58,58,58,58,58,58,57,0,0,0,0,0,
58,58,58,58,58,58,58,58,58,58,58,58,58,58,57,0,0,0,0,0,
58,58,58,58,58,58,58,58,58,58,58,58,58,58,57,0,0,0,0,0,
58,58,58,58,58,58,58,58,58,58,58,58,58,58,57,0,0,0,0,0,
58,58,58,58,58,58,58,58,58,58,58,58,58,58,57,0,0,0,0,0,
58,58,58,58,58,58,58,58,58,58,58,58,58,58,57,0,0,0,0,0,
58,58,58,58,58,58,58,58,58,58,58,58,58,58,57,0,0,0,0,0,
58,58,58,58,58,58,58,58,58,58,58,58,58,58,57,0,0,0,0,0
</data>
 </layer>
 <layer id="3" name="Tile Layer 3" width="20" height="15">
  <data encoding="csv">
5449,5450,0,0,0,0,0,0,0,0,0,0,0,0,0,0,0,0,0,1570,
5535,5536,0,0,0,0,0,0,0,0,0,0,0,0,0,5451,0,0,0,1580,
0,1405,1406,0,0,1403,1404,0,0,0,1405,1406,0,0,0,0,0,0,0,1588,
0,1413,1414,0,0,1411,1412,0,0,0,1413,1414,0,0,0,0,1405,1406,0,0,
5363,0,0,0,0,0,0,0,0,5451,0,0,0,0,0,0,1413,1414,0,0,
0,0,0,0,0,0,0,0,0,0,0,0,0,0,0,0,1381,1382,0,0,
0,0,0,0,0,0,0,0,0,0,0,0,0,0,0,0,1389,1390,0,0,
0,0,0,0,0,0,0,0,0,0,0,0,0,0,0,0,0,0,0,0,
0,0,0,0,0,0,0,0,0,0,0,0,0,0,0,0,1403,1404,0,0,
0,0,0,0,0,0,0,0,0,0,0,0,0,0,0,0,1411,1412,0,0,
0,0,0,0,0,0,0,0,0,0,0,0,0,0,0,0,1381,1382,0,0,
0,0,0,0,0,0,0,0,0,0,0,0,0,0,0,0,1389,1390,0,0,
0,0,0,0,0,0,0,0,0,0,0,0,0,0,0,0,1405,1406,0,0,
0,0,0,0,0,0,0,0,0,0,0,0,0,0,0,5451,1413,1414,0,0,
0,0,0,0,0,0,0,0,0,0,0,0,0,0,0,0,0,0,0,5363
</data>
 </layer>
 <layer id="4" name="Tile Layer 4" width="20" height="15">
  <data encoding="csv">
0,0,0,0,0,0,0,0,0,0,0,0,0,0,0,0,0,0,0,1581,
0,0,0,0,0,0,0,0,0,0,0,0,0,0,0,0,0,0,0,0,
0,0,0,0,0,0,0,0,0,0,0,0,0,0,0,0,0,0,0,0,
0,0,0,0,0,0,0,0,0,0,0,0,0,0,0,0,0,0,0,0,
0,0,0,0,0,0,0,0,0,0,0,0,0,0,0,0,0,0,0,0,
0,0,0,0,0,0,0,0,0,0,0,0,0,0,0,0,0,0,0,0,
0,0,0,0,0,0,0,0,0,0,0,0,0,0,0,0,0,0,0,0,
0,0,0,0,0,0,0,0,0,0,0,0,0,0,0,0,0,0,0,0,
0,0,0,0,0,0,0,0,0,0,0,0,0,0,0,0,0,0,0,0,
0,0,0,0,0,0,0,0,0,0,0,0,0,0,0,0,0,0,0,0,
0,0,0,0,0,0,0,0,0,0,0,0,0,0,0,0,0,0,0,0,
0,0,0,0,0,0,0,0,0,0,0,0,0,0,0,0,0,0,0,0,
0,0,0,0,0,0,0,0,0,0,0,0,0,0,0,0,0,0,0,0,
0,0,0,0,0,0,0,0,0,0,0,0,0,0,0,0,0,0,0,0,
0,0,0,0,0,0,0,0,0,0,0,0,0,0,0,0,0,0,0,0
</data>
 </layer>
</map>
