<?xml version="1.0" encoding="UTF-8"?>
<map version="1.10" tiledversion="1.12.1" orientation="orthogonal" renderorder="left-up" width="20" height="15" tilewidth="32" tileheight="32" infinite="0" nextlayerid="5" nextobjectid="1">
 <tileset firstgid="1" source="../TILESET/Base1.tsx"/>
 <tileset firstgid="273" source="../TILESET/biome2.tsx"/>
 <tileset firstgid="6379" source="../TILESET/PC_GYM2.tsx"/>
 <layer id="1" name="Tile Layer 1" width="20" height="15">
  <data encoding="csv">
39,39,39,39,39,39,39,39,39,39,39,39,39,39,39,39,39,39,39,39,
39,39,39,39,39,39,39,39,39,39,39,39,39,39,39,39,39,39,39,39,
39,39,39,39,39,39,39,39,39,39,39,39,39,39,39,39,39,39,39,39,
39,39,39,39,39,39,39,39,39,39,39,39,39,39,39,39,39,39,39,39,
39,39,39,39,39,39,39,39,39,39,39,39,39,39,39,39,39,39,39,39,
39,39,39,39,39,39,39,39,39,39,39,39,39,39,39,39,39,39,39,39,
39,39,39,39,39,39,39,39,39,39,39,39,39,39,39,39,39,1,1,1,
39,39,39,39,39,39,39,39,39,39,39,39,39,39,39,39,39,1,1,1,
39,39,39,39,39,39,39,39,39,39,39,39,39,39,39,39,39,1,1,1,
39,39,39,39,39,39,39,39,39,39,39,39,39,39,39,39,39,1,1,1,
39,39,39,39,39,39,39,39,39,39,39,39,39,39,39,39,39,39,39,39,
39,39,39,39,39,39,39,39,39,39,39,39,39,39,39,39,39,39,39,39,
39,39,39,39,39,39,39,39,39,39,39,39,39,39,39,39,39,39,39,39,
39,39,39,39,39,39,39,39,39,39,39,39,39,39,39,39,39,39,39,39,
39,39,39,39,39,39,39,39,39,39,39,39,39,39,39,39,39,39,39,39
</data>
 </layer>
 <layer id="2" name="Tile Layer 2" width="20" height="15">
  <data encoding="csv">
0,0,0,0,0,0,0,0,0,0,0,0,0,0,0,0,0,0,0,0,
0,0,0,0,0,0,0,0,0,0,0,0,0,0,0,0,0,0,0,0,
0,0,0,0,0,0,0,0,0,0,0,0,0,0,0,0,0,0,0,0,
0,0,0,0,0,0,0,0,0,0,0,0,0,0,0,0,0,0,0,0,
0,0,0,0,0,0,0,0,0,0,0,0,0,0,0,0,0,0,0,0,
0,0,0,0,0,0,0,0,0,0,0,0,0,0,0,0,0,0,0,0,
0,0,0,0,0,0,0,0,0,0,0,0,0,0,0,0,40,0,0,0,
0,0,0,0,0,0,0,0,0,0,0,0,0,0,0,0,40,0,0,0,
66,66,66,66,61,0,0,0,0,0,0,0,0,0,0,0,40,0,0,0,
58,58,58,58,57,0,0,0,0,0,0,0,0,0,0,0,40,0,0,0,
58,58,58,58,57,0,0,0,0,0,0,0,0,0,0,0,52,0,0,0,
58,58,58,58,57,0,0,0,0,0,0,0,0,0,0,0,0,0,0,0,
58,58,58,58,65,66,66,66,66,66,61,0,0,0,0,0,0,0,0,0,
58,58,58,58,58,58,58,58,58,58,65,66,66,66,61,0,0,0,0,0,
58,58,58,58,58,58,58,58,58,58,58,58,58,58,57,39,0,0,0,0
</data>
 </layer>
 <layer id="3" name="Tile Layer 3" width="20" height="15">
  <data encoding="csv">
0,0,0,0,0,0,137,138,138,138,138,138,138,138,138,138,138,138,138,138,
0,0,0,0,0,0,137,138,138,138,138,138,138,138,138,138,138,138,138,138,
0,7519,7520,0,0,0,137,138,138,138,138,138,138,138,138,138,138,138,138,138,
0,7487,7488,0,3915,0,137,138,138,138,138,138,138,138,138,138,138,138,138,138,
0,7495,7496,0,0,0,137,138,138,138,138,138,138,138,138,138,138,138,138,138,
0,0,0,0,0,0,145,146,146,146,146,146,146,146,146,146,146,146,146,146,
0,7517,7518,0,0,0,0,0,0,0,0,0,0,0,0,0,0,94,94,94,
0,0,3827,0,0,0,0,0,0,0,3828,0,0,3828,0,0,0,94,94,94,
0,0,0,0,0,0,0,0,0,0,0,3913,3914,0,0,0,0,94,94,94,
0,0,0,0,0,0,0,0,0,0,0,3999,4000,0,7519,7520,0,94,94,94,
0,0,0,0,0,0,7517,7518,0,0,0,0,0,0,7487,7488,129,130,130,130,
0,0,0,0,0,0,0,0,3915,0,0,0,0,0,7495,7496,137,138,138,138,
0,0,0,0,0,0,0,0,0,0,0,0,0,0,0,0,137,138,138,138,
0,0,0,0,0,0,0,0,0,0,0,0,0,3827,0,0,137,138,138,138,
0,0,0,0,0,0,0,0,0,0,0,0,0,0,0,0,137,138,138,138
</data>
 </layer>
 <layer id="4" name="Tile Layer 4" width="20" height="15">
  <data encoding="csv">
0,0,0,0,0,0,0,0,0,0,0,0,0,0,0,0,0,0,0,0,
0,7511,7512,0,0,0,0,0,0,0,0,0,0,0,0,0,0,0,0,0,
0,0,0,0,0,0,0,0,0,0,0,0,0,0,0,0,0,0,0,0,
0,0,0,0,0,0,0,0,0,0,0,0,0,0,0,0,0,0,0,0,
0,0,0,0,0,0,0,0,0,0,0,0,0,0,0,0,0,0,0,0,
0,7509,7510,0,0,0,0,0,0,0,0,0,0,0,0,0,0,86,86,86,
0,0,0,0,0,0,0,0,0,0,0,0,0,0,0,0,0,86,86,86,
0,0,0,0,0,0,0,0,0,0,0,0,0,0,0,0,0,86,86,86,
0,0,0,0,0,0,0,0,0,0,0,0,0,0,7511,7512,0,86,86,86,
0,0,0,0,0,0,7509,7510,0,0,0,0,0,0,0,0,0,0,0,0,
0,0,0,0,0,0,0,0,0,0,0,0,0,0,0,0,0,0,0,0,
0,0,0,0,0,0,0,0,0,0,0,0,0,0,0,0,0,0,0,0,
0,0,0,0,0,0,0,0,0,0,0,0,0,0,0,0,0,0,0,0,
0,0,0,0,0,0,0,0,0,0,0,0,0,0,0,0,0,0,0,0,
0,0,0,0,0,0,0,0,0,0,0,0,0,0,0,0,0,0,0,0
</data>
 </layer>
</map>
