<?xml version="1.0" encoding="UTF-8"?>
<map version="1.10" tiledversion="1.12.1" orientation="orthogonal" renderorder="left-up" width="20" height="15" tilewidth="32" tileheight="32" infinite="0" nextlayerid="5" nextobjectid="1">
 <tileset firstgid="1" source="../TILESET/Base1.tsx"/>
 <tileset firstgid="273" source="../TILESET/PC_GYM2.tsx"/>
 <tileset firstgid="1809" source="../TILESET/biome2.tsx"/>
 <layer id="1" name="Tile Layer 1" width="20" height="15">
  <data encoding="csv">
58,58,58,58,58,58,58,58,57,39,39,39,39,39,39,39,39,39,39,39,
58,58,58,58,58,58,58,58,57,39,39,39,39,39,39,39,39,39,39,39,
58,58,58,58,58,58,58,58,57,39,39,39,39,39,39,39,39,39,39,39,
58,58,58,58,58,58,58,58,57,39,39,39,39,39,39,39,39,39,39,39,
58,58,58,58,58,58,58,58,57,39,39,39,39,39,39,39,39,39,39,39,
58,58,58,58,58,58,58,58,57,39,39,39,39,39,39,39,39,39,39,39,
58,58,58,58,58,58,58,58,57,39,39,39,39,39,39,39,39,39,39,39,
58,58,58,58,58,58,58,58,57,39,39,39,39,39,39,39,39,39,39,39,
58,58,58,58,58,58,58,58,57,39,39,39,39,39,39,39,39,39,39,39,
58,58,58,58,58,58,58,58,65,66,66,61,39,39,39,39,39,39,39,39,
58,58,58,58,58,58,58,58,58,58,58,57,39,39,39,39,39,39,39,39,
58,58,58,58,58,58,58,58,58,58,58,57,39,39,39,39,39,39,39,39,
58,58,58,58,58,58,58,58,58,58,58,57,39,39,39,39,39,39,39,39,
58,58,58,58,58,58,58,58,58,58,58,57,39,39,39,39,39,39,39,39,
58,58,58,58,58,58,58,58,58,58,58,57,39,39,39,39,39,39,39,39
</data>
 </layer>
 <layer id="2" name="Tile Layer 2" width="20" height="15">
  <data encoding="csv">
0,0,0,0,0,0,0,0,0,0,0,0,0,0,0,0,0,0,0,0,
0,0,0,0,0,0,0,0,0,0,0,0,0,0,0,0,0,0,0,0,
0,0,0,0,0,0,0,0,0,0,0,0,0,0,0,0,0,0,0,0,
0,0,0,0,0,0,0,0,0,0,0,0,0,0,0,23,23,0,0,0,
0,0,0,0,0,0,0,0,0,0,0,0,0,0,0,23,23,0,0,0,
0,0,0,0,0,0,0,0,0,0,0,0,0,0,0,23,23,0,0,0,
0,0,0,0,0,0,0,0,0,0,0,0,0,0,0,0,0,0,0,0,
0,0,0,0,0,0,0,0,0,0,0,0,0,0,0,0,0,0,0,0,
0,0,0,0,0,0,0,0,0,0,0,0,0,0,0,0,0,0,0,0,
0,0,0,0,0,0,0,0,0,0,0,0,0,0,0,0,0,0,0,0,
0,0,0,0,0,0,0,0,0,0,0,0,0,0,0,0,0,0,0,0,
0,0,0,0,0,0,0,0,0,0,0,0,0,0,0,0,0,0,0,0,
0,0,0,0,0,0,0,0,0,0,0,0,0,0,0,0,0,0,0,0,
0,0,0,0,0,0,0,0,0,0,0,0,0,0,0,0,0,0,0,0,
0,0,0,0,0,0,0,0,0,0,0,0,0,0,0,0,0,0,0,0
</data>
 </layer>
 <layer id="3" name="Tile Layer 3" width="20" height="15">
  <data encoding="csv">
0,0,0,0,0,0,0,0,2669,2670,2670,2670,2670,2670,2670,2670,2670,2670,2670,2670,
0,0,0,0,0,0,0,0,0,0,0,0,0,0,0,0,0,0,0,0,
0,0,0,0,0,0,0,0,0,2004,2005,2006,2007,2004,2005,2006,2007,1433,1434,1435,
0,0,0,0,0,0,0,0,0,2090,2091,2092,2093,2090,2091,2092,2093,1441,1442,1443,
0,0,0,0,0,0,0,0,0,0,0,0,0,0,0,0,0,1449,1450,1451,
0,0,0,0,0,0,0,0,0,5363,0,0,0,0,1411,1412,0,1457,1458,1459,
0,0,0,0,0,0,0,0,0,0,0,0,0,0,0,0,0,1465,1466,1467,
0,0,0,0,0,0,0,0,0,0,0,0,0,0,0,0,0,0,0,0,
0,0,0,0,0,0,0,0,0,0,0,0,0,0,0,0,0,0,0,0,
0,0,0,0,0,0,0,0,0,256,0,0,0,0,0,5449,5450,0,0,0,
0,0,0,0,0,0,0,0,0,0,0,0,0,0,0,5535,5536,0,0,0,
0,0,0,0,0,0,0,0,0,0,0,0,0,0,0,0,0,0,0,0,
0,0,0,0,0,0,0,0,0,0,0,0,0,0,0,0,0,0,0,0,
0,0,0,0,0,0,0,0,0,0,0,0,0,0,0,0,0,0,0,0,
0,0,0,0,0,0,0,0,0,0,0,0,0,0,0,0,0,0,0,0
</data>
 </layer>
 <layer id="4" name="Tile Layer 4" width="20" height="15">
  <data encoding="csv">
0,0,0,0,0,0,0,0,0,1832,1833,1834,1835,1832,1833,1834,1835,1417,1418,1419,
0,0,0,0,0,0,0,0,0,1918,1919,1920,1921,1918,1919,1920,1921,1425,1426,1427,
0,0,0,0,0,0,0,0,0,0,0,0,0,0,0,0,0,0,0,0,
0,0,0,0,0,0,0,0,0,0,0,0,0,0,0,0,0,0,0,0,
0,0,0,0,0,0,0,0,0,0,0,0,0,0,1403,1404,0,0,0,0,
0,0,0,0,0,0,0,0,0,0,0,0,0,0,0,0,0,0,0,0,
0,0,0,0,0,0,0,0,0,0,0,0,0,0,0,0,0,0,0,0,
0,0,0,0,0,0,0,0,0,240,0,0,0,0,0,0,0,0,0,0,
0,0,0,0,0,0,0,0,0,248,0,0,0,0,0,0,0,0,0,0,
0,0,0,0,0,0,0,0,0,0,0,0,0,0,0,0,0,0,0,0,
0,0,0,0,0,0,0,0,0,0,0,0,0,0,0,0,0,0,0,0,
0,0,0,0,0,0,0,0,0,0,0,0,0,0,0,0,0,0,0,0,
0,0,0,0,0,0,0,0,0,0,0,0,0,0,0,0,0,0,0,0,
0,0,0,0,0,0,0,0,0,0,0,0,0,0,0,0,0,0,0,0,
0,0,0,0,0,0,0,0,0,0,0,0,0,0,0,0,0,0,0,0
</data>
 </layer>
</map>
