<?xml version="1.0" encoding="UTF-8"?>
<map version="1.10" tiledversion="1.12.1" orientation="orthogonal" renderorder="left-up" width="20" height="15" tilewidth="32" tileheight="32" infinite="0" nextlayerid="5" nextobjectid="1">
 <tileset firstgid="1" source="../TILESET/Base1.tsx"/>
 <tileset firstgid="273" source="../TILESET/biome2.tsx"/>
 <tileset firstgid="6379" source="../TILESET/PC_GYM2.tsx"/>
 <layer id="1" name="Tile Layer 1" width="20" height="15">
  <data encoding="csv">
58,58,58,58,58,58,58,58,58,58,58,57,39,39,39,39,39,39,39,39,
58,58,58,58,58,58,58,58,58,58,58,57,39,39,39,39,39,39,39,39,
58,58,58,58,58,58,58,58,58,58,58,57,39,39,39,39,39,39,39,39,
58,58,58,58,58,58,58,58,58,58,58,57,39,39,39,39,39,39,39,39,
58,58,58,58,58,58,58,58,58,58,58,57,39,39,39,39,39,39,39,39,
58,58,58,58,58,58,58,58,58,58,58,65,66,61,39,39,39,39,39,39,
58,58,58,58,58,58,58,58,58,58,58,58,58,57,39,39,39,39,39,39,
58,58,58,58,58,58,58,0,0,0,0,0,0,57,39,39,39,39,39,39,
58,58,58,58,58,58,58,0,0,0,0,0,0,57,39,39,39,39,39,39,
58,58,58,58,58,58,58,0,0,0,0,0,0,57,39,39,39,39,39,39,
58,58,58,58,58,58,58,58,58,58,58,58,58,57,39,39,39,39,39,39,
58,58,58,58,58,58,58,58,58,58,58,58,58,57,39,39,39,39,39,39,
58,58,58,58,58,58,58,58,58,58,58,58,58,57,39,39,39,39,39,39,
58,58,58,58,58,58,58,58,58,58,58,58,58,57,39,39,39,39,39,39,
58,58,58,58,58,58,58,58,58,58,58,58,58,57,39,39,39,39,39,39
</data>
 </layer>
 <layer id="2" name="Tile Layer 2" width="20" height="15">
  <data encoding="csv">
0,0,0,0,0,0,0,0,0,0,0,0,0,0,0,0,0,0,0,0,
0,0,0,0,0,0,0,0,0,0,0,0,0,0,0,0,0,0,0,0,
0,0,0,0,0,0,0,0,0,0,0,0,0,0,0,0,0,0,0,0,
0,0,0,0,0,0,0,0,0,0,0,0,0,0,0,0,0,0,0,0,
0,0,0,0,0,0,0,0,0,0,3829,0,0,0,0,0,0,0,0,0,
0,0,0,0,0,0,0,0,0,3829,3829,0,0,0,0,0,0,0,0,0,
0,0,0,0,0,0,0,0,0,3829,3829,3829,3829,0,0,0,0,0,0,0,
0,0,0,0,0,0,0,1394,1395,1396,1394,1395,1396,1398,0,0,0,0,0,0,
0,0,0,0,0,0,0,1480,1481,1482,1480,1481,1482,1484,0,0,0,0,0,0,
0,0,0,0,0,0,0,1566,1567,1568,1566,1567,1568,1570,0,0,0,0,0,0,
0,0,0,0,0,0,0,3829,3829,3829,3829,3829,3829,0,0,0,0,0,0,0,
0,0,0,0,0,0,0,0,0,3829,3829,3829,3829,0,0,0,0,0,0,0,
0,0,0,0,0,0,0,0,0,0,3829,0,3829,0,0,0,0,0,0,0,
0,0,0,0,0,0,0,0,0,0,0,0,3829,0,0,0,0,0,0,0,
0,0,0,0,0,0,0,0,0,0,0,0,0,0,0,0,0,0,0,0
</data>
 </layer>
 <layer id="3" name="Tile Layer 3" width="20" height="15">
  <data encoding="csv">
0,0,0,0,0,0,0,0,0,0,0,0,0,0,0,0,0,0,0,0,
0,0,0,0,0,0,0,0,0,0,0,3915,0,0,0,0,0,0,0,0,
0,0,0,0,0,0,0,0,0,0,0,0,0,0,0,0,0,0,0,0,
0,0,0,0,0,0,0,0,0,0,0,0,0,0,0,0,3828,0,0,0,
0,0,0,0,0,0,0,0,0,0,0,0,0,0,0,0,0,0,0,0,
0,0,0,0,0,0,0,0,0,0,0,3827,0,0,0,0,0,0,0,0,
0,0,0,0,0,0,0,0,0,0,0,0,0,0,7517,7518,0,7519,7520,0,
0,0,0,0,0,0,0,0,0,0,0,0,0,0,0,0,0,0,0,0,
0,0,0,0,0,0,0,0,0,0,0,0,0,0,0,0,0,0,0,0,
6365,6366,6367,6368,6369,6370,6371,6372,0,0,0,0,0,0,0,0,0,0,0,0,
0,0,0,0,0,0,0,1735,1736,1737,1735,1736,1737,1736,0,0,0,0,0,0,
0,0,0,0,0,0,0,0,0,0,0,0,0,0,0,0,0,0,0,0,
0,0,0,0,0,0,0,0,0,0,0,0,0,0,7517,7518,3828,7519,7520,0,
0,0,0,0,0,0,0,0,0,0,0,0,0,0,0,0,0,0,0,0,
0,0,0,0,0,0,0,0,0,0,0,0,0,3827,0,0,0,0,0,0
</data>
 </layer>
 <layer id="4" name="Tile Layer 4" width="20" height="15">
  <data encoding="csv">
0,0,0,0,0,0,0,0,0,0,0,0,0,0,0,0,0,0,0,0,
0,0,0,0,0,0,0,0,0,0,0,0,0,0,0,0,0,0,0,0,
0,0,0,0,0,0,0,0,0,0,0,0,0,0,0,0,0,0,0,0,
0,0,0,0,0,0,0,0,0,0,0,0,0,0,0,0,0,0,0,0,
0,0,0,0,0,0,0,0,0,0,0,0,0,0,0,0,0,0,0,0,
0,0,0,0,0,0,0,0,0,0,0,0,0,0,7509,7510,0,7511,7512,0,
6107,6108,6109,6110,6111,6112,6113,0,0,0,0,0,0,0,0,0,0,0,0,0,
6193,6194,6195,6196,6197,6198,6199,0,0,0,0,0,0,0,0,0,0,0,0,0,
6279,6280,6281,6282,6283,6284,6285,0,0,0,0,0,0,0,0,0,0,0,0,0,
0,0,0,0,0,0,0,0,0,0,0,0,0,0,0,0,0,0,0,0,
0,0,0,0,0,0,0,0,0,0,0,0,0,0,0,0,0,0,0,0,
0,0,0,0,0,0,0,0,0,0,0,0,0,0,7509,7510,0,7511,7512,0,
0,0,0,0,0,0,0,0,0,0,0,0,0,0,0,0,0,0,0,0,
0,0,0,0,0,0,0,0,0,0,0,0,0,0,0,0,0,0,0,0,
0,0,0,0,0,0,0,0,0,0,0,0,0,0,0,0,0,0,0,0
</data>
 </layer>
</map>
