<?xml version="1.0" encoding="UTF-8"?>
<map version="1.10" tiledversion="1.12.1" orientation="orthogonal" renderorder="left-up" width="20" height="15" tilewidth="32" tileheight="32" infinite="0" nextlayerid="5" nextobjectid="1">
 <tileset firstgid="1" source="../TILESET/dinocenter2.tsx"/>
 <tileset firstgid="209" source="../TILESET/house3.tsx"/>
 <tileset firstgid="305" source="../TILESET/INTERIOR_ALL.tsx"/>
 <layer id="1" name="Tile Layer 1" width="20" height="15">
  <data encoding="csv">
21,21,21,21,21,21,21,21,21,21,21,21,21,21,21,21,21,21,21,21,
21,21,21,21,21,21,21,21,21,21,21,21,21,21,21,21,21,21,21,21,
21,21,21,21,21,21,21,21,21,21,21,21,21,21,21,21,21,21,21,21,
21,21,21,21,21,21,21,21,21,21,21,21,21,21,21,21,21,21,21,21,
21,21,21,21,21,21,21,21,21,21,21,21,21,21,21,21,21,21,21,21,
21,21,21,21,21,21,21,21,21,21,21,21,21,21,21,21,21,21,21,21,
21,21,21,21,21,21,21,21,21,21,21,21,21,21,21,21,21,21,21,21,
21,21,21,21,21,21,21,21,21,21,21,21,21,21,21,21,21,21,21,21,
21,21,21,21,21,21,21,21,21,21,21,21,21,21,21,21,21,21,21,21,
21,21,21,21,21,21,21,21,21,21,21,21,21,21,21,21,21,21,21,21,
21,21,21,21,21,21,21,21,21,21,21,21,21,21,21,21,21,21,21,21,
21,21,21,21,21,21,21,21,21,21,21,21,21,21,21,21,21,21,21,21,
21,21,21,21,21,21,21,21,21,21,21,21,21,21,21,21,21,21,21,21,
21,21,21,21,21,21,21,21,21,21,21,21,21,21,21,21,21,21,21,21,
21,21,21,21,21,21,21,21,21,21,21,21,21,21,21,21,21,21,21,21
</data>
 </layer>
 <layer id="2" name="Tile Layer 2" width="20" height="15">
  <data encoding="csv">
0,0,0,0,0,0,0,0,0,0,0,0,0,0,0,0,0,0,0,0,
0,0,0,0,0,0,0,0,0,0,0,0,0,0,0,0,0,0,0,0,
0,0,0,0,0,0,0,0,0,0,0,0,0,0,0,0,0,0,0,0,
0,0,0,0,0,0,0,0,0,0,0,0,0,0,0,0,0,0,0,0,
0,0,0,0,0,0,0,0,0,0,0,0,0,0,0,0,0,0,0,0,
0,0,0,0,0,0,0,0,0,0,0,0,0,0,0,0,0,0,0,0,
0,0,0,0,0,0,0,0,0,0,0,0,0,0,0,0,0,0,0,0,
0,0,0,0,0,0,0,0,0,0,0,0,0,0,0,0,0,0,0,0,
0,0,0,0,0,0,0,0,0,0,0,0,0,0,0,0,0,0,0,0,
0,0,0,0,0,0,0,0,0,0,0,0,0,0,0,0,0,0,0,0,
0,0,0,0,0,0,0,0,0,0,0,0,0,0,0,0,0,0,0,0,
0,0,0,0,0,0,0,0,0,0,0,0,0,0,0,0,0,0,0,0,
0,0,0,0,0,0,0,0,0,0,0,0,0,0,0,0,0,0,0,0,
0,0,0,0,0,0,0,0,0,0,0,0,0,0,0,0,0,0,0,0,
0,0,0,0,0,0,0,0,0,0,0,0,0,0,0,0,0,0,0,0
</data>
 </layer>
 <layer id="3" name="Tile Layer 3" width="20" height="15">
  <data encoding="csv">
2803,2803,2803,2803,2803,2803,2803,2803,2803,2803,2803,2803,2803,2803,3757,0,0,0,0,3757,
2803,2803,2803,2803,2803,2803,2804,2805,2806,2803,2803,2803,2803,2803,3757,0,0,0,0,3757,
2811,2811,2811,2811,2811,2811,2812,2813,2814,2811,2811,2811,2811,2811,3757,0,0,0,0,3757,
0,0,0,0,0,0,0,0,0,0,0,3737,3738,3739,3757,0,0,0,0,3757,
0,0,0,0,0,0,0,0,0,0,0,3745,3746,3747,3757,0,0,0,0,3757,
0,0,0,0,0,0,0,0,0,0,0,3753,3754,3755,3757,0,0,0,0,3757,
0,0,0,0,0,0,0,0,0,0,0,3761,3762,3763,3757,0,0,0,0,3757,
0,0,0,0,0,0,0,0,0,0,0,0,3741,3741,3757,0,0,0,0,3757,
3757,3757,3757,3757,3757,0,0,0,0,0,0,0,3749,3749,3765,0,0,0,0,3757,
3765,3765,3765,3765,3757,3741,3741,0,0,0,0,0,0,0,0,0,0,0,0,3757,
0,0,0,0,3757,3749,3749,0,0,0,0,0,0,0,0,0,0,0,0,3757,
0,0,0,0,3757,0,0,0,0,0,0,0,0,0,0,0,0,0,0,3757,
0,0,0,0,3757,3757,3757,3757,3757,3757,3757,3757,3757,3757,3757,3757,3757,3757,3757,3757,
0,0,0,0,3765,3765,3765,3765,3765,3765,3765,3765,3765,3765,3765,3765,3765,3765,3765,3765,
0,0,0,0,2619,2619,2619,2619,2619,2619,2619,2619,2619,2619,2619,2619,2619,2619,2619,2619
</data>
 </layer>
 <layer id="4" name="Tile Layer 4" width="20" height="15">
  <data encoding="csv">
2795,2795,2795,2795,2795,2795,2796,2797,2798,2795,2795,2795,2795,2795,0,0,0,0,0,0,
0,0,0,0,0,0,0,0,0,0,0,3636,3637,3638,0,0,0,0,0,0,
0,0,0,0,0,0,0,0,0,0,0,0,0,0,0,0,0,0,0,0,
0,0,0,0,0,0,0,0,0,0,0,0,0,0,0,0,0,0,0,0,
0,0,0,0,0,0,0,0,0,0,0,0,0,0,0,0,0,0,0,0,
0,0,0,0,0,0,0,0,0,0,0,0,0,0,0,0,0,0,0,0,
0,0,0,0,0,0,0,0,0,0,0,0,3733,3733,0,0,0,0,0,0,
0,0,0,0,0,0,0,0,0,0,0,0,0,0,0,0,0,0,0,0,
0,0,0,0,0,3733,3733,0,0,0,0,0,0,0,0,0,0,0,0,0,
0,0,0,0,0,0,0,0,0,0,0,0,0,0,0,0,0,0,0,0,
0,0,0,0,0,0,0,0,0,0,0,0,0,0,0,0,0,0,0,0,
0,0,0,0,0,0,0,0,0,0,0,0,0,0,0,0,0,0,0,0,
0,0,0,0,0,0,0,0,0,0,0,0,0,0,0,0,0,0,0,0,
0,0,0,0,0,0,0,0,0,0,0,0,0,0,0,0,0,0,0,0,
209,209,209,209,209,209,209,209,209,209,209,209,209,209,209,209,209,209,209,209
</data>
 </layer>
</map>
