<?xml version="1.0" encoding="UTF-8"?>
<map version="1.10" tiledversion="1.12.1" orientation="orthogonal" renderorder="left-up" width="20" height="15" tilewidth="32" tileheight="32" infinite="0" nextlayerid="6" nextobjectid="2">
 <tileset firstgid="1" source="../TILESET/dinocenter2.tsx"/>
 <tileset firstgid="209" source="../TILESET/INTERIOR_ALL.tsx"/>
 <tileset firstgid="5001" source="../TILESET/house3.tsx"/>
 <layer id="1" name="Tile Layer 1" width="20" height="15">
  <data encoding="csv">
5001,5001,5001,5001,5001,5001,5001,5001,5001,5001,5001,5001,5001,5001,5001,5001,5001,5001,5001,5001,
5001,21,21,21,21,21,21,21,21,21,21,21,21,21,21,21,21,21,21,21,
5001,21,21,21,21,21,21,21,21,21,21,21,21,21,21,21,21,21,21,21,
5001,21,21,21,21,21,21,21,21,21,21,21,21,21,21,21,21,21,21,21,
5001,21,21,21,21,21,21,21,21,21,21,21,21,21,21,21,21,21,21,21,
5001,21,21,21,21,21,21,21,21,21,21,21,21,21,21,21,21,21,21,21,
5001,21,21,21,21,21,21,21,21,21,21,21,21,21,21,21,21,21,21,21,
5001,21,21,21,21,21,21,21,21,21,21,21,21,21,21,21,21,21,21,21,
5001,21,21,21,21,21,21,21,21,21,21,21,21,21,21,21,21,21,21,21,
5001,21,21,21,21,21,21,21,21,21,21,21,21,21,21,21,21,21,21,21,
5001,21,21,21,21,21,21,21,21,21,21,21,21,21,21,21,21,21,21,21,
5001,21,21,21,21,21,21,21,21,21,21,21,21,21,21,21,21,21,21,21,
5001,21,21,21,21,21,21,21,21,21,21,21,21,21,21,21,21,21,21,21,
5001,21,21,21,21,21,21,21,21,21,21,21,21,21,21,21,21,21,21,21,
5001,1,1,1,1,1,1,1,1,21,21,1,1,1,1,1,1,1,1,1
</data>
 </layer>
 <layer id="2" name="Tile Layer 2" width="20" height="15">
  <data encoding="csv">
0,0,0,0,0,0,0,0,0,0,0,0,0,0,0,0,0,0,0,0,
0,0,0,0,0,0,0,0,0,0,0,0,0,0,0,0,0,0,0,0,
0,0,0,0,0,2715,2715,2715,0,0,0,2715,2715,2715,0,0,0,0,0,0,
0,0,0,0,0,0,0,0,0,0,0,0,0,0,0,0,0,0,0,0,
0,0,0,0,0,0,0,0,0,0,0,0,0,0,0,0,0,0,0,0,
0,0,0,0,0,0,0,0,0,0,0,0,0,0,0,0,0,0,0,0,
0,0,0,0,0,0,0,0,0,0,0,0,0,0,0,0,0,0,0,0,
0,0,0,0,0,0,0,0,0,0,0,0,0,0,0,0,0,0,0,0,
0,0,0,0,0,0,0,0,0,0,0,0,0,0,0,0,0,0,0,0,
0,0,0,0,0,0,0,0,0,0,0,0,0,0,0,0,0,0,0,0,
0,0,0,0,0,0,0,0,0,0,0,0,0,0,0,0,0,0,0,0,
0,0,0,0,0,0,0,0,0,0,0,0,0,0,0,0,0,0,0,0,
0,0,0,0,0,0,0,0,0,0,0,0,0,0,0,0,0,0,0,0,
0,0,0,0,0,0,0,0,0,189,190,191,0,0,0,0,0,0,0,0,
0,0,0,0,0,0,0,0,0,197,198,199,0,0,0,0,0,0,0,0
</data>
 </layer>
 <layer id="3" name="Tile Layer 3" width="20" height="15">
  <data encoding="csv">
2707,2707,2707,2707,2707,2707,2707,2707,2707,2707,2707,2707,2707,2707,2707,2707,2707,2707,2707,2707,
2707,2707,2708,2709,2710,2707,2707,2707,2707,2707,2707,2707,2707,2707,2707,2708,2709,2710,2707,2707,
2707,2715,2716,2717,2718,3641,3642,3643,2715,2715,2715,3641,3642,3643,2715,2716,2717,2718,2715,2715,
2707,3662,0,0,0,3649,3650,3651,0,0,0,3649,3650,3651,0,0,0,0,0,0,
2707,3670,0,0,0,3657,3658,3659,0,0,0,3657,3658,3659,0,0,0,0,0,0,
2707,3625,3626,3627,0,3665,3666,3667,0,0,0,3665,3666,3667,0,0,0,0,0,0,
2707,3633,3634,3635,0,0,0,0,0,0,0,0,0,0,0,0,0,0,0,0,
2707,0,0,0,0,0,0,0,0,0,0,0,0,0,0,0,0,0,0,0,
2707,0,0,0,0,0,0,0,0,0,0,0,3661,3661,3661,3661,3661,3661,3661,3661,
2707,3625,3626,3627,0,0,0,0,0,0,0,0,3669,3669,3669,3669,3669,3669,3669,3669,
2707,3633,3634,3635,0,0,0,0,0,0,0,0,0,0,0,0,0,0,0,3644,
2707,0,0,0,0,0,0,0,0,0,0,0,0,0,0,0,0,0,0,3652,
2707,3661,3661,3661,0,0,0,0,0,0,0,0,0,0,0,0,0,3661,3661,3661,
2707,3669,3669,3669,0,0,0,0,0,0,0,0,0,0,0,0,0,3669,3669,3669,
0,0,0,0,0,0,0,0,0,0,0,0,0,0,0,0,0,0,0,0
</data>
 </layer>
 <layer id="4" name="Tile Layer 4" width="20" height="15">
  <data encoding="csv">
2699,2699,2700,2701,2702,2699,2699,2699,2699,2699,2699,2699,2699,2699,2699,2700,2701,2702,2699,2699,
0,0,0,0,0,0,0,0,3540,3541,3542,0,0,0,0,0,0,0,0,0,
2707,0,0,0,0,0,0,0,0,0,0,0,0,0,0,0,0,0,0,0,
2721,0,0,0,0,0,0,0,0,0,0,0,0,0,0,0,0,0,0,0,
2721,3617,0,0,0,0,0,0,0,0,0,0,0,0,0,0,0,0,0,0,
2721,0,0,0,0,0,0,0,0,0,0,0,0,0,0,0,0,0,0,0,
2721,0,0,0,0,0,0,0,0,0,0,0,0,0,0,0,0,0,0,0,
2721,0,0,0,0,0,0,0,0,0,0,0,0,0,0,0,0,0,0,0,
2721,3617,0,0,0,0,0,0,0,0,0,0,0,0,0,0,0,0,0,0,
2721,0,0,0,0,0,0,0,0,0,0,0,0,0,0,0,0,0,0,3636,
2721,0,0,0,0,0,0,0,0,0,0,0,0,0,0,0,0,0,0,0,
2721,0,0,0,0,0,0,0,0,0,0,0,0,0,0,0,0,0,0,0,
2721,0,0,0,0,0,0,0,0,0,0,0,0,0,0,0,0,0,0,0,
2721,0,0,0,0,0,0,0,0,0,0,0,0,0,0,0,0,0,0,0,
0,0,0,0,0,0,0,0,0,0,0,0,0,0,0,0,0,0,0,0
</data>
 </layer>
 <objectgroup id="5" name="Object Layer 1">
  <object id="1" x="294" y="422" width="24" height="25">
   <properties>
    <property name="exit" type="bool" value="true"/>
   </properties>
  </object>
 </objectgroup>
</map>
