<?xml version="1.0" encoding="UTF-8"?>
<map version="1.10" tiledversion="1.12.1" orientation="orthogonal" renderorder="left-up" width="20" height="15" tilewidth="32" tileheight="32" infinite="0" nextlayerid="6" nextobjectid="2">
 <tileset firstgid="1" source="../TILESET/Fall1.tsx"/>
 <tileset firstgid="321" source="../TILESET/Base1.tsx"/>
 <tileset firstgid="593" source="../TILESET/PC_GYM2.tsx"/>
 <tileset firstgid="2129" source="../TILESET/biomes.tsx"/>
 <layer id="1" name="Tile Layer 1" width="20" height="15">
  <data encoding="csv">
1,1,1,1,1,1,1,1,1,1,1,1,1,1,1,1,1,1,1,1,
1,1,1,1,1,1,1,1,1,1,1,1,1,1,1,1,1,1,1,1,
1,1,1,1,1,1,1,1,1,1,1,1,1,1,1,1,1,1,1,1,
1,1,1,1,1,1,1,1,1,1,1,1,1,1,1,1,1,1,1,1,
1,1,1,1,1,1,1,1,1,1,1,1,1,1,1,1,1,1,1,1,
1,1,1,1,1,1,1,1,1,1,1,1,1,1,1,1,1,1,1,1,
1,1,1,1,1,1,1,1,1,1,1,1,1,1,1,1,1,1,1,1,
1,1,1,1,1,1,1,1,1,1,1,1,1,1,1,1,1,1,1,1,
1,1,1,1,1,1,1,1,1,1,1,1,1,1,1,1,1,1,1,1,
1,1,1,1,1,1,1,1,1,1,1,1,1,1,1,1,1,1,1,1,
1,1,1,1,1,1,1,1,1,1,1,1,1,1,1,1,1,1,1,1,
1,1,1,1,1,1,1,1,1,1,1,1,1,1,1,1,1,1,1,1,
1,1,1,1,1,1,1,1,1,1,1,1,1,1,1,1,1,1,1,1,
1,1,1,1,1,1,1,1,1,1,1,1,1,1,1,1,1,1,1,1,
1,1,1,1,1,1,1,1,1,1,1,1,1,1,1,1,1,1,1,1
</data>
 </layer>
 <layer id="2" name="Tile Layer 2" width="20" height="15">
  <data encoding="csv">
0,0,0,0,0,0,0,0,0,0,0,0,0,0,0,0,0,0,0,0,
0,0,0,0,3,0,0,0,0,0,3,0,0,0,3,0,0,3,0,0,
0,0,0,0,0,0,0,0,0,0,0,0,3,0,0,0,0,0,11,0,
0,0,0,0,0,0,0,0,0,0,0,0,3,0,0,0,0,11,11,0,
0,0,0,0,0,0,0,0,0,0,0,0,0,0,0,0,0,11,0,3,
0,0,0,0,0,0,0,0,0,0,0,0,0,0,0,0,0,11,0,0,
0,0,0,0,0,0,0,0,0,0,0,0,3,3,0,0,0,0,0,0,
0,0,0,0,0,0,0,0,0,0,0,0,0,0,0,11,3,0,0,3,
0,0,0,0,0,0,0,0,0,0,0,0,0,0,11,11,0,0,0,0,
0,0,0,0,0,0,0,0,0,0,0,0,0,11,11,11,3,0,0,0,
0,0,0,0,3,0,0,0,0,0,0,0,3,11,11,11,0,0,0,3,
0,0,0,0,0,0,0,3,0,0,0,0,0,11,0,0,0,0,0,0,
0,0,0,0,0,0,0,0,0,0,0,0,0,0,0,0,0,0,0,0,
0,0,0,0,0,0,0,0,0,0,0,0,0,0,0,0,0,0,0,0,
0,0,0,0,0,0,0,0,0,0,0,0,0,0,0,0,0,0,0,0
</data>
 </layer>
 <layer id="3" name="Tile Layer 3" width="20" height="15">
  <data encoding="csv">
458,458,459,422,422,422,422,422,422,422,422,422,422,422,422,422,422,422,422,422,
460,458,459,0,0,0,0,0,0,0,0,0,0,0,5471,5472,0,0,0,0,
458,458,459,0,0,0,0,0,0,0,0,0,0,0,5521,5522,0,0,0,0,
458,458,459,849,850,851,852,853,854,855,856,0,0,0,5571,5572,0,0,0,0,
458,458,459,857,858,859,860,861,862,863,864,0,0,0,5621,5622,0,0,0,0,
458,458,459,865,866,867,868,869,870,871,872,0,0,0,5671,5672,5673,5471,5472,0,
458,458,459,873,874,875,876,877,878,879,880,0,0,0,5721,5722,5723,5521,5522,0,
458,458,459,881,882,883,884,885,886,887,888,0,0,0,0,0,0,5571,5572,0,
458,458,459,889,890,891,892,893,894,895,896,1924,0,0,0,0,0,5621,5622,0,
458,458,459,897,898,899,900,901,902,903,904,0,0,0,0,0,0,5671,5672,5673,
458,458,459,0,0,0,0,0,0,0,0,0,0,0,0,0,0,5721,5722,5723,
458,458,459,0,0,0,0,0,0,0,0,0,0,0,0,0,0,0,0,0,
458,458,459,0,0,0,0,0,0,0,0,0,0,0,95,95,95,95,95,95,
458,458,459,95,95,95,95,95,95,95,95,95,95,95,95,422,422,422,422,422,
458,458,459,422,422,422,422,422,422,422,422,422,422,422,422,422,422,422,422,422
</data>
 </layer>
 <layer id="4" name="Tile Layer 4" width="20" height="15">
  <data encoding="csv">
0,0,0,0,0,0,0,0,0,0,0,0,0,0,0,0,0,0,0,0,
0,0,0,833,834,835,836,837,838,839,840,0,0,0,0,0,5473,0,0,0,
0,0,0,841,842,843,844,845,846,847,848,0,0,0,0,0,5523,0,0,0,
0,0,0,0,0,0,0,0,0,0,0,0,0,0,0,0,5573,0,0,0,
0,0,0,0,0,0,0,0,0,0,0,0,0,0,0,0,5623,0,0,0,
0,0,0,0,0,0,0,0,0,0,0,0,0,0,0,0,0,0,0,5473,
0,0,0,0,0,0,0,0,0,0,0,0,0,0,0,0,0,0,0,5523,
0,0,0,0,0,0,0,0,0,0,0,0,0,0,0,0,0,0,0,5573,
0,0,0,0,0,0,0,0,0,0,0,0,0,0,0,0,0,0,0,5623,
0,0,0,0,0,0,0,0,0,0,0,0,0,0,0,0,0,0,0,0,
0,0,0,0,0,0,0,0,0,0,0,0,0,0,0,0,0,0,0,0,
0,0,0,0,0,0,0,0,0,0,0,0,0,0,87,87,87,87,87,87,
0,0,0,87,87,87,87,87,87,87,87,87,87,87,87,406,406,406,406,406,
0,0,0,406,406,406,406,406,406,406,406,406,406,406,406,406,406,406,406,406,
0,0,0,406,406,406,406,406,406,406,406,406,406,406,406,406,406,406,406,406
</data>
 </layer>
 <objectgroup id="5" name="Object Layer 1">
  <object id="1" x="160.817" y="258.334" width="29.6543" height="26.2326">
   <properties>
    <property name="entrance_id" value="power"/>
   </properties>
  </object>
 </objectgroup>
</map>
