<?xml version="1.0" encoding="UTF-8"?>
<map version="1.10" tiledversion="1.12.1" orientation="orthogonal" renderorder="left-up" width="20" height="15" tilewidth="32" tileheight="32" infinite="0" nextlayerid="6" nextobjectid="4">
 <tileset firstgid="1" source="../TILESET/dinocenter2.tsx"/>
 <tileset firstgid="209" source="../TILESET/INTERIOR_ALL.tsx"/>
 <layer id="1" name="Tile Layer 1" width="20" height="15">
  <data encoding="csv">
21,21,21,21,21,21,21,21,21,21,21,21,21,21,21,21,21,21,21,21,
21,21,21,21,21,21,21,21,21,21,21,21,21,21,21,21,21,21,21,21,
21,21,21,21,21,21,21,21,21,21,21,21,21,21,21,21,21,21,21,21,
21,21,21,21,21,21,21,21,21,21,21,21,21,21,21,21,21,21,21,21,
21,21,21,21,21,21,21,21,21,21,21,21,21,21,21,21,21,21,21,21,
21,21,21,21,21,21,21,21,21,21,21,21,21,21,21,21,21,21,21,21,
21,21,21,21,21,21,21,21,21,21,21,21,21,21,21,21,21,21,21,21,
21,21,21,21,21,21,21,21,21,21,21,21,21,21,21,21,21,21,21,21,
21,21,21,21,21,21,21,21,21,21,21,21,21,21,21,21,21,21,21,21,
21,21,21,21,21,21,21,21,21,21,21,21,21,21,21,21,21,21,21,21,
21,21,21,21,21,21,21,21,21,21,21,21,21,21,21,21,21,21,21,21,
21,21,21,21,21,21,21,21,21,21,21,21,21,21,21,21,21,21,21,21,
21,21,21,21,21,21,21,21,21,21,21,21,21,21,21,21,21,21,21,21,
21,21,21,21,21,21,21,21,21,21,21,21,21,21,21,21,21,21,21,21,
21,21,21,21,21,21,21,21,21,21,21,21,21,21,21,21,21,21,21,21
</data>
 </layer>
 <layer id="2" name="Tile Layer 2" width="20" height="15">
  <data encoding="csv">
2699,2699,2699,2699,2699,2699,2700,2701,2702,2699,2699,2699,2699,2699,2699,2699,2700,2701,2702,2699,
2707,2707,2707,2707,2707,2707,2708,2709,2710,2707,2707,2707,2707,2707,2707,2707,2708,2709,2710,2707,
2715,2715,2715,2715,2715,2715,2716,2717,2718,2715,2715,2715,2715,2715,2715,2715,2716,2717,2718,2715,
2721,0,0,0,0,0,0,0,0,0,0,0,0,0,0,0,0,0,0,0,
2721,0,0,0,0,0,0,0,0,0,0,0,0,0,0,0,0,0,0,0,
2721,0,0,0,0,0,0,0,0,0,0,0,0,0,0,0,0,0,0,0,
2721,0,0,0,0,0,0,0,0,0,0,0,0,0,0,0,0,0,0,0,
0,0,0,0,0,0,0,0,0,0,0,0,0,0,0,0,0,0,0,0,
0,0,0,0,0,0,0,0,0,0,0,0,0,0,0,0,0,0,0,0,
0,0,0,0,0,0,0,0,0,0,0,0,0,0,0,0,0,0,0,0,
0,0,0,0,0,0,0,0,0,0,0,0,0,0,0,0,0,0,0,0,
0,0,0,0,0,0,0,0,0,0,0,0,0,0,0,0,0,0,0,0,
0,0,0,0,0,0,0,0,0,0,0,0,0,0,0,0,0,0,0,0,
0,0,0,0,0,0,0,0,0,0,0,0,0,0,0,0,0,0,0,0,
0,0,0,0,0,0,0,0,0,0,0,0,0,0,0,0,0,0,0,0
</data>
 </layer>
 <layer id="3" name="Tile Layer 3" width="20" height="15">
  <data encoding="csv">
0,0,0,0,0,0,0,0,0,0,0,0,0,0,0,0,0,0,0,0,
0,3553,3554,3555,3556,3557,0,0,0,0,3548,3549,3550,0,0,0,0,0,0,0,
0,3561,3562,3563,3564,3565,0,0,0,0,0,0,0,0,0,0,0,0,3567,0,
2707,3569,3570,3571,3572,3573,0,0,0,0,0,0,0,0,0,0,0,0,3575,2707,
2707,3577,3578,3579,3580,3581,0,0,0,0,0,0,0,0,0,0,0,0,0,2707,
2707,3585,3586,3587,3588,3589,0,0,0,0,0,0,0,0,0,0,0,0,3567,2707,
2707,0,0,0,0,0,0,0,0,0,0,0,0,0,0,0,0,0,3575,2707,
3661,3661,3661,3661,3661,3661,3661,3661,3661,0,0,0,3661,3661,3661,3661,3661,3661,3661,3661,
3669,3669,3669,3669,3669,3669,3669,3669,3669,0,0,0,3669,3669,3669,3669,3669,3669,3669,3661,
0,0,0,0,0,0,0,3546,0,0,0,0,0,0,0,0,0,0,0,3661,
0,0,0,0,0,0,0,3546,0,0,0,0,0,0,0,0,0,0,0,3661,
3697,3698,3699,3700,3701,3702,3703,3661,3661,3661,3661,3661,3661,3661,3661,0,0,0,0,3661,
3705,3706,3707,3708,3709,3710,3711,3669,3669,3669,3669,3669,3669,3669,3661,0,0,0,0,3661,
3713,3714,3715,0,0,0,0,0,0,0,3507,3508,3507,3508,3661,0,0,0,0,3661,
3721,3722,3723,0,0,0,0,0,0,0,3515,3516,3515,3516,3669,0,0,0,0,3669
</data>
 </layer>
 <layer id="4" name="Tile Layer 4" width="20" height="15">
  <data encoding="csv">
0,0,0,0,0,0,0,0,0,0,0,0,0,0,0,0,0,0,0,0,
0,0,0,0,0,0,0,0,0,0,0,0,0,0,0,0,0,0,0,0,
0,0,0,0,0,0,0,0,0,0,0,0,0,0,0,0,0,0,0,0,
2721,0,0,0,0,0,0,0,0,0,0,0,0,0,0,0,0,0,0,2728,
2721,0,0,0,0,0,0,0,0,0,0,0,0,0,0,0,0,0,0,2728,
2721,0,0,0,0,0,0,0,0,0,0,0,0,0,0,0,0,0,0,2728,
2721,0,0,0,0,0,0,0,0,0,0,0,0,0,0,0,0,0,0,2728,
0,0,0,0,0,0,0,0,0,0,0,0,0,0,0,0,0,0,0,0,
3637,3637,3637,0,0,0,0,3538,0,0,0,0,0,0,0,0,0,0,0,0,
3645,3645,3645,0,0,0,0,3538,0,0,0,0,0,0,0,0,0,0,0,0,
3653,3653,3653,0,0,0,0,0,0,0,0,0,0,0,0,0,0,0,0,0,
0,0,0,0,0,0,0,0,0,0,0,0,0,0,0,0,0,0,0,0,
0,0,0,0,0,3637,3637,0,0,0,3499,3500,3499,3500,0,0,0,0,0,0,
0,0,0,0,0,3645,3645,0,0,0,0,0,0,0,0,0,0,0,0,0,
0,0,0,0,0,3653,3653,0,0,0,0,0,0,0,0,0,0,0,0,0
</data>
 </layer>
 <objectgroup id="5" name="Object Layer 1">
  <object id="1" x="32" y="192" width="32" height="32">
   <properties>
    <property name="ball" type="bool" value="true"/>
    <property name="item" value="Mega Spray"/>
   </properties>
  </object>
  <object id="2" x="544" y="96" width="32" height="32">
   <properties>
    <property name="ball" type="bool" value="true"/>
    <property name="item" value="Revival Gem"/>
   </properties>
  </object>
  <object id="3" x="320" y="96" width="32" height="32">
   <properties>
    <property name="ball" type="bool" value="true"/>
    <property name="item" value="DinoPod"/>
   </properties>
  </object>
 </objectgroup>
</map>
