<?xml version="1.0" encoding="UTF-8"?>
<map version="1.10" tiledversion="1.12.1" orientation="orthogonal" renderorder="left-up" width="20" height="15" tilewidth="32" tileheight="32" infinite="0" nextlayerid="6" nextobjectid="1">
 <tileset firstgid="1" source="../TILESET/Base1.tsx"/>
 <tileset firstgid="273" source="../TILESET/Fall1.tsx"/>
 <tileset firstgid="593" source="../TILESET/biomes.tsx"/>
 <layer id="1" name="Tile Layer 1" width="20" height="15">
  <data encoding="csv">
1,1,1,1,1,1,1,1,1,1,1,1,1,1,1,1,1,1,1,1,
273,273,273,273,273,273,273,273,273,273,273,273,273,273,273,273,273,273,1,1,
275,273,273,275,273,273,273,273,273,273,273,273,273,273,273,275,273,273,1,1,
273,273,273,273,273,273,273,273,273,273,273,273,273,273,273,273,273,273,1,1,
273,273,273,273,273,273,275,273,273,273,273,273,273,273,273,273,273,273,1,1,
273,273,273,273,273,273,273,273,273,273,273,275,273,273,273,273,273,273,1,1,
273,273,273,273,273,273,273,273,273,273,273,273,273,273,273,273,273,273,1,1,
273,273,273,273,273,273,273,273,273,273,273,273,273,273,273,273,273,273,1,1,
273,273,273,273,273,273,273,273,273,273,273,275,273,273,273,273,273,273,1,1,
273,273,273,273,273,273,273,273,273,273,273,273,273,273,275,273,273,273,1,1,
275,273,273,273,273,273,275,273,273,273,273,273,273,273,273,273,273,273,1,1,
273,273,273,273,273,273,273,273,273,273,273,273,273,273,273,273,273,273,1,1,
273,273,273,273,273,273,273,273,273,273,273,273,273,273,273,273,273,273,1,1,
1,1,1,1,1,1,1,1,1,1,1,1,1,1,1,1,1,1,1,1,
1,1,1,1,1,1,1,1,1,1,1,1,1,1,1,1,1,1,1,1
</data>
 </layer>
 <layer id="3" name="Tile Layer 2" width="20" height="15">
  <data encoding="csv">
0,0,0,0,0,0,0,0,0,283,283,283,283,0,0,0,0,0,0,0,
0,0,0,0,283,283,0,0,0,283,283,283,0,0,0,0,0,0,0,0,
0,0,0,0,283,0,0,0,0,0,283,0,0,0,0,0,283,0,0,0,
0,0,0,0,283,0,0,0,0,0,283,0,0,0,0,283,283,0,0,0,
0,0,0,0,283,0,0,0,0,0,283,0,0,0,0,283,283,0,0,0,
0,0,0,0,0,0,0,0,0,0,0,0,0,0,0,283,0,0,0,0,
0,0,0,0,0,0,0,0,0,0,0,0,0,0,0,0,0,0,0,0,
0,283,0,0,0,0,0,0,0,0,0,0,0,0,0,0,0,0,0,0,
283,283,0,0,0,0,0,283,0,0,0,0,283,283,0,0,0,0,0,0,
283,283,0,0,0,0,0,283,0,0,0,0,283,283,0,0,0,0,0,0,
0,0,0,0,0,0,0,283,283,0,0,0,283,0,0,0,0,0,0,0,
0,0,0,0,0,0,0,0,0,0,0,0,0,0,0,0,0,0,0,0,
0,0,0,0,0,0,0,0,0,0,0,0,0,0,0,0,0,0,0,0,
0,0,0,0,0,0,0,0,0,0,0,0,0,0,0,0,0,0,0,0,
0,0,0,0,0,0,0,0,0,0,0,0,0,0,0,0,0,0,0,0
</data>
 </layer>
 <layer id="4" name="Tile Layer 3" width="20" height="15">
  <data encoding="csv">
94,94,94,94,94,94,0,0,0,0,0,0,0,94,94,94,94,94,94,94,
3935,3936,0,0,0,0,3935,3936,0,0,0,0,3935,3936,0,0,0,0,94,94,
3985,3986,0,0,0,0,3985,3986,0,0,0,0,3985,3986,0,0,0,367,94,94,
4035,4036,0,0,0,0,4035,4036,0,0,0,0,4035,4036,0,0,0,367,94,94,
4085,4086,0,0,0,0,4085,4086,0,0,0,0,4085,4086,0,0,0,367,94,94,
4135,4136,0,3935,3936,0,4135,4136,4137,3935,3936,0,4135,4136,4137,0,0,367,94,94,
4185,4186,4187,3985,3986,0,4185,4186,4187,3985,3986,0,4185,4186,4187,3936,0,367,94,94,
0,0,0,4035,4036,0,0,0,0,4035,4036,0,0,0,3985,3986,0,367,94,94,
0,0,0,4085,4086,0,0,0,0,4085,4086,0,0,0,4035,4036,0,367,94,94,
0,0,0,4135,4136,4137,0,0,0,4135,4136,4137,0,0,4085,4086,0,367,94,94,
0,0,0,4185,4186,4187,0,0,0,4185,4186,4187,0,0,4135,4136,4137,367,94,94,
0,0,0,0,0,0,0,0,0,0,0,0,0,0,4185,4186,4187,367,94,94,
367,367,367,367,367,367,367,367,367,367,367,367,367,367,367,367,367,367,94,94,
94,94,94,94,94,94,94,94,94,94,94,94,94,94,94,94,94,94,94,94,
94,94,94,94,94,94,94,94,94,94,94,94,94,94,94,94,94,94,94,94
</data>
 </layer>
 <layer id="5" name="Tile Layer 4" width="20" height="15">
  <data encoding="csv">
0,0,0,0,0,0,0,0,0,0,0,0,0,0,0,0,0,351,86,86,
0,0,3937,0,0,0,0,0,3937,0,0,0,0,0,3937,0,0,359,86,86,
0,0,3987,0,0,0,0,0,3987,0,0,0,0,0,3987,0,0,359,86,86,
0,0,4037,0,0,0,0,0,4037,0,0,0,0,0,4037,0,0,359,86,86,
0,0,4087,0,0,0,0,0,4087,0,0,0,0,0,4087,0,0,359,86,86,
0,0,4137,0,0,3937,0,0,0,0,0,3937,0,0,0,0,0,359,86,86,
0,0,0,0,0,3987,0,0,0,0,0,3987,0,0,0,0,3937,359,86,86,
0,0,0,0,0,4037,0,0,0,0,0,4037,0,0,0,0,3987,359,86,86,
0,0,0,0,0,4087,0,0,0,0,0,4087,0,0,0,0,4037,359,86,86,
0,0,0,0,0,0,0,0,0,0,0,0,0,0,0,0,4087,359,86,86,
0,0,0,0,0,0,0,0,0,0,0,0,0,0,0,0,0,359,86,86,
359,359,359,359,359,359,359,359,359,359,359,359,359,359,359,359,359,359,86,86,
86,86,86,86,86,86,86,86,86,86,86,86,86,86,86,86,86,86,86,86,
86,86,86,86,86,86,86,86,86,86,86,86,86,86,86,86,86,86,86,86,
86,86,86,86,86,86,86,86,86,86,86,86,86,86,86,86,86,86,86,86
</data>
 </layer>
</map>
