<?xml version="1.0" encoding="UTF-8"?>
<map version="1.10" tiledversion="1.12.1" orientation="orthogonal" renderorder="left-up" width="20" height="15" tilewidth="32" tileheight="32" infinite="0" nextlayerid="6" nextobjectid="3">
 <tileset firstgid="1" source="../TILESET/Base1.tsx"/>
 <layer id="1" name="Tile Layer 1" width="20" height="15">
  <data encoding="csv">
1,1,1,1,1,1,1,1,1,1,1,1,1,1,1,1,1,1,1,1,
1,1,1,1,1,1,1,1,1,1,1,1,1,1,1,1,1,1,1,1,
1,1,1,1,1,1,1,1,1,1,1,1,1,1,1,1,1,1,1,1,
1,1,1,1,1,1,1,1,1,1,1,1,1,1,1,1,1,1,1,1,
1,1,1,1,1,1,1,1,1,1,1,1,1,1,1,1,1,1,1,1,
1,1,1,1,1,1,1,1,1,1,1,1,1,1,1,1,1,1,1,1,
1,1,1,1,1,1,1,1,1,1,1,1,1,1,1,1,1,1,1,1,
1,1,1,1,1,1,1,1,1,1,1,1,1,1,1,1,1,1,1,1,
1,1,1,1,1,1,1,1,1,1,1,1,1,1,1,1,1,1,1,1,
1,1,1,1,1,1,1,1,1,1,1,1,1,1,1,1,1,1,1,1,
1,1,1,1,1,1,1,1,1,1,1,1,1,1,1,1,1,1,1,1,
1,1,1,1,1,1,1,1,1,1,1,1,1,1,1,1,1,1,1,1,
1,1,1,1,1,1,1,1,1,1,1,1,1,1,1,1,1,1,1,1,
1,1,1,1,1,1,1,1,1,1,1,1,1,1,1,1,1,1,1,1,
1,1,1,1,1,1,1,1,1,1,1,1,1,1,1,1,1,1,1,1
</data>
 </layer>
 <layer id="2" name="Tile Layer 2" width="20" height="15">
  <data encoding="csv">
0,0,0,0,0,0,0,0,0,0,0,0,0,0,0,0,0,0,0,0,
0,0,0,0,0,0,0,0,0,0,0,0,0,0,0,0,0,0,0,0,
9,5,5,0,0,0,0,0,0,0,0,0,0,0,0,5,0,0,0,0,
9,9,0,0,0,0,0,0,5,0,0,0,0,9,0,0,0,0,0,0,
9,9,9,5,0,0,0,0,0,0,5,0,9,9,0,0,0,0,0,0,
9,9,9,0,0,0,0,0,0,0,0,0,9,0,0,0,0,0,0,0,
9,9,9,0,0,0,0,0,9,9,9,9,9,0,0,0,0,0,0,0,
9,9,9,0,0,5,0,9,9,9,9,9,9,13,0,0,0,0,0,0,
9,9,9,9,9,0,9,9,0,9,0,9,9,0,0,0,0,0,0,0,
9,9,9,9,9,9,9,9,5,9,9,9,9,0,0,0,0,0,0,0,
0,5,9,9,9,9,9,9,0,9,9,9,9,5,0,0,13,0,0,0,
0,0,0,0,9,9,0,9,9,9,0,0,0,0,0,0,0,0,0,0,
0,0,0,0,0,0,0,0,0,0,0,0,0,0,0,0,0,0,0,0,
0,0,0,0,0,0,0,0,0,0,0,0,0,0,0,0,0,0,0,0,
0,0,0,0,0,0,0,0,0,0,0,0,0,0,0,0,0,0,0,0
</data>
 </layer>
 <layer id="3" name="Tile Layer 3" width="20" height="15">
  <data encoding="csv">
137,138,138,138,138,138,138,138,138,138,138,138,138,138,138,138,138,138,138,138,
145,146,146,146,146,146,146,200,146,146,146,146,146,146,146,146,146,146,146,146,
0,0,0,102,102,0,0,0,0,0,0,102,102,102,102,0,0,94,94,94,
0,0,0,0,0,0,0,0,0,0,0,0,0,0,0,0,0,94,94,94,
0,0,0,0,0,0,0,0,0,0,0,0,0,0,0,0,0,94,94,94,
0,0,0,0,0,0,0,0,0,0,0,0,0,81,82,83,0,94,94,94,
0,0,0,0,0,0,0,0,0,0,0,0,0,89,90,91,0,94,94,94,
0,0,0,0,0,0,0,0,0,0,0,0,0,0,0,0,0,94,94,94,
0,0,0,0,0,0,0,0,0,0,0,0,0,0,0,0,0,94,94,94,
0,0,0,0,0,0,0,0,0,0,0,0,0,0,0,0,0,94,94,94,
0,0,0,0,0,0,0,0,0,0,0,0,0,0,0,0,0,94,94,94,
0,0,0,0,0,0,0,0,0,0,0,0,0,0,0,0,0,94,94,94,
94,94,94,94,94,94,94,94,94,94,94,94,94,94,94,94,94,94,94,94,
94,94,94,94,94,94,94,94,94,94,94,94,94,94,94,94,94,94,94,94,
94,94,94,94,94,94,94,94,94,94,94,94,94,94,94,94,94,94,94,94
</data>
 </layer>
 <layer id="4" name="Tile Layer 4" width="20" height="15">
  <data encoding="csv">
0,0,0,0,0,0,0,0,0,0,0,0,0,0,0,0,0,0,0,0,
0,0,0,86,86,0,0,0,0,0,0,86,86,86,86,0,0,86,86,86,
0,0,0,0,0,0,0,0,0,0,0,0,0,0,0,0,0,86,86,86,
0,0,0,0,0,0,0,0,0,0,0,0,0,0,0,0,0,86,86,86,
0,0,0,0,0,0,0,0,0,0,0,0,0,73,74,75,0,86,86,86,
0,0,0,0,0,0,0,0,0,0,0,0,0,0,0,0,0,86,86,86,
0,0,0,0,0,0,0,0,0,0,0,0,0,0,0,0,0,86,86,86,
0,0,0,0,0,0,0,0,0,0,0,0,0,0,0,0,0,86,86,86,
0,0,0,0,0,0,0,0,0,0,0,0,0,0,0,0,0,86,86,86,
0,0,0,0,0,0,0,0,0,0,0,0,0,0,0,0,0,86,86,86,
0,0,0,0,0,0,0,0,0,0,0,0,0,0,0,0,0,86,86,86,
86,86,86,86,86,86,86,86,86,86,86,86,86,86,86,86,86,86,86,86,
86,86,86,86,86,86,86,86,86,86,86,86,86,86,86,86,86,86,86,86,
86,86,86,86,86,86,86,86,86,86,86,86,86,86,86,86,86,86,86,86,
86,86,86,86,86,86,86,86,86,86,86,86,86,86,86,86,86,86,86,86
</data>
 </layer>
 <objectgroup id="5" name="Object Layer 1">
  <object id="1" x="226.969" y="35.357" width="26.2326" height="25.6624">
   <properties>
    <property name="entrance_id" value="cobalt"/>
   </properties>
  </object>
 </objectgroup>
</map>
