<?xml version="1.0" encoding="UTF-8"?>
<map version="1.10" tiledversion="1.12.1" orientation="orthogonal" renderorder="left-up" width="20" height="15" tilewidth="32" tileheight="32" infinite="0" nextlayerid="5" nextobjectid="1">
 <tileset firstgid="1" source="../TILESET/Base1.tsx"/>
 <layer id="1" name="Tile Layer 1" width="20" height="15">
  <data encoding="csv">
1,1,1,1,1,1,1,1,1,1,1,1,1,1,1,1,1,1,1,1,
1,1,1,1,1,1,1,1,1,1,1,1,1,1,1,1,1,1,1,1,
1,1,1,1,1,1,1,1,1,1,1,1,1,1,1,1,1,1,1,1,
1,1,1,1,1,1,1,1,1,1,1,1,1,1,1,1,1,1,1,1,
1,1,1,1,1,1,1,1,1,1,1,1,1,1,1,1,1,1,1,1,
1,1,1,1,1,1,1,1,1,1,1,1,1,1,1,1,1,1,1,1,
1,1,1,1,1,1,1,1,1,1,1,1,1,1,1,1,1,1,1,1,
1,1,1,1,1,1,1,1,1,1,1,1,1,1,1,1,1,1,1,1,
1,1,1,1,1,1,1,1,1,1,1,1,1,1,1,1,1,1,1,1,
1,1,1,1,1,1,1,1,1,1,1,1,1,1,1,1,1,1,1,1,
1,1,1,1,1,1,1,1,1,1,1,1,1,1,1,1,1,1,1,1,
1,1,1,1,1,1,1,1,1,1,1,1,1,1,1,1,1,1,1,1,
1,1,1,1,1,1,1,1,1,1,1,1,1,1,1,1,1,1,1,1,
1,1,1,1,1,1,1,1,1,1,1,1,1,1,1,1,1,1,1,1,
1,1,1,1,1,1,1,1,1,1,1,1,1,1,1,1,1,1,1,1
</data>
 </layer>
 <layer id="2" name="Tile Layer 2" width="20" height="15">
  <data encoding="csv">
0,0,0,0,0,0,0,0,0,0,0,0,0,0,0,0,0,0,0,0,
40,5,0,0,13,0,0,9,9,9,9,9,0,0,0,0,0,5,0,9,
40,0,0,0,0,0,0,9,9,9,9,9,5,0,5,0,0,0,9,9,
40,0,0,5,0,0,9,9,9,9,9,0,0,0,0,0,0,9,9,9,
40,0,0,0,0,0,9,9,9,9,0,0,0,0,0,0,0,9,9,9,
40,0,0,0,0,0,9,9,9,0,0,0,0,0,0,0,0,9,9,9,
40,0,0,0,5,9,9,9,9,5,0,0,0,0,0,0,0,9,9,9,
40,5,0,0,0,9,9,9,9,0,0,0,0,0,0,0,0,0,9,9,
40,0,0,0,9,9,9,9,9,0,0,0,0,0,0,0,0,0,0,9,
40,0,0,9,9,5,9,9,9,0,0,0,5,0,0,0,5,0,0,0,
40,0,9,9,0,0,9,9,0,0,0,0,0,0,0,0,0,0,13,0,
35,0,0,0,0,0,9,9,0,0,0,0,0,0,0,0,0,0,0,0,
0,0,0,0,0,0,0,0,0,0,0,0,0,0,0,0,0,0,0,0,
0,0,0,0,0,0,0,0,0,0,0,0,0,0,0,0,0,0,0,0,
0,0,0,0,0,0,0,0,0,0,0,0,0,0,0,0,0,0,0,0
</data>
 </layer>
 <layer id="3" name="Tile Layer 3" width="20" height="15">
  <data encoding="csv">
94,94,94,94,94,94,94,94,94,94,94,94,94,94,94,94,94,94,94,94,
0,0,0,0,0,0,0,0,0,0,0,0,0,0,0,142,143,0,0,0,
0,0,0,0,0,0,0,0,0,0,0,0,0,0,0,150,151,0,0,0,
0,0,0,0,0,0,0,0,0,0,0,0,0,0,0,0,0,0,0,0,
0,0,0,0,0,0,0,0,0,0,0,0,0,0,0,0,0,0,0,0,
0,0,0,0,0,0,0,0,0,0,0,0,0,0,0,0,0,0,0,0,
0,0,0,0,0,0,0,0,0,0,92,93,0,0,0,0,0,0,0,0,
0,0,0,0,0,0,0,0,0,0,0,0,0,0,0,0,0,0,0,0,
0,0,0,0,0,0,0,0,0,0,0,0,0,0,0,0,0,0,0,0,
0,0,0,0,0,0,0,0,0,0,0,0,0,0,142,143,0,0,0,0,
0,0,0,0,0,0,0,0,0,0,0,0,0,0,150,151,0,0,0,0,
0,0,0,0,0,0,0,0,0,0,0,0,0,0,0,0,0,0,0,0,
94,94,94,94,94,94,94,94,94,94,94,94,94,94,94,94,94,94,94,94,
94,94,94,94,94,94,94,94,94,94,94,94,94,94,94,94,94,94,94,94,
94,94,94,94,94,94,94,94,94,94,94,94,94,94,94,94,94,94,94,94
</data>
 </layer>
 <layer id="4" name="Tile Layer 4" width="20" height="15">
  <data encoding="csv">
0,0,0,0,0,0,0,0,0,0,0,0,0,0,0,0,0,0,0,0,
0,0,0,0,0,0,0,0,0,0,0,0,0,0,0,0,0,0,0,0,
0,0,0,0,0,0,0,0,0,0,0,0,0,0,0,0,0,0,0,0,
0,0,0,0,0,0,0,0,0,0,0,0,0,0,0,0,0,0,0,0,
0,0,0,0,0,0,0,0,0,0,76,77,0,0,0,0,0,0,0,0,
0,0,0,0,0,0,0,0,0,0,84,85,0,0,0,0,0,0,0,0,
0,0,0,0,0,0,0,0,0,0,0,0,0,0,0,0,0,0,0,0,
0,0,0,0,0,0,0,0,0,0,0,0,0,0,0,0,0,0,0,0,
0,0,0,0,0,0,0,0,0,0,0,0,0,0,0,0,0,0,0,0,
0,0,0,0,0,0,0,0,0,0,0,0,0,0,0,0,0,0,0,0,
0,0,0,0,0,0,0,0,0,0,0,0,0,0,0,0,0,0,0,0,
86,86,86,86,86,86,86,86,86,86,86,86,86,86,86,86,86,86,86,86,
86,86,86,86,86,86,86,86,86,86,86,86,86,86,86,86,86,86,86,86,
86,86,86,86,86,86,86,86,86,86,86,86,86,86,86,86,86,86,86,86,
86,86,86,86,86,86,86,86,86,86,86,86,86,86,86,86,86,86,86,86
</data>
 </layer>
</map>
