<?xml version="1.0" encoding="UTF-8"?>
<map version="1.10" tiledversion="1.12.1" orientation="orthogonal" renderorder="left-up" width="20" height="15" tilewidth="32" tileheight="32" infinite="0" nextlayerid="9" nextobjectid="2">
 <tileset firstgid="1" source="../TILESET/Base1.tsx"/>
 <tileset firstgid="273" source="../TILESET/PC_GYM2.tsx"/>
 <layer id="1" name="Tile Layer 1" width="20" height="15">
  <data encoding="csv">
1,1,1,1,1,1,1,1,1,1,1,1,1,1,1,1,1,1,1,1,
1,1,1,1,1,1,1,1,1,1,1,1,1,1,1,1,1,1,1,1,
1,1,1,1,1,1,1,1,1,1,1,1,1,1,1,1,1,1,1,1,
1,1,1,1,1,1,1,1,1,1,1,1,1,1,1,1,1,1,1,1,
1,1,1,1,1,1,1,1,1,1,1,1,1,1,1,1,1,1,1,1,
1,1,1,1,1,1,1,1,1,1,1,1,1,1,1,1,1,1,1,1,
1,1,1,1,1,1,1,1,1,1,1,1,1,1,1,1,1,1,1,1,
1,1,1,1,1,1,1,1,1,1,1,1,1,1,1,1,1,1,1,1,
1,1,1,1,1,1,1,1,1,1,1,1,1,1,1,1,1,1,1,1,
1,1,1,1,1,1,1,1,1,1,1,1,1,1,1,1,1,1,1,1,
1,1,1,1,1,1,1,1,1,1,1,1,1,1,1,1,1,1,1,1,
1,1,1,1,1,1,1,1,1,1,1,1,1,1,1,1,1,1,1,1,
1,1,1,1,1,1,1,1,1,1,1,1,1,1,1,1,1,1,1,1,
1,1,1,1,1,1,1,1,1,1,1,1,1,1,1,1,1,1,1,1,
1,1,1,1,1,1,1,1,1,1,1,1,1,1,1,1,1,1,1,1
</data>
 </layer>
 <layer id="5" name="Tile Layer 2" width="20" height="15">
  <data encoding="csv">
0,0,0,0,0,0,3,9,9,9,9,0,0,0,0,0,0,0,0,0,
0,0,0,0,0,0,0,9,9,3,9,0,0,0,0,5,0,0,3,0,
0,0,0,0,0,0,5,9,9,9,9,9,0,0,0,0,0,0,0,0,
0,0,0,0,0,0,0,9,9,0,9,9,0,0,0,0,0,0,9,9,
0,0,0,0,0,0,0,9,9,5,9,9,0,0,0,0,0,0,1,0,
0,0,0,0,0,0,0,9,9,9,9,9,0,0,0,0,9,9,9,0,
0,0,0,0,0,0,0,9,9,9,9,9,0,3,0,9,9,9,9,9,
0,0,0,0,0,0,0,0,0,9,9,0,0,0,9,9,9,9,9,9,
0,0,0,0,3,0,0,0,0,0,0,0,0,0,9,9,9,9,9,9,
0,0,0,0,0,0,0,0,0,0,0,0,0,9,9,0,0,9,9,9,
0,0,0,0,0,0,0,3,0,0,0,0,5,9,9,0,0,0,9,9,
0,0,0,0,0,3,0,0,0,0,0,0,0,9,9,0,0,9,9,0,
0,0,0,0,0,0,0,0,0,0,0,0,9,9,0,9,9,0,0,0,
0,0,0,0,0,0,5,0,0,0,0,0,9,9,3,0,9,9,9,3,
0,0,0,0,0,0,0,0,0,0,0,0,9,0,0,0,9,9,0,0
</data>
 </layer>
 <layer id="6" name="Tile Layer 3" width="20" height="15">
  <data encoding="csv">
138,138,139,142,143,0,0,0,0,0,0,0,0,0,0,0,0,0,0,0,
138,138,139,150,151,0,0,0,0,0,0,0,0,142,143,0,0,0,0,0,
138,138,139,1605,0,0,0,0,0,0,0,0,0,150,151,0,0,0,0,0,
138,138,139,111,0,0,0,0,0,0,0,0,0,0,0,0,81,82,83,0,
138,138,139,0,0,0,0,0,0,0,0,0,0,0,0,0,89,90,91,0,
138,138,139,0,0,0,0,0,0,0,0,0,0,0,0,0,0,0,0,0,
138,138,199,0,0,0,0,0,0,0,0,0,0,0,0,0,0,0,0,0,
138,138,139,0,0,0,0,0,0,0,0,0,0,0,0,0,0,0,0,0,
138,138,139,0,0,0,0,0,0,0,0,0,0,0,0,0,0,0,0,0,
138,138,139,1605,0,0,0,0,0,0,0,0,0,0,0,0,0,0,0,0,
138,138,139,0,0,0,0,0,0,0,0,0,0,0,0,81,82,83,0,0,
138,138,139,0,0,0,0,0,0,0,0,0,0,0,0,89,90,91,0,0,
138,138,139,111,0,0,0,0,0,0,142,143,0,0,0,0,0,0,0,0,
138,138,139,142,143,0,0,0,0,0,150,151,0,0,0,0,0,0,0,0,
138,138,139,150,151,0,0,0,0,0,0,0,0,0,0,0,0,0,0,0
</data>
 </layer>
 <layer id="7" name="Tile Layer 4" width="20" height="15">
  <data encoding="csv">
0,0,0,0,0,0,0,0,0,0,0,0,0,0,0,0,0,0,0,0,
0,0,0,0,0,0,0,0,0,0,0,0,0,0,0,0,0,0,0,0,
0,0,0,0,0,0,0,0,0,0,0,0,0,0,0,0,73,74,75,0,
0,0,0,0,0,0,0,0,0,0,0,0,0,0,0,0,0,0,0,0,
0,0,0,0,0,0,0,0,0,0,0,0,0,0,0,0,0,0,0,0,
0,0,0,0,0,0,0,0,0,0,0,0,0,0,0,0,0,0,0,0,
0,0,0,0,0,0,0,0,0,0,0,0,0,0,0,0,0,0,0,0,
0,0,0,0,0,0,0,0,0,0,0,0,0,0,0,0,0,0,0,0,
0,0,0,0,0,0,0,0,0,0,0,0,0,0,0,0,0,0,0,0,
0,0,0,0,0,0,0,0,0,0,0,0,0,0,0,73,74,75,0,0,
0,0,0,0,0,0,0,0,0,0,0,0,0,0,0,0,0,0,0,0,
0,0,0,0,0,0,0,0,0,0,0,0,0,0,0,0,0,0,0,0,
0,0,0,0,0,0,0,0,0,0,0,0,0,0,0,0,0,0,0,0,
0,0,0,0,0,0,0,0,0,0,0,0,0,0,0,0,0,0,0,0,
0,0,0,86,86,86,86,86,86,86,86,86,86,86,86,86,86,86,86,86
</data>
 </layer>
 <objectgroup id="8" name="Object Layer 1">
  <object id="1" x="67.8627" y="196.174" width="23.9515" height="25.6624">
   <properties>
    <property name="entrance_id" value="Cobalt Cave"/>
   </properties>
  </object>
 </objectgroup>
</map>
